<?xml version="1.0" encoding="UTF-8"?>
<map version="1.10" tiledversion="1.12.1" orientation="orthogonal" renderorder="right-down" width="128" height="100" tilewidth="16" tileheight="16" infinite="0" nextlayerid="12" nextobjectid="2871">
 <tileset firstgid="1" source="../tsx/Enviroment-Forest.tsx"/>
 <tileset firstgid="145" source="../tsx/Props-Forest.tsx"/>
 <tileset firstgid="201" source="../tsx/Birch Forest-Tileset.tsx"/>
 <tileset firstgid="1037" source="../tsx/Outside_B.tsx"/>
 <tileset firstgid="2061" source="../tsx/crypt_walls_01.tsx"/>
 <tileset firstgid="2308" source="../tsx/crypt_ground_01.tsx"/>
 <tileset firstgid="2438" source="../tsx/TX Props.tsx"/>
 <tileset firstgid="3462" source="../tsx/TX Shadow.tsx"/>
 <tileset firstgid="4486" source="../tsx/decorative.tsx"/>
 <layer id="1" name="Ground Layer 1" width="128" height="100" locked="1">
  <data encoding="csv">
110,110,110,110,110,110,110,110,110,53,128,128,128,128,128,128,128,128,128,54,110,110,110,110,110,110,53,129,129,129,129,129,129,129,129,129,128,128,54,548,506,506,506,506,506,506,506,506,506,506,506,506,506,506,506,506,506,506,506,506,506,506,505,506,506,506,506,506,506,506,506,506,506,506,506,506,506,506,506,506,506,506,506,506,510,506,506,506,506,506,506,506,506,506,506,506,506,506,506,506,506,506,506,506,506,506,543,53,128,128,128,128,128,128,128,128,128,128,128,128,128,128,128,128,54,111,111,111,
110,110,110,110,110,110,110,110,53,130,60,60,60,60,60,60,60,60,60,127,128,128,128,128,128,128,130,60,60,60,60,60,60,60,60,60,60,60,109,548,506,506,506,506,506,506,506,435,435,506,506,506,506,506,506,506,435,435,435,435,435,435,505,544,544,544,544,544,544,544,544,544,544,544,544,544,544,544,544,544,544,544,435,435,548,435,435,435,435,435,435,435,435,435,506,506,506,506,506,506,506,506,506,506,506,506,543,112,60,60,60,60,60,60,60,60,60,60,60,60,60,60,60,60,127,54,111,111,
110,110,110,110,110,110,110,53,130,60,60,60,60,60,60,60,60,60,60,60,60,60,60,60,60,60,60,60,60,60,60,60,60,60,60,60,60,60,109,548,506,506,506,506,506,435,435,435,435,506,506,506,506,506,506,506,435,435,435,435,435,435,505,544,468,468,2374,2374,2374,2374,2374,2374,2374,2374,2374,2374,2374,2374,2374,2374,2374,544,544,544,588,434,435,435,435,435,435,435,435,435,506,506,506,506,506,506,506,506,506,506,506,506,543,94,60,60,60,60,60,60,60,60,60,60,1,2,2,2,3,4,60,127,54,111,
110,110,110,110,110,110,110,94,60,60,60,60,60,60,60,60,60,60,60,60,60,60,60,60,60,60,60,60,60,60,60,60,60,60,60,60,60,60,72,548,506,506,506,506,435,435,435,435,435,506,506,506,506,506,435,435,435,435,435,435,435,429,591,468,468,468,2374,2374,2361,2374,2374,2363,2374,2361,2363,2374,2361,2374,2374,2374,2374,468,468,468,468,588,434,435,435,435,435,435,435,506,506,506,506,506,506,506,506,435,435,469,506,506,543,71,60,60,60,60,60,60,1,2,2,2,36,20,21,21,21,35,4,60,127,54,
110,110,110,110,110,110,110,71,76,60,60,60,60,60,60,60,60,60,60,60,60,60,60,60,60,60,60,60,60,60,60,60,60,60,60,60,60,60,60,550,435,435,435,435,435,435,435,435,435,435,435,435,435,435,435,435,435,435,435,435,435,543,468,468,468,468,2374,2374,2374,2374,2374,2374,2374,2374,2374,2361,2374,2374,2374,2374,2374,468,468,468,468,468,548,435,435,435,435,435,435,506,506,506,506,506,506,506,435,435,435,435,435,507,543,60,60,60,60,60,60,1,36,20,21,21,21,38,39,39,39,21,35,4,60,91,
110,110,110,110,110,110,110,110,71,76,60,60,60,60,60,60,60,60,60,60,60,60,60,60,60,60,60,60,60,60,60,60,60,60,60,60,60,60,60,550,435,435,435,435,435,435,435,435,435,435,435,435,435,435,435,435,435,435,435,435,435,543,468,468,468,468,2374,2374,2363,2374,2374,2374,2363,2374,2374,2374,2374,2374,2374,2374,2374,468,468,468,468,468,548,435,435,435,435,435,435,435,506,506,506,506,506,435,435,435,435,435,435,435,619,620,477,60,60,60,60,19,20,21,21,39,39,39,39,38,39,39,39,35,4,91,
110,110,110,110,110,110,110,110,110,112,60,60,60,60,60,60,60,60,60,60,60,60,60,60,60,60,60,60,60,60,60,60,60,60,60,60,60,60,60,588,434,435,435,435,435,435,435,435,435,435,435,435,435,435,435,435,435,435,435,435,435,543,468,468,468,468,2374,2361,2374,2374,2374,2361,2374,2374,2361,2363,2374,2374,2374,2361,2374,468,468,468,468,468,548,435,435,435,435,435,435,435,435,435,435,435,73,74,75,76,435,435,435,435,435,435,543,60,60,60,1,36,20,21,39,20,21,39,38,39,39,38,39,39,22,91,
110,110,110,110,110,110,110,110,53,130,60,60,60,60,60,60,60,60,60,60,60,60,1,2,2,2,2,2,2,2,2,2,2,2,2,2,2,4,60,60,548,435,435,435,435,435,435,435,435,201,203,204,206,435,435,435,435,435,435,435,429,591,468,468,468,468,2374,2374,2374,2374,2374,2374,2374,2374,2374,2374,2374,2374,2374,2374,2374,468,468,468,468,468,548,435,435,435,435,435,435,435,435,435,435,435,91,92,93,94,435,435,435,435,435,435,619,477,60,60,19,20,21,39,21,38,39,21,39,38,38,39,38,39,22,91,
110,110,110,110,110,110,110,110,112,60,60,60,60,60,60,60,60,60,60,60,60,1,36,38,39,39,39,39,39,39,39,39,39,39,39,39,39,35,4,60,548,435,435,435,435,435,435,435,435,239,279,279,282,435,435,435,435,435,435,429,591,468,468,468,468,468,2348,2374,2374,2374,2374,2374,2374,2374,2374,2374,2374,2374,2374,2374,2351,468,468,468,468,468,548,435,435,435,435,435,435,435,435,435,435,435,109,110,111,112,435,435,435,435,435,435,435,543,60,60,19,20,20,21,21,21,20,20,20,38,38,39,38,39,22,91,
110,53,129,129,129,129,129,129,130,60,60,60,60,60,60,60,60,60,60,60,60,19,39,39,39,39,39,39,39,39,39,39,39,39,39,39,39,39,35,2,588,432,432,434,435,435,435,435,435,239,279,279,320,435,435,435,435,435,435,543,468,468,468,468,468,468,2349,2349,2349,2349,2349,2349,2349,2349,2349,2349,2349,2349,2349,2349,2349,468,468,468,468,468,548,435,435,435,435,435,435,435,435,435,435,435,127,128,129,130,435,435,435,435,435,435,435,543,2,2,36,38,20,21,20,20,21,38,38,38,20,38,38,39,22,91,
110,94,60,60,60,60,60,60,60,60,60,60,60,60,60,60,60,60,60,60,1,36,39,39,39,39,39,39,39,39,39,39,39,39,39,39,39,39,39,39,39,39,38,586,435,435,435,435,435,391,393,394,396,435,435,435,435,435,435,543,468,468,468,468,468,468,468,468,468,468,468,468,468,468,468,468,468,468,468,468,468,468,468,468,468,468,548,435,435,435,435,435,435,435,435,435,435,435,435,435,435,435,435,435,435,435,435,435,429,591,20,20,20,20,20,21,38,20,20,21,39,38,20,38,38,39,22,91,
110,94,60,60,60,60,60,60,60,60,60,60,60,60,60,60,60,60,60,1,36,39,39,39,39,39,39,39,39,39,39,39,39,39,39,39,39,39,39,39,39,39,38,586,435,435,435,435,435,435,435,435,435,435,435,435,435,435,435,543,468,468,468,468,468,468,468,468,468,468,468,468,468,468,468,468,468,468,468,468,468,468,468,468,468,468,548,435,435,435,435,435,435,435,435,435,435,435,435,435,435,435,435,435,435,435,435,435,543,20,20,20,20,38,38,39,38,38,20,20,21,20,38,38,38,39,22,91,
110,94,60,60,73,74,75,76,60,60,60,60,60,60,60,60,60,60,60,37,39,39,39,39,39,39,39,39,39,39,39,39,39,39,39,39,39,39,39,39,39,39,38,586,435,435,435,435,435,435,435,435,435,435,435,435,435,435,435,543,468,468,468,468,468,468,468,468,468,468,468,468,468,468,468,468,468,468,468,468,468,468,468,468,468,468,548,435,435,435,435,435,435,435,435,435,435,435,435,435,435,435,435,435,435,435,435,429,591,38,20,38,38,38,38,38,38,20,21,21,20,20,38,20,38,39,22,91,
110,94,60,60,91,92,93,94,60,60,60,60,60,60,60,60,60,60,1,36,39,39,39,39,39,39,39,39,39,39,39,39,39,39,39,39,39,39,39,39,39,39,39,586,435,435,435,435,435,435,435,435,435,435,435,435,435,435,435,543,468,468,468,468,468,468,468,468,468,468,468,468,468,468,468,468,468,468,468,468,468,468,468,468,468,474,624,435,435,435,435,435,435,435,435,435,435,435,435,435,435,435,435,435,435,435,429,591,20,38,38,38,39,17,56,56,18,20,21,39,38,38,38,38,38,39,22,91,
110,94,60,60,109,110,111,112,60,60,60,60,60,60,60,60,60,60,37,39,39,39,39,39,39,39,39,39,39,39,39,39,39,39,39,39,39,39,39,39,39,39,39,586,435,435,435,435,435,435,435,435,435,435,435,435,435,435,435,543,468,468,468,468,468,468,468,468,468,468,468,468,468,468,468,468,468,468,468,468,468,468,468,468,474,624,435,435,435,435,435,435,435,435,435,435,435,435,435,435,435,435,435,435,435,435,543,20,21,20,38,39,17,58,60,60,37,38,20,20,21,20,20,38,39,17,58,91,
110,94,60,60,127,128,129,130,60,60,60,60,60,60,60,60,60,60,37,39,39,39,39,39,39,39,39,39,39,39,39,39,39,39,39,39,39,39,39,39,39,39,39,586,435,435,435,435,435,435,435,435,435,435,435,435,435,435,435,619,477,468,468,468,468,468,468,468,468,468,468,468,468,468,468,468,468,468,468,468,468,468,468,474,624,435,435,435,435,435,435,435,435,435,435,435,435,435,435,435,435,435,435,435,435,435,543,20,20,38,38,39,22,60,60,60,55,18,38,20,20,38,38,38,39,22,60,91,
110,71,76,60,60,60,60,60,60,60,60,60,60,60,60,60,60,60,37,39,39,39,39,39,39,39,39,39,39,39,39,39,39,39,39,39,39,39,39,39,39,39,39,586,435,435,435,435,435,435,435,435,435,435,435,435,435,435,435,435,619,475,477,468,468,468,468,468,468,468,468,468,468,468,468,468,468,468,468,468,468,474,621,624,435,435,435,435,435,435,435,435,435,435,435,435,435,435,435,435,435,435,435,435,435,435,543,20,38,38,39,39,22,60,60,60,60,55,18,38,38,38,39,17,56,58,60,91,
110,110,112,60,60,60,60,60,60,60,60,60,60,60,60,60,60,60,37,39,39,39,39,39,39,39,39,39,39,39,39,39,39,39,39,39,39,39,39,39,39,39,474,624,435,435,435,435,435,435,435,435,435,435,435,435,435,435,435,435,435,435,505,468,468,468,468,468,468,468,468,468,468,468,468,468,468,468,468,474,620,624,435,435,435,435,435,435,435,435,435,435,435,435,435,435,435,435,435,435,435,435,435,435,435,435,543,38,38,39,21,21,22,60,60,60,60,60,55,56,56,56,56,58,60,60,60,91,
110,110,112,60,60,60,60,60,60,60,60,60,60,60,60,60,60,60,37,39,39,39,39,39,39,39,39,39,39,39,39,39,17,56,56,18,39,39,39,39,39,39,586,435,435,435,435,435,435,435,435,435,435,435,435,435,435,435,435,435,435,435,619,477,468,468,468,468,468,468,468,468,468,468,468,468,468,468,468,548,435,435,435,435,435,435,435,435,435,435,435,435,435,435,435,435,435,435,435,435,435,435,435,435,435,435,619,477,38,39,21,39,22,60,60,60,60,60,60,60,60,60,60,60,60,60,60,91,
110,110,112,60,60,60,60,60,60,60,60,60,60,60,60,60,60,60,37,39,39,39,39,39,39,39,39,39,39,39,17,57,58,60,60,37,39,39,39,39,39,39,586,435,435,435,435,435,435,435,435,435,435,435,435,435,435,435,435,435,435,435,435,619,475,475,475,475,475,475,475,477,468,468,468,468,468,468,468,548,435,435,435,435,435,435,435,435,435,435,435,435,435,435,435,435,435,435,435,435,435,435,435,435,435,435,435,543,38,39,21,39,22,60,60,60,60,60,60,60,60,60,60,60,60,60,73,72,
110,110,71,75,76,60,60,60,60,60,60,60,60,60,60,60,60,60,55,18,39,39,39,39,39,39,39,17,57,57,58,60,60,60,60,37,39,39,39,39,39,39,586,435,435,435,435,435,435,435,435,435,435,435,435,435,435,435,435,435,435,435,435,435,435,435,435,435,435,435,429,591,468,468,468,468,468,468,468,548,435,435,435,435,435,435,435,435,435,435,435,435,435,435,435,435,435,435,435,435,435,435,435,435,435,435,435,543,38,39,39,39,35,4,60,60,60,60,60,60,60,60,60,60,60,73,72,111,
110,110,110,110,94,60,60,60,60,60,60,60,60,60,60,60,60,60,60,55,57,57,57,57,57,57,57,58,60,60,60,60,60,60,60,37,39,39,39,39,39,39,586,435,435,435,435,435,435,435,435,435,435,435,435,435,435,435,435,435,435,435,435,435,435,435,435,429,589,589,591,468,468,468,468,468,468,468,474,624,435,435,435,435,435,435,435,435,435,435,435,435,435,435,435,435,435,435,435,435,435,435,435,435,435,435,435,543,38,38,39,39,21,35,4,60,60,60,60,60,60,60,60,60,60,91,111,111,
110,110,110,53,130,60,60,60,60,60,60,60,60,60,60,60,60,60,60,60,60,60,60,60,60,60,60,60,60,60,60,60,60,60,60,55,18,39,39,39,39,39,586,435,435,435,435,435,435,435,435,435,435,435,435,435,435,435,435,435,435,435,435,435,435,435,429,591,468,468,468,468,468,468,468,468,468,474,624,435,435,435,435,435,435,435,435,435,435,435,435,435,435,435,435,435,435,435,435,435,435,435,435,435,435,435,429,591,38,39,38,39,39,21,35,2,4,60,60,60,60,60,60,60,60,91,111,111,
110,110,110,112,60,60,60,60,60,60,60,60,60,60,60,60,60,60,60,60,60,60,60,60,60,60,60,60,60,60,60,60,60,60,60,60,37,39,39,39,39,39,586,435,435,435,435,435,435,435,435,435,435,435,435,435,435,435,435,435,435,435,435,435,435,429,591,468,468,468,468,468,468,474,620,620,620,624,435,435,435,435,435,435,435,435,435,435,435,435,435,435,435,435,435,435,435,435,435,435,435,435,435,435,435,429,591,20,21,21,21,21,21,21,21,21,35,4,60,60,60,60,60,60,60,91,110,111,
110,110,53,130,60,60,60,60,60,60,60,60,60,60,60,60,60,60,60,60,60,60,60,60,60,60,73,74,75,76,60,60,60,60,60,1,36,39,39,39,39,39,586,435,435,435,435,435,435,435,435,435,435,435,435,435,435,435,435,435,435,435,435,435,429,591,468,468,468,468,468,468,474,624,435,435,435,435,435,435,435,435,435,435,435,435,435,435,435,435,435,435,435,435,435,435,435,435,435,435,435,435,435,429,430,591,20,21,21,39,39,39,39,39,39,39,21,35,4,60,60,60,60,60,60,91,110,111,
110,53,130,60,60,60,60,60,60,60,60,60,60,60,60,60,60,60,60,60,60,60,60,60,60,60,91,92,93,94,60,60,60,60,60,37,39,39,39,39,39,39,586,435,435,435,435,435,435,435,435,435,435,435,435,435,435,435,435,435,435,435,435,429,591,468,468,468,468,468,468,468,510,435,435,435,435,435,435,435,435,435,435,435,435,435,435,435,435,435,435,435,435,435,435,435,435,435,435,435,435,435,429,591,20,21,21,21,39,21,39,39,39,39,38,39,39,21,40,60,60,60,60,60,60,109,111,111,
110,94,60,60,60,60,60,60,60,60,60,60,60,60,60,60,60,60,60,60,60,60,60,60,60,60,109,110,111,112,60,60,60,60,60,37,39,39,39,38,39,39,586,435,435,435,435,435,435,435,435,435,435,435,435,435,435,435,435,435,435,435,435,543,468,468,468,468,468,468,468,468,510,435,435,435,435,435,435,435,435,435,435,435,435,435,201,203,204,206,435,435,435,435,435,435,435,435,435,435,435,435,543,20,21,21,39,20,20,20,20,21,38,38,38,38,39,39,40,60,60,60,60,60,60,109,111,111,
110,94,60,60,60,60,60,60,60,60,60,60,1,2,2,2,2,2,2,2,2,4,60,60,60,60,127,128,129,130,60,60,60,60,1,36,39,39,39,39,39,39,586,435,435,435,435,435,435,435,435,435,73,74,75,76,435,435,435,435,435,435,429,591,468,468,468,468,468,468,468,468,510,435,435,435,435,435,435,435,435,435,435,435,435,435,277,279,279,282,435,435,435,435,435,435,435,435,435,435,435,435,543,38,38,38,38,20,38,38,20,20,20,20,20,20,21,21,40,60,60,60,60,60,73,72,111,111,
110,94,60,60,60,60,60,60,60,60,1,2,36,20,21,21,21,21,21,21,21,35,4,60,60,60,60,60,60,60,60,60,60,60,37,39,39,39,39,39,39,39,586,435,435,435,435,435,435,435,435,435,91,92,93,94,435,435,435,435,435,435,581,468,468,468,468,468,468,468,468,468,510,435,435,435,435,435,435,435,435,435,435,435,435,435,315,279,279,320,435,435,435,435,435,429,430,430,430,430,430,430,591,38,38,38,38,38,38,39,38,38,38,20,21,21,21,39,40,60,60,60,60,60,109,111,111,111,
110,94,60,60,60,60,60,60,60,1,36,20,21,21,21,20,21,21,21,39,39,21,22,60,60,60,60,60,60,60,60,60,60,60,37,39,39,39,39,39,39,474,624,435,435,435,435,435,435,435,435,435,109,110,111,112,435,435,435,435,435,435,581,468,468,468,468,468,468,468,468,468,510,435,435,435,435,435,435,435,435,435,435,435,435,435,391,393,394,396,435,435,435,435,435,543,20,20,20,20,21,21,21,38,38,38,38,38,38,21,20,20,21,21,21,39,39,39,40,60,60,60,60,60,109,111,111,111,
110,94,60,60,60,60,60,60,1,36,20,21,21,20,21,21,21,39,39,21,39,39,22,60,60,60,60,60,60,60,60,60,60,60,55,18,39,39,39,39,39,548,435,435,435,435,435,435,435,435,435,435,127,128,129,130,435,435,429,430,430,430,591,468,468,468,468,468,468,468,468,468,588,434,435,435,435,435,435,435,435,435,435,435,435,435,435,435,435,435,435,435,435,435,435,543,38,38,38,20,20,20,20,38,38,38,38,20,21,21,38,38,39,39,39,38,38,39,40,60,60,60,60,60,127,128,54,111,
110,94,60,60,60,60,60,1,36,20,21,21,39,20,20,21,21,38,20,21,21,39,35,4,60,60,60,60,60,60,60,60,60,60,60,55,18,39,39,39,39,548,435,435,435,435,435,435,435,435,435,435,435,435,435,435,435,435,505,38,38,38,506,506,506,506,506,506,506,506,506,506,506,588,430,434,435,435,435,435,435,435,435,435,435,435,435,435,435,435,435,435,435,435,435,543,38,39,21,38,38,38,38,38,20,20,38,20,20,20,20,20,20,20,21,38,38,39,40,60,60,60,60,60,60,60,91,111,
110,94,60,60,60,60,60,37,20,21,20,21,21,20,21,21,39,38,20,20,20,21,21,35,2,4,60,60,60,60,60,60,60,60,60,60,19,39,38,39,39,548,435,435,435,435,435,435,435,435,435,435,435,435,435,435,435,435,505,38,38,38,38,38,20,20,38,38,38,38,38,38,38,20,21,588,434,435,435,435,435,435,435,435,435,435,435,435,435,435,435,435,435,435,435,543,38,39,39,17,57,56,57,18,38,20,20,38,38,38,38,38,38,20,20,21,38,39,40,60,60,60,60,60,60,73,72,111,
110,94,60,60,60,60,60,37,20,20,20,21,39,21,21,39,39,38,38,38,20,20,20,21,21,35,2,4,60,60,60,60,60,60,60,60,19,20,38,39,39,548,435,435,435,435,435,435,435,435,435,435,435,435,435,435,435,435,505,38,38,38,38,38,39,38,38,38,38,38,20,20,21,20,21,21,588,434,435,435,435,435,435,435,435,435,435,435,435,435,435,435,435,435,435,543,20,38,39,22,60,60,60,55,18,38,20,20,20,21,38,38,38,38,38,39,38,39,22,60,60,60,60,60,60,91,111,111,
110,94,60,60,60,60,60,37,20,38,20,20,20,20,20,21,39,39,39,38,38,38,20,20,21,21,21,35,2,4,1,2,2,2,2,4,19,38,38,39,39,548,435,435,435,435,435,435,435,435,435,435,435,435,435,435,435,435,505,38,38,38,38,38,39,17,56,56,56,18,38,20,21,20,20,21,21,588,431,431,431,431,431,431,431,431,431,431,431,431,431,431,431,431,431,591,38,38,39,40,60,60,60,60,55,18,38,38,20,21,38,39,39,17,56,57,56,57,58,60,60,60,60,60,60,91,111,111,
110,94,60,60,60,60,60,37,20,20,38,38,38,38,20,20,20,21,21,39,38,39,38,20,20,21,39,21,21,35,36,20,21,21,21,35,36,38,39,39,474,624,435,435,435,435,435,435,435,435,435,435,435,435,435,435,435,435,505,38,38,38,38,38,39,22,60,60,60,55,18,20,20,20,20,20,20,20,20,20,20,20,20,20,20,21,20,21,21,39,39,39,39,39,39,39,38,39,39,40,60,60,60,60,60,55,56,18,20,21,17,56,56,58,60,60,60,60,60,60,60,60,60,60,60,91,111,111,
53,130,60,60,60,60,60,37,38,20,20,38,20,20,20,21,20,20,21,21,21,39,39,38,20,20,20,21,39,21,21,21,21,21,21,21,21,38,39,474,624,435,435,435,435,435,435,435,435,435,435,435,435,435,435,435,435,435,619,477,38,38,38,38,39,35,4,60,60,60,37,38,38,38,38,38,38,38,38,38,38,20,20,20,20,20,20,20,20,20,20,20,21,39,39,39,38,39,17,58,60,60,60,60,60,60,60,37,20,21,22,60,60,60,60,60,60,60,60,60,60,60,60,60,73,72,111,111,
112,60,60,60,60,60,60,55,18,38,20,20,38,38,38,39,21,21,21,21,39,21,39,21,38,38,20,20,20,21,39,39,21,39,39,39,21,38,39,588,431,431,431,431,434,435,435,435,435,435,435,435,435,435,435,435,435,435,435,619,477,38,38,38,39,38,35,4,60,60,55,56,18,38,38,38,20,21,38,39,39,38,38,38,38,38,38,38,38,38,38,20,20,39,39,39,39,39,22,60,60,60,60,60,60,60,1,36,20,21,22,60,60,60,60,60,60,60,60,60,60,60,60,60,91,111,111,111,
112,60,60,60,60,60,60,60,55,18,38,20,20,20,38,39,39,39,21,21,20,21,21,39,21,21,38,38,20,20,20,20,21,38,39,21,39,39,39,21,21,21,21,21,588,431,431,431,431,431,431,431,431,431,434,435,435,435,435,435,619,477,38,38,38,38,38,35,4,60,60,60,55,57,18,39,38,39,39,17,56,56,56,56,56,56,56,56,56,56,18,38,38,38,38,39,39,39,22,60,60,60,60,60,60,60,19,20,21,21,22,60,60,60,60,60,60,60,60,60,60,60,60,60,91,111,111,111,
112,60,60,60,60,60,60,60,60,55,18,38,38,38,38,39,38,38,39,39,21,21,20,20,21,39,39,38,38,38,38,38,39,20,20,20,21,21,39,39,39,39,39,21,21,21,21,21,21,21,21,21,21,21,588,434,435,435,435,435,435,543,38,38,38,38,38,38,40,60,60,60,60,60,55,56,57,56,57,58,60,60,60,60,60,60,60,60,60,60,55,56,56,18,39,39,39,17,58,60,60,60,60,60,60,1,36,20,21,39,22,60,60,60,60,60,60,60,60,60,60,60,60,60,91,111,111,111,
71,75,75,75,75,75,76,60,60,60,55,56,56,56,56,56,56,18,38,39,39,39,21,21,21,20,21,20,20,20,38,39,39,21,21,21,21,39,38,39,39,38,39,39,39,39,39,39,39,21,39,21,21,21,21,588,431,434,435,435,435,543,38,38,38,38,38,38,40,60,60,60,60,60,60,60,60,60,60,60,60,60,60,60,60,60,60,60,60,60,60,60,60,55,56,56,57,58,60,60,60,60,1,2,3,36,20,21,21,17,58,60,60,60,60,60,60,60,60,60,60,60,60,60,91,111,111,111,
110,110,110,110,110,110,94,60,60,60,60,60,60,60,60,60,60,55,56,18,38,39,39,39,39,20,20,38,38,38,38,38,39,39,39,39,39,38,39,38,39,38,38,39,39,39,38,39,39,39,39,39,39,39,21,21,21,588,430,434,429,591,38,38,38,38,38,17,58,60,60,60,60,60,60,60,60,60,60,60,60,60,60,60,60,60,60,60,60,60,60,60,60,60,60,60,60,60,60,60,1,2,36,20,21,21,21,21,39,40,60,60,60,60,60,60,60,60,60,60,60,60,60,60,91,111,111,111,
110,110,110,110,110,110,94,60,60,60,60,60,60,60,60,60,60,60,60,55,18,38,38,20,38,38,38,39,38,39,17,57,57,57,57,57,57,57,57,57,18,38,38,39,38,39,39,38,39,38,38,39,39,39,39,21,39,21,21,588,591,38,38,38,38,17,56,58,60,60,60,60,60,60,60,60,60,60,60,60,60,60,60,60,60,60,60,60,60,60,60,60,60,60,60,60,60,60,60,60,19,20,21,20,21,39,21,39,39,40,60,60,60,60,60,60,60,60,60,73,74,75,76,60,91,111,111,111,
110,110,53,128,128,128,130,60,60,60,60,60,60,60,60,60,60,60,60,60,37,38,38,38,38,39,38,39,17,57,58,60,60,60,60,60,60,60,60,60,55,57,57,57,57,57,57,18,38,38,39,39,38,39,39,39,39,39,39,39,39,38,38,38,38,22,60,60,60,60,60,60,60,60,60,60,60,60,60,60,60,60,60,60,60,60,60,60,60,60,60,60,60,60,60,60,60,60,60,60,37,20,20,20,21,20,21,21,21,40,60,60,60,60,60,60,60,60,60,91,92,93,94,60,91,111,111,111,
110,110,112,60,60,60,60,60,60,60,60,60,60,60,60,60,60,60,60,60,55,56,56,56,18,38,39,17,58,60,60,60,60,60,60,60,60,60,60,60,60,60,1,2,2,4,60,55,56,18,21,21,21,21,38,39,39,39,21,21,21,38,38,17,57,58,60,60,60,60,60,60,60,60,60,60,60,60,60,60,60,60,60,60,60,60,60,60,60,60,60,60,60,60,60,60,60,60,60,60,19,20,20,20,20,21,21,39,39,40,60,60,60,60,60,60,60,60,60,109,110,111,112,60,91,111,111,111,
110,110,112,60,60,60,60,60,60,60,60,60,60,60,60,60,60,60,60,60,60,60,60,60,55,56,56,58,60,60,60,60,60,60,60,60,60,60,60,60,60,60,37,38,38,35,2,2,2,36,38,20,20,21,38,39,20,21,21,39,39,21,38,22,60,60,60,60,60,60,60,60,60,60,60,60,60,60,60,60,60,60,60,60,60,60,60,60,60,60,60,60,60,60,60,60,60,60,60,60,37,20,20,20,38,39,39,38,39,40,60,60,60,60,60,60,60,60,60,127,128,129,130,60,127,54,111,111,
110,110,112,60,60,60,60,60,60,60,60,60,60,60,60,60,60,60,60,60,60,60,60,60,60,60,60,60,60,60,60,60,60,60,60,60,60,60,60,60,60,1,36,38,38,38,38,38,38,38,20,38,38,20,20,38,38,39,21,38,39,21,38,22,60,60,60,60,60,60,60,60,60,60,60,60,60,60,60,60,60,60,60,60,60,60,60,60,60,60,60,60,60,60,60,60,60,60,60,60,19,38,38,38,20,20,38,38,39,22,60,60,60,60,60,60,60,60,60,60,60,60,60,60,60,127,54,111,
110,53,130,60,60,60,60,60,60,60,60,60,60,60,60,60,60,60,60,60,60,60,60,60,60,60,60,60,60,60,60,60,60,60,60,60,60,60,60,60,1,36,38,38,38,38,38,38,38,20,38,38,39,38,38,38,39,20,20,21,39,39,38,22,60,60,60,60,60,60,60,60,60,60,60,60,60,60,60,60,60,60,60,60,60,60,60,60,60,60,60,60,60,60,60,60,60,60,60,60,37,38,38,38,38,38,38,39,17,58,60,60,60,60,60,60,60,60,60,60,60,60,60,60,60,60,109,111,
110,112,60,60,60,60,60,60,60,60,60,60,60,60,60,60,60,60,60,60,60,60,1,2,2,2,2,2,2,2,4,60,60,60,60,60,60,60,60,1,36,20,20,20,20,20,20,20,20,38,38,39,38,38,38,21,38,38,20,20,21,39,38,22,60,60,60,60,60,60,60,60,60,60,60,60,60,60,60,60,60,60,60,60,60,60,60,60,60,60,60,60,60,60,60,60,60,60,60,60,55,56,56,57,56,57,56,57,58,60,60,60,60,60,60,60,60,60,60,60,60,60,60,60,60,60,109,111,
110,112,60,60,60,60,60,60,60,60,60,60,60,60,60,60,60,60,60,60,60,1,36,38,38,20,21,38,38,38,35,4,60,60,60,60,60,60,1,36,38,38,38,38,38,38,38,38,38,38,39,17,56,56,56,56,18,38,20,21,21,39,38,35,4,60,60,60,60,60,60,60,60,60,60,60,60,60,60,60,60,60,60,60,60,60,60,60,60,60,60,60,60,60,60,60,60,60,60,60,60,60,60,60,60,60,60,60,60,60,60,60,60,60,60,60,60,60,60,60,60,60,60,60,60,60,109,111,
110,112,60,60,60,60,60,60,73,74,75,76,60,60,60,60,60,60,60,60,1,36,38,38,20,21,21,21,38,38,38,35,2,2,2,2,2,2,36,38,38,20,20,38,38,38,38,38,39,38,38,40,60,60,60,60,37,38,20,20,21,38,38,38,22,60,60,60,60,60,60,60,60,60,60,60,60,60,60,60,60,60,60,60,60,60,60,60,60,60,60,60,60,60,60,60,60,60,60,60,60,60,60,60,60,60,60,60,60,60,60,60,60,60,60,60,60,60,60,60,60,60,60,60,60,60,109,111,
110,71,76,60,60,60,60,60,91,92,93,94,60,60,60,60,60,60,60,60,37,38,38,38,20,21,39,20,20,20,21,38,38,38,38,38,38,38,38,38,38,38,38,38,39,38,38,38,17,57,57,58,60,60,60,60,37,38,38,20,20,20,21,38,35,4,60,60,60,60,60,60,60,60,60,60,60,60,60,60,60,60,60,60,60,60,60,60,60,60,60,60,60,60,60,60,60,60,60,60,60,60,60,60,60,60,60,60,60,60,60,60,60,60,60,60,60,60,60,60,60,60,60,60,60,60,109,111,
110,111,94,60,60,60,60,60,109,110,111,112,60,60,60,60,60,60,60,60,37,38,38,38,20,21,38,38,38,20,20,21,38,38,38,38,38,38,20,20,20,38,39,38,38,38,38,38,22,60,60,60,60,60,60,60,55,57,18,38,20,21,21,38,38,22,60,60,60,60,60,60,60,60,60,60,60,60,60,60,60,60,60,60,60,60,60,60,60,60,60,60,60,60,60,60,60,60,60,60,60,60,60,60,60,60,60,60,60,60,60,60,60,60,60,1,2,3,2,3,3,4,60,60,60,60,109,111,
111,111,112,60,60,60,60,60,127,128,129,130,60,60,60,60,60,60,60,60,37,38,38,38,20,21,20,38,39,38,38,20,20,20,20,20,20,20,38,38,20,38,39,38,38,38,17,57,58,60,60,60,60,60,60,60,60,60,37,38,20,20,21,38,38,35,2,2,2,2,2,2,2,2,2,2,2,2,2,2,2,2,2,2,2,2,2,2,2,2,2,2,4,60,60,60,60,60,60,60,60,60,60,60,60,60,60,60,60,60,60,60,60,1,2,36,38,38,38,38,38,35,4,60,60,60,127,54,
111,111,112,60,60,60,60,60,60,60,60,60,60,60,60,60,60,60,60,60,37,38,38,38,20,20,38,38,39,38,38,38,38,38,38,38,38,38,38,39,38,38,39,38,38,17,58,60,60,60,60,60,60,60,60,60,60,60,55,18,38,20,20,20,21,38,38,38,38,20,21,21,21,21,21,21,21,21,21,21,38,38,38,38,38,38,38,38,38,38,38,38,35,4,60,60,60,60,60,60,60,60,60,60,60,60,60,60,60,60,60,1,2,36,38,20,21,20,20,20,21,38,35,4,60,60,60,91,
111,111,112,60,60,60,60,60,60,60,60,60,60,60,60,60,60,60,60,60,37,38,38,38,38,38,38,39,38,38,38,38,38,38,38,38,38,38,38,38,38,39,38,38,38,40,60,60,60,60,60,60,60,60,60,60,60,60,60,37,38,38,38,20,20,21,21,21,21,21,21,39,39,39,39,39,39,39,39,39,21,21,20,21,21,21,38,20,21,21,21,21,38,35,4,60,60,60,60,60,60,60,60,60,60,60,60,60,60,60,1,36,38,38,20,21,20,38,38,20,20,21,21,35,4,60,60,91,
111,111,112,60,60,60,60,60,60,60,60,60,60,60,60,60,60,60,60,60,55,18,38,38,38,38,38,38,38,38,38,38,38,38,38,38,38,38,38,38,38,38,38,17,57,58,60,60,60,60,60,60,60,60,60,60,60,60,60,55,18,38,38,20,20,21,39,39,39,39,39,38,38,38,38,38,38,38,38,39,39,39,21,21,21,39,21,20,20,20,21,39,38,38,35,4,60,60,60,60,60,60,60,60,60,60,60,60,60,60,37,38,38,38,20,20,38,38,39,38,20,20,21,21,35,4,60,91,
111,53,130,60,60,60,60,60,60,60,60,60,60,60,60,60,60,60,60,60,60,55,56,56,18,38,38,17,57,57,57,56,56,56,56,18,38,38,38,17,57,57,57,58,60,60,60,60,60,60,60,60,60,60,60,60,60,60,60,60,37,38,38,38,20,21,38,38,38,38,17,56,57,56,57,18,38,38,38,38,38,39,39,39,39,21,39,38,38,20,21,39,21,38,38,22,60,60,60,60,60,60,60,60,60,60,60,60,60,60,37,38,38,38,38,20,38,39,21,20,38,38,39,39,21,35,4,91,
111,94,60,60,60,60,60,60,60,60,60,60,60,60,60,60,60,60,60,60,60,60,60,60,55,57,57,58,60,60,60,60,60,60,60,55,57,57,57,58,60,60,60,60,60,60,60,60,60,60,60,60,60,60,60,60,60,60,60,60,55,56,18,20,21,21,38,38,38,17,58,60,60,60,60,55,18,38,38,38,38,38,20,38,39,39,20,38,38,20,20,21,39,38,38,22,60,60,60,60,60,60,60,60,60,60,60,60,60,60,37,21,38,38,38,38,39,20,20,21,21,38,38,39,39,38,22,91,
111,94,60,60,60,60,60,60,60,60,60,60,60,60,60,60,60,60,60,60,60,60,60,60,60,60,60,60,60,60,60,60,60,60,60,60,60,60,60,60,60,60,60,60,60,60,60,60,60,60,60,60,60,60,60,60,60,60,60,60,60,60,37,20,21,39,38,17,56,58,60,60,60,60,60,60,37,38,38,38,38,38,38,38,38,39,21,20,38,38,20,21,39,38,38,22,60,60,60,60,60,60,60,60,60,60,60,60,60,60,55,56,18,38,38,38,39,38,20,20,20,21,20,38,39,38,22,91,
111,94,60,60,60,60,60,60,60,60,60,60,60,60,60,60,60,60,60,60,60,60,60,60,60,60,60,60,60,60,60,60,60,60,60,60,60,60,60,60,60,60,60,60,60,60,60,60,60,60,60,60,60,60,60,60,60,60,60,60,60,60,37,20,21,38,38,22,60,60,60,60,60,60,60,60,55,56,56,56,18,38,38,38,38,39,39,21,20,20,20,21,39,38,38,22,60,60,60,60,60,60,60,60,60,60,60,60,60,60,1,2,36,38,20,38,39,21,38,38,20,20,21,38,39,38,40,91,
111,71,75,75,75,76,60,60,60,60,60,60,60,60,60,60,60,60,60,60,60,60,60,60,60,60,60,60,60,60,60,60,60,60,60,60,60,60,60,60,60,60,60,60,60,60,60,60,60,60,60,60,60,60,60,60,60,60,60,60,60,60,37,20,20,21,38,22,60,60,60,60,60,60,60,60,60,60,60,60,55,18,38,38,38,38,39,39,21,21,21,21,39,38,38,22,60,60,60,60,60,60,60,60,60,60,60,60,60,60,19,38,38,20,38,38,39,39,21,38,38,20,21,38,38,17,58,91,
111,111,111,111,111,112,60,60,60,60,60,60,60,60,60,60,60,60,60,60,60,60,60,60,60,60,60,60,60,60,60,60,60,60,60,60,60,60,60,60,60,60,60,60,60,60,60,60,60,60,60,60,60,60,60,60,60,60,60,60,60,60,37,38,20,21,38,22,60,60,60,60,60,60,60,60,60,60,60,60,60,55,56,18,38,38,38,39,39,39,39,39,39,38,38,22,60,60,60,60,60,60,60,60,60,60,60,60,60,1,36,38,20,20,21,21,38,39,39,21,21,21,21,38,17,58,60,91,
111,53,129,129,129,130,60,60,60,60,60,60,60,60,60,60,60,60,60,60,60,60,60,60,60,60,60,60,60,60,60,60,60,60,60,60,60,60,60,60,60,60,60,60,60,60,60,60,60,60,60,73,74,75,76,60,60,60,60,60,60,60,37,20,21,21,38,22,60,60,60,60,60,60,60,60,60,60,60,60,60,60,60,55,18,38,38,38,38,38,38,39,38,38,17,58,60,60,60,60,60,60,60,60,60,60,1,2,3,36,20,20,38,20,20,20,20,38,39,39,39,39,39,17,58,60,60,91,
111,94,60,60,60,60,60,60,60,60,60,60,60,60,60,60,60,60,60,60,60,60,60,60,60,60,60,60,60,60,60,60,60,60,60,60,60,60,60,60,60,60,60,60,60,60,60,60,60,60,60,91,92,93,94,60,60,60,60,60,60,60,37,20,20,20,21,22,60,60,60,60,60,60,23,23,23,23,23,60,60,60,60,60,55,56,18,38,38,38,38,38,17,57,58,60,60,60,60,60,60,60,60,60,1,2,36,38,20,20,38,38,38,38,38,38,38,38,39,38,38,38,38,22,60,60,60,91,
111,94,60,60,60,60,60,60,60,60,60,60,60,60,60,60,60,60,60,60,60,60,60,60,60,60,60,60,60,60,60,60,60,60,60,60,60,60,60,60,60,60,60,60,60,60,60,60,60,60,60,109,110,111,112,60,60,60,60,60,60,60,37,20,21,21,21,22,60,60,60,60,60,60,73,74,75,76,60,60,60,60,60,60,60,60,55,56,56,57,56,57,58,60,60,60,60,60,60,60,60,60,60,60,19,38,38,20,38,38,38,39,38,38,38,38,17,56,56,56,56,56,56,58,60,60,60,91,
111,94,60,60,60,60,60,60,60,60,60,60,1,2,2,2,2,2,2,2,2,2,2,2,2,2,2,2,4,60,60,60,60,60,60,60,60,60,60,60,60,60,60,60,60,60,60,60,60,60,60,127,128,129,130,60,60,60,60,60,60,60,37,20,21,39,39,22,60,60,60,60,60,60,91,92,93,94,60,60,60,60,60,60,60,60,60,60,60,60,60,60,60,60,60,60,60,60,60,60,60,60,60,60,19,38,20,38,38,39,38,38,38,38,38,17,58,60,60,60,60,60,60,60,60,60,60,91,
111,94,60,60,60,60,60,60,60,60,1,2,36,38,38,38,38,38,38,38,38,38,38,38,38,38,38,38,35,2,2,2,2,2,4,60,60,60,60,60,60,60,60,60,60,60,60,60,60,60,60,60,60,60,60,60,60,60,60,60,60,60,37,20,20,21,38,22,60,60,60,60,60,60,109,110,111,112,60,60,60,60,60,60,60,60,60,60,60,60,60,60,60,60,60,60,60,60,60,60,60,60,60,1,36,20,20,20,38,39,38,38,38,38,17,58,60,60,60,60,60,60,60,60,60,60,60,91,
111,94,60,60,60,60,60,60,60,60,19,38,38,38,38,38,20,21,21,21,21,21,21,21,21,21,21,21,21,38,38,38,38,38,35,4,60,60,60,60,60,60,60,60,60,60,60,60,60,60,60,60,60,60,60,60,60,60,60,60,60,60,37,38,20,21,38,22,60,60,60,60,60,60,127,128,129,130,60,60,60,60,60,60,60,60,60,60,60,60,60,60,60,60,60,60,60,60,60,1,2,2,3,36,20,38,38,38,38,39,17,56,57,57,58,60,60,60,60,60,60,60,60,60,60,60,60,91,
111,94,60,60,60,60,60,60,60,60,55,56,18,38,20,21,21,21,39,39,39,39,39,39,39,39,39,39,39,21,21,21,21,38,38,35,2,2,4,60,60,60,60,60,60,60,60,60,60,60,60,60,60,60,60,60,60,60,60,60,60,60,37,38,20,21,21,22,60,60,60,60,60,60,60,60,60,60,60,60,60,60,60,60,60,60,60,60,60,60,60,60,60,60,60,60,60,60,60,37,38,38,38,20,38,38,39,39,38,38,22,60,60,60,60,60,60,60,60,60,60,60,60,60,60,60,73,72,
111,71,76,60,60,60,60,60,60,60,60,60,37,38,20,20,21,21,38,38,38,38,38,38,38,38,38,38,39,39,39,39,39,21,21,21,38,38,40,60,60,60,60,60,60,60,60,60,60,60,60,60,60,60,60,60,60,60,60,60,60,60,37,38,20,21,39,22,60,60,60,60,60,60,60,60,60,60,60,60,60,60,60,60,60,60,60,60,60,60,60,60,60,60,60,60,1,2,3,36,38,38,20,38,38,39,38,38,38,17,58,60,60,60,60,60,60,60,60,60,60,60,60,60,60,73,72,92,
111,111,94,60,60,60,60,60,60,60,60,1,36,20,21,21,21,39,17,56,56,56,56,56,56,56,56,56,18,38,38,38,39,39,39,39,21,21,35,2,4,60,60,60,60,60,60,60,60,60,60,60,60,60,60,60,60,60,60,60,60,60,37,38,20,21,21,22,60,60,60,60,60,60,60,60,60,60,60,60,60,60,60,60,60,60,60,60,60,60,60,60,60,60,60,60,19,38,38,20,20,20,38,38,39,38,38,38,38,40,60,60,60,60,60,60,60,60,60,60,60,60,60,60,73,72,92,92,
111,111,94,60,60,60,60,60,60,60,60,19,20,21,21,39,39,38,22,60,60,60,60,60,60,60,60,60,55,56,56,18,38,38,38,39,39,39,38,38,35,2,2,4,60,60,60,60,60,60,60,60,60,60,60,60,60,60,60,60,60,60,37,38,20,21,39,35,4,60,60,60,60,60,60,60,60,60,60,60,60,60,60,60,60,60,60,60,60,60,60,60,1,2,2,3,36,38,20,38,38,38,38,39,38,38,17,56,56,58,60,60,60,60,60,73,74,75,76,60,60,60,60,60,127,54,92,92,
111,111,94,60,60,60,60,60,60,60,60,19,20,20,21,39,38,38,22,60,60,60,60,60,60,60,60,60,60,60,60,37,38,38,38,38,39,39,21,21,38,38,38,40,60,60,60,1,2,2,2,2,2,2,4,60,60,60,60,60,60,60,37,38,20,20,21,38,22,60,60,60,60,60,60,60,60,60,60,60,60,60,60,60,60,60,60,60,60,60,60,60,19,38,38,38,38,38,38,38,39,38,38,38,17,57,58,60,60,60,60,60,60,60,60,91,92,93,94,60,60,60,60,60,60,127,54,92,
111,53,130,60,60,60,60,60,60,1,2,36,38,20,21,21,38,38,22,60,60,60,60,60,60,60,60,60,60,60,60,55,56,56,18,38,39,39,39,39,21,38,38,35,4,60,60,37,20,21,21,21,21,38,35,2,2,4,60,60,60,60,55,18,38,20,20,21,35,2,2,2,2,2,2,2,2,2,2,2,2,2,2,2,2,2,2,2,2,2,2,2,36,38,38,38,20,20,20,38,39,38,38,38,22,60,60,60,60,60,60,60,60,60,60,109,110,111,112,60,60,60,60,60,60,60,109,92,
111,94,60,60,60,60,60,60,60,37,38,38,38,20,20,21,38,38,22,60,60,60,60,60,60,60,60,60,60,60,60,60,60,60,55,56,56,18,38,39,39,21,21,38,22,60,60,37,20,21,39,39,39,21,21,38,38,35,2,4,60,60,60,55,18,20,20,21,38,38,38,38,38,38,38,38,38,38,38,38,20,20,20,21,38,38,38,38,38,38,38,38,38,38,20,20,38,38,20,38,20,20,21,38,22,60,60,60,60,60,60,60,60,60,60,127,128,129,130,60,60,60,60,60,60,60,109,92,
111,94,60,60,60,60,60,60,60,37,38,38,38,38,20,21,38,38,22,60,60,60,60,60,60,60,60,60,60,60,60,60,60,60,60,60,60,55,18,38,38,39,39,38,22,60,60,37,20,21,38,38,39,39,39,21,21,38,38,35,4,60,60,60,37,38,20,21,38,38,38,38,38,20,20,20,20,20,20,21,38,38,20,20,21,20,20,20,20,20,20,20,20,20,20,38,20,20,20,38,38,20,21,38,22,60,60,60,60,60,60,60,60,60,60,60,60,60,60,60,60,60,60,60,60,60,109,92,
111,94,60,60,60,60,60,60,60,55,57,18,38,38,20,21,38,38,22,60,60,60,60,60,60,60,60,60,60,60,60,60,60,60,60,60,60,60,55,57,18,38,39,38,22,60,60,37,20,21,38,17,18,38,39,39,39,21,21,38,35,4,60,60,37,38,20,20,20,20,20,21,20,38,38,38,38,38,20,20,38,39,38,20,20,38,38,38,38,38,38,38,38,38,38,38,38,38,38,38,39,20,21,38,40,60,60,60,60,60,60,60,60,60,60,60,60,60,60,60,60,60,60,60,60,73,72,92,
111,94,60,60,60,60,60,60,60,60,60,37,38,38,20,21,38,38,22,60,60,60,60,60,60,60,60,60,60,60,60,60,60,60,60,60,60,60,60,60,19,38,39,38,35,4,1,36,20,21,38,40,37,38,39,38,39,39,39,21,38,35,4,60,37,38,38,38,38,38,20,20,38,38,39,38,38,38,38,38,38,39,38,38,38,38,39,38,38,38,38,38,39,38,38,38,38,38,38,38,38,20,20,21,35,2,2,2,2,2,2,2,2,2,2,2,2,4,60,60,60,60,60,60,60,109,92,92,
111,71,76,60,60,60,60,60,60,60,60,37,38,38,20,21,38,38,22,60,60,60,60,60,60,60,60,60,60,60,60,60,60,60,60,60,60,60,60,60,19,38,39,38,38,35,36,38,20,21,38,40,55,56,56,18,38,39,39,39,21,38,35,4,55,56,18,38,38,38,38,38,38,17,56,56,56,56,56,56,56,56,56,56,56,56,56,56,56,56,56,56,56,56,56,56,56,56,56,18,38,20,21,21,38,38,38,38,38,38,38,38,38,38,38,38,38,35,4,60,60,60,60,60,60,109,92,92,
111,111,94,60,60,60,60,60,60,60,1,36,38,38,20,21,38,38,22,60,60,60,60,60,60,60,60,60,60,60,60,60,60,60,60,60,60,60,60,60,19,38,39,21,38,38,38,20,21,21,38,40,60,60,60,55,18,38,38,39,39,21,38,35,4,60,37,38,38,38,38,38,38,22,60,60,60,60,60,60,60,60,60,60,60,60,60,60,60,60,60,60,60,60,60,60,60,60,60,55,18,20,20,21,38,38,38,38,38,38,38,38,38,38,38,38,38,38,35,4,60,60,60,60,60,109,92,92,
111,111,112,60,60,60,60,60,60,1,36,38,38,38,20,21,38,38,22,60,60,60,60,60,60,60,60,60,60,60,60,60,60,60,60,60,60,60,60,60,19,38,39,39,21,21,21,21,21,39,17,58,60,60,60,60,19,38,38,38,39,39,21,38,35,4,55,56,18,38,38,38,38,22,60,60,60,60,60,60,60,60,60,60,60,60,60,60,60,60,60,60,60,60,60,60,60,60,60,1,36,38,20,21,38,20,21,21,21,21,21,21,38,20,20,20,21,38,38,22,60,60,60,60,60,109,92,92,
111,111,94,60,60,60,60,1,2,36,38,38,38,38,20,21,38,38,35,2,4,60,60,60,60,60,60,60,60,60,60,60,60,60,60,60,60,60,60,60,55,18,38,39,39,39,39,39,39,38,40,60,60,60,60,60,55,57,18,38,38,39,39,38,38,22,60,60,55,18,38,38,38,22,60,60,60,60,60,60,60,60,60,60,60,60,60,60,60,60,60,60,60,60,60,60,60,60,60,19,38,20,21,39,20,21,21,39,39,39,39,39,21,38,38,20,21,38,38,40,60,60,60,60,60,109,92,92,
111,111,112,60,60,60,1,36,38,38,38,38,38,20,21,21,38,38,38,38,40,60,60,60,60,60,60,60,60,60,60,60,60,60,60,60,60,60,60,60,60,19,38,38,38,38,38,38,17,57,58,60,60,60,60,60,60,60,55,18,38,38,39,21,38,22,60,60,60,37,38,38,38,22,60,60,60,60,60,60,60,60,60,60,60,60,60,60,60,60,60,60,60,60,60,60,60,60,1,36,38,20,20,21,20,21,39,21,39,39,38,39,39,38,39,20,21,38,38,35,4,60,60,60,60,127,54,92,
111,53,130,60,60,1,36,38,38,38,38,38,20,21,21,39,38,38,38,38,35,4,60,60,60,60,60,60,60,60,60,60,60,60,60,60,60,60,60,60,60,55,56,56,56,56,56,56,58,60,60,60,60,60,60,60,60,60,60,37,38,38,39,39,38,35,4,60,60,37,38,38,38,22,60,60,60,60,60,60,60,60,60,60,60,60,60,60,60,60,60,60,60,60,60,60,60,60,19,38,38,20,21,21,20,21,21,39,38,38,38,38,39,38,39,20,21,38,38,38,22,60,60,60,60,60,109,92,
53,130,60,60,1,36,38,38,20,20,21,21,21,21,21,21,38,38,38,38,38,35,4,60,60,60,60,60,60,60,60,60,60,60,60,60,60,60,60,60,60,60,60,60,60,60,60,60,60,60,60,60,60,60,60,60,60,60,60,55,18,38,38,39,21,38,35,4,1,36,38,38,17,58,60,60,60,60,60,60,60,60,60,60,60,60,60,60,60,60,60,60,60,60,60,60,60,60,19,38,38,20,20,20,20,21,21,21,21,21,38,38,39,38,39,20,21,38,38,38,40,60,60,60,60,60,109,92,
112,60,60,60,37,38,38,38,38,20,21,39,39,39,39,39,21,21,38,38,38,38,35,4,60,60,60,60,60,60,60,60,60,60,60,60,60,60,60,60,60,60,60,60,60,60,60,60,60,60,60,60,60,60,60,60,60,60,60,60,55,18,38,38,39,21,38,22,37,38,38,38,22,60,60,60,60,60,60,60,60,60,60,60,60,60,60,60,60,60,60,60,60,60,60,60,60,60,19,38,38,38,38,20,21,21,39,39,39,39,21,21,38,39,20,21,21,38,38,38,22,60,60,60,60,60,109,92,
112,60,60,1,36,38,38,38,38,20,21,38,38,38,38,39,39,21,38,38,38,38,38,40,60,60,60,60,60,60,60,60,60,60,60,60,60,60,60,60,60,60,60,60,60,60,60,60,60,60,60,60,60,60,60,60,60,60,60,60,60,55,18,38,39,39,21,35,36,38,38,38,22,60,60,60,60,60,60,60,60,60,60,60,60,60,60,60,60,60,60,60,60,60,60,60,60,60,19,38,38,38,20,21,21,39,38,38,38,39,39,39,21,21,20,21,39,38,38,38,22,60,60,60,60,60,109,92,
112,60,60,37,38,38,38,38,20,21,21,39,39,38,38,38,39,21,38,38,38,38,38,40,60,60,60,60,60,60,60,60,60,60,60,73,74,75,76,60,60,60,60,60,60,60,60,60,60,60,60,60,60,60,60,60,60,60,60,60,60,60,37,38,38,39,39,21,38,38,38,38,22,60,60,60,60,60,60,60,60,60,60,60,60,60,60,60,60,60,60,60,60,60,60,60,60,60,19,38,38,38,20,21,39,20,21,38,38,38,38,20,20,20,20,20,20,38,38,38,40,60,60,60,60,60,109,92,
112,60,60,37,38,38,38,38,20,21,39,20,20,20,38,38,39,39,38,38,38,38,38,40,60,60,60,60,60,60,60,60,60,60,60,91,92,93,94,60,60,60,60,60,60,60,60,60,60,60,60,60,60,60,60,60,60,60,60,60,60,60,55,18,38,38,39,39,21,21,21,38,22,60,60,60,60,60,60,60,60,60,60,60,60,60,60,60,60,60,60,60,60,60,60,60,60,60,19,38,38,38,20,21,21,20,20,20,20,20,38,20,20,20,20,20,20,38,38,38,40,60,60,60,60,60,109,92,
112,60,60,37,38,38,38,38,20,21,38,38,38,38,39,38,39,38,38,38,38,38,17,58,60,60,60,60,60,60,60,60,60,60,60,109,110,111,112,60,60,60,60,60,60,60,60,60,60,60,60,60,60,60,60,60,60,60,60,60,60,60,60,55,18,38,38,39,39,39,39,38,22,60,60,60,60,60,60,60,60,60,60,60,60,60,60,60,60,60,60,60,60,60,60,60,60,60,19,38,38,38,20,21,21,38,38,38,38,38,38,20,20,20,20,20,20,38,38,17,58,60,60,60,60,73,72,92,
94,60,60,37,38,38,38,38,20,21,38,38,39,38,20,38,39,38,38,38,38,38,40,60,60,60,60,60,60,60,60,60,60,60,60,127,128,129,130,60,60,60,60,60,60,60,60,60,60,60,60,60,60,60,60,60,60,60,60,60,60,60,60,60,55,56,56,18,38,38,39,38,22,60,60,60,60,60,60,60,60,60,60,60,60,60,60,60,60,60,73,74,75,76,60,60,60,60,19,38,38,38,20,21,21,38,38,38,38,38,38,38,20,20,20,20,20,38,17,58,60,60,60,60,73,72,92,92,
94,60,60,37,38,38,38,38,20,21,21,21,21,21,21,38,39,38,38,38,38,38,40,60,60,60,60,60,60,60,60,60,60,60,60,60,60,60,60,60,60,60,60,60,60,60,60,60,60,60,60,60,60,60,60,60,60,60,60,60,60,60,60,60,60,60,60,37,38,38,39,38,35,2,2,2,2,2,4,60,60,60,60,60,60,60,60,60,60,60,91,92,93,94,60,60,60,60,19,38,38,38,20,20,21,21,38,38,38,38,38,38,20,20,38,39,38,17,58,60,60,60,60,60,127,54,92,92,
94,60,60,37,38,38,38,38,20,20,20,20,20,20,21,38,39,38,38,38,38,17,58,60,60,60,60,60,60,60,60,60,60,60,60,60,60,60,60,60,60,60,60,60,60,60,60,60,60,60,60,60,60,60,60,60,60,60,60,60,60,60,60,60,60,60,1,36,38,38,39,38,38,38,38,38,38,38,35,4,60,60,60,60,60,60,60,60,60,60,109,110,111,112,60,60,60,60,19,38,38,38,38,20,20,20,20,20,21,21,38,20,20,38,38,39,38,22,60,60,60,60,60,60,73,72,92,92,
94,60,60,37,38,38,38,38,38,38,38,38,38,38,39,38,39,38,38,38,17,58,60,60,60,60,60,60,60,60,60,60,60,60,60,60,60,60,60,60,60,60,60,60,60,60,60,60,60,60,60,60,60,60,60,60,60,60,60,60,60,60,1,2,2,2,36,38,38,20,21,21,21,21,21,21,21,38,38,35,2,3,4,60,60,60,60,60,60,60,127,128,129,130,60,60,60,60,55,18,38,38,38,38,38,38,38,38,39,21,20,38,38,38,39,38,17,58,60,60,60,60,60,73,72,92,92,92,
94,60,60,55,56,18,38,38,38,38,38,38,20,20,38,39,38,38,38,17,58,60,60,60,60,60,60,60,60,60,60,60,60,60,60,60,60,60,60,60,60,60,60,60,60,60,60,60,60,60,60,60,60,60,60,60,60,60,60,60,1,2,36,20,21,21,21,20,21,21,21,39,39,39,21,21,21,21,21,21,38,38,35,4,60,60,60,60,60,60,60,60,60,60,60,60,60,60,60,55,56,18,38,38,38,38,38,38,39,39,38,38,39,38,38,17,58,60,60,60,60,60,73,72,92,92,92,92,
112,60,60,60,60,55,18,38,38,38,38,38,38,38,38,39,38,38,38,40,60,60,60,60,60,60,60,60,60,60,60,60,60,60,60,60,60,60,60,60,60,60,60,60,60,60,60,60,60,60,60,60,60,60,60,60,60,60,60,1,36,38,38,20,20,20,21,21,21,39,39,39,38,39,39,39,39,39,39,39,21,38,38,35,2,4,60,60,60,60,60,60,60,60,60,60,60,60,60,60,60,55,18,21,38,38,38,38,38,38,38,38,38,17,56,58,60,60,60,60,60,60,91,92,92,92,92,92,
71,75,76,60,60,60,55,56,56,56,56,18,38,38,17,56,56,56,56,58,60,60,60,60,60,60,60,60,60,60,60,60,60,60,60,60,60,60,60,60,60,73,74,74,74,74,74,76,60,60,60,60,60,60,60,60,60,5,73,74,74,74,74,74,74,74,74,74,74,74,74,74,74,74,74,74,74,74,74,74,74,74,74,75,75,76,5,60,60,60,60,73,74,74,74,76,60,60,60,60,60,60,55,56,56,18,38,38,38,38,17,56,57,58,60,60,60,60,60,60,60,60,91,111,92,92,92,92,
111,111,71,76,60,60,60,60,60,60,60,55,56,57,58,60,60,60,60,60,60,60,60,60,60,60,60,60,60,73,75,75,76,60,60,60,60,60,60,60,60,91,111,111,111,111,111,71,74,76,60,60,60,60,60,60,60,73,72,92,92,92,92,92,92,92,92,92,92,92,92,92,92,92,92,92,92,92,92,92,92,92,92,92,93,71,76,60,60,60,73,72,92,92,92,71,76,60,60,60,60,60,60,60,60,55,56,56,56,57,58,60,60,60,60,60,60,60,73,74,74,74,72,111,92,92,92,92,
111,111,111,71,74,74,74,74,74,74,74,74,74,74,74,74,74,74,74,74,74,74,74,74,74,74,74,74,74,72,111,111,71,74,74,74,74,74,74,74,74,72,111,111,111,111,111,111,111,71,74,74,74,74,74,74,74,72,110,92,92,92,92,92,92,92,92,92,92,92,92,92,92,92,92,92,92,92,92,92,92,92,93,92,93,111,71,75,75,75,72,92,92,92,92,92,71,74,74,74,74,74,74,74,74,74,74,74,74,74,74,74,74,74,74,74,74,74,72,92,92,92,92,92,92,92,92,92
</data>
 </layer>
 <layer id="4" name="Props Layer 1" width="128" height="100">
  <data encoding="csv">
196,0,0,0,192,193,0,196,0,0,0,0,0,0,0,0,0,0,0,0,0,184,0,196,0,184,0,0,0,0,0,0,0,0,0,0,0,0,0,2129,2063,2063,2063,2063,2063,2063,2063,2063,2063,2063,2063,2063,2063,2063,2063,2063,2063,2063,2063,2063,2063,2063,2063,2063,2063,2063,2063,2063,2063,2063,2063,2063,2063,2063,2063,2063,2063,2063,2063,2063,2063,2063,2063,2063,2063,2063,2063,2063,2063,2063,2063,2063,2063,2063,2063,2063,2063,2063,2063,2063,2063,2063,2063,2063,2063,2063,2127,0,0,0,0,0,0,0,0,0,0,0,0,0,0,0,0,0,0,196,184,0,
0,198,0,196,199,200,0,0,0,0,0,0,0,0,0,0,0,0,0,0,0,0,0,0,0,0,0,0,0,0,1387,1388,0,0,0,0,0,0,0,2104,0,0,0,0,0,0,1813,1814,0,0,0,1813,1814,0,0,0,0,0,0,0,1813,1814,0,1875,1876,0,0,0,0,0,0,0,0,0,0,0,0,0,0,0,0,0,1875,1876,0,0,0,0,1509,1510,0,0,0,0,0,0,0,0,1509,1510,0,0,0,0,0,0,2100,0,0,0,0,1509,1510,0,0,0,0,0,0,1509,1510,0,0,0,0,0,0,196,
0,0,0,0,184,0,184,0,1509,1510,0,0,0,1509,1510,0,0,0,1387,1388,0,0,0,0,0,0,1509,1510,0,0,1419,1420,0,0,0,1509,1510,0,0,2104,0,0,1509,1510,0,0,1845,1846,0,0,0,1845,1846,0,0,0,1509,1510,0,0,1845,1846,0,1907,1908,0,0,0,0,0,0,0,0,0,0,0,0,0,0,0,0,0,1907,1908,0,0,0,0,1541,1542,0,0,0,0,0,0,0,0,1541,1542,0,0,0,0,1509,1510,2100,0,0,0,0,1541,1542,0,0,0,1509,1510,0,1541,1542,0,0,0,0,0,0,184,
0,184,0,196,0,0,0,0,1541,1542,0,0,0,1541,1542,0,0,0,1419,1420,0,0,0,0,0,0,1541,1542,0,0,0,0,0,0,0,1541,1542,0,0,2104,0,0,1541,1542,0,0,0,0,0,0,0,0,1509,1510,0,0,1541,1542,0,0,0,0,0,0,0,0,0,0,0,0,0,0,0,0,0,0,0,0,0,0,0,0,0,0,0,0,0,0,0,0,0,0,0,0,1509,1510,0,0,0,0,0,0,0,0,1541,1542,2100,0,0,0,0,0,1387,1388,0,0,1541,1542,0,0,0,197,0,0,0,1509,1510,0,
0,192,193,0,198,184,0,0,0,0,0,0,0,1387,1388,0,0,0,0,0,0,0,0,0,0,0,0,0,0,0,0,0,0,0,0,0,0,0,0,2104,0,0,0,0,0,0,0,1509,1510,0,0,0,1541,1542,0,0,0,0,0,0,0,0,0,0,0,0,0,0,0,0,0,0,0,0,0,0,0,0,0,0,0,0,0,1875,1876,0,0,0,0,1813,1814,0,0,0,1541,1542,0,0,0,0,0,1813,1814,0,0,0,2153,2063,2127,0,0,0,1419,1420,0,0,0,0,0,197,0,1875,1876,0,0,1541,1542,0,
0,199,200,0,0,0,196,0,0,0,0,0,0,1419,1420,0,0,0,1509,1510,0,0,0,0,0,0,1387,1388,0,0,0,0,0,0,0,0,0,0,0,2104,0,0,0,0,0,0,0,1541,1542,0,0,0,0,0,0,0,0,0,0,0,0,0,0,1875,1876,0,0,0,0,0,0,0,0,0,0,0,0,0,0,0,0,0,0,1907,1908,0,0,0,0,1845,1846,0,0,0,0,0,0,0,0,0,0,1845,1846,0,0,0,0,0,2100,0,0,0,1509,1510,0,0,0,0,0,0,0,1907,1908,0,197,0,0,0,
0,196,0,0,184,0,0,0,196,0,0,0,0,0,0,0,0,0,1541,1542,0,0,0,0,0,0,1419,1420,0,0,0,0,0,0,0,0,0,0,0,2104,0,0,0,0,0,0,0,0,0,0,0,0,0,0,0,0,0,0,0,0,0,0,0,1907,1908,0,0,0,0,0,0,0,0,0,0,0,0,0,0,0,0,0,0,1875,1876,0,0,0,0,0,0,0,0,0,0,0,0,0,201,203,204,206,0,0,0,0,0,0,2126,2127,0,0,1541,1542,0,0,0,197,0,0,197,0,1509,1510,0,0,1387,1388,
0,184,0,0,192,193,0,198,0,0,0,0,0,0,0,0,0,0,0,0,0,0,0,0,0,0,0,0,0,0,0,0,0,0,0,0,0,0,0,2090,2091,0,0,0,0,0,0,0,0,0,0,0,0,0,0,0,0,0,0,0,0,0,0,0,0,0,0,0,0,0,0,0,0,0,0,0,0,0,0,0,0,0,0,1907,1908,0,0,0,0,0,0,0,0,0,0,0,0,0,277,279,280,282,0,0,0,0,0,0,0,2100,0,0,0,1509,1510,197,1875,1876,0,0,0,197,1541,1542,0,197,1419,1420,
0,198,0,196,199,200,196,0,0,0,0,0,0,0,0,0,0,0,0,0,0,0,0,0,0,0,0,0,0,0,0,1509,1510,0,1875,1876,0,0,0,0,2117,0,0,0,0,0,0,0,0,0,0,0,0,0,0,0,0,0,0,0,0,0,1875,1876,0,0,0,0,0,0,0,0,0,0,0,0,0,0,0,0,0,0,0,0,0,0,0,0,0,0,0,0,0,0,0,0,0,0,315,317,318,320,0,1813,1814,0,0,0,0,2100,0,0,0,1541,1542,0,1907,1908,197,1509,1510,0,0,197,0,0,0,0,
196,0,0,0,0,0,0,0,0,0,0,0,0,0,0,0,0,0,0,0,0,0,0,0,0,197,0,197,0,0,0,1541,1542,0,1907,1908,0,0,0,0,2117,0,0,0,0,0,0,0,0,0,0,0,0,0,0,0,0,0,0,0,0,0,1907,1908,0,0,0,0,0,0,0,0,0,0,0,0,0,0,0,0,0,0,0,0,0,0,0,0,0,0,0,0,0,0,0,0,0,0,391,393,394,396,0,1845,1846,0,0,0,0,2100,0,0,0,0,0,197,0,0,0,1541,1542,197,0,0,0,0,0,0,
0,0,1387,1388,0,0,0,1509,1510,0,0,0,0,0,0,0,0,0,0,0,0,0,197,0,0,0,0,0,0,1875,1876,0,0,0,0,0,197,0,0,0,2090,2154,2127,0,0,0,0,0,0,0,0,0,0,0,1813,1814,0,0,0,0,0,0,0,0,0,0,0,0,0,0,0,0,0,0,0,0,0,0,0,0,0,0,0,0,0,0,0,1509,1510,0,0,0,0,0,0,0,0,0,0,0,0,1509,1510,0,0,0,0,0,0,2100,0,197,0,0,1875,1876,0,197,0,197,1875,1876,0,197,0,1509,1510,0,
196,0,1419,1420,0,0,0,1541,1542,0,0,0,0,0,0,0,0,0,0,0,0,0,0,0,0,1875,1876,197,0,1907,1908,0,197,0,197,0,0,197,0,0,0,0,2100,0,0,0,0,0,0,0,0,0,0,0,1845,1846,0,0,0,0,1875,1876,0,0,0,0,0,0,0,0,0,0,0,1875,1876,0,0,0,0,0,0,1875,1876,0,1875,1876,0,1541,1542,0,0,0,0,0,0,0,0,0,0,0,0,1541,1542,0,0,0,0,0,2087,2088,1509,1510,0,0,1907,1908,0,0,0,0,1907,1908,197,0,0,1541,1542,0,
0,1509,1510,0,0,0,0,0,0,0,0,0,0,0,0,0,0,0,0,0,0,197,0,0,0,1907,1908,0,0,0,0,1509,1510,0,1875,1876,0,0,0,197,0,0,2100,0,0,0,0,0,0,0,0,0,0,0,0,0,0,0,0,0,1907,1908,0,0,0,0,0,0,0,0,0,0,0,1907,1908,0,0,1875,1876,0,0,1907,1908,0,1907,1908,0,0,0,0,0,0,0,0,0,0,0,0,0,0,0,0,0,0,0,0,0,0,2100,0,1541,1542,1509,1510,197,0,197,1509,1510,197,0,197,0,1875,1501,1502,1387,1388,
184,1541,1542,0,0,0,0,0,0,0,0,0,0,0,1387,1388,0,0,0,0,0,0,1875,1876,0,1509,1510,0,0,197,0,1541,1542,0,1907,1908,1509,1510,0,0,0,197,2100,0,0,0,0,0,0,0,0,0,0,0,0,0,0,0,0,0,0,0,0,0,0,1875,1876,0,0,1875,1876,0,0,0,0,0,0,1907,1908,0,0,0,0,0,0,0,0,0,1509,1510,0,0,0,0,0,0,0,1813,1814,0,0,0,0,0,0,0,0,2087,2088,0,197,0,1541,1542,1387,1388,0,1541,1542,0,0,1509,1510,1907,1533,1534,1419,1420,
196,0,0,0,0,0,0,0,0,0,1387,1388,0,0,1419,1420,0,0,0,1875,1876,0,1907,1908,0,1541,1542,0,0,0,0,0,0,0,0,0,1541,1542,197,0,0,0,2100,0,0,0,1813,1814,0,0,0,0,0,0,0,0,0,0,0,0,0,1875,1876,0,0,1907,1908,0,0,1907,1908,0,0,0,0,0,0,0,0,0,1875,1876,0,0,0,0,0,0,1541,1542,0,0,0,0,0,0,0,1845,1846,0,0,0,0,0,0,0,2087,2088,0,1509,1510,0,0,0,1419,1420,0,197,0,0,0,1541,1542,197,0,1509,1510,0,
0,0,0,0,0,0,0,0,0,0,1419,1420,0,0,0,0,0,0,0,1907,1908,0,0,0,0,1875,1876,0,197,0,0,0,1509,1510,0,197,0,0,0,0,0,197,2100,0,0,0,1845,1846,0,0,0,0,0,0,0,0,0,0,0,0,0,1907,1908,0,0,0,0,0,0,0,0,0,0,0,0,0,1875,1876,0,0,1907,1908,0,0,0,0,0,0,0,0,0,1813,1814,0,0,0,0,0,0,1509,1510,0,0,0,1813,1814,2100,0,0,1541,1542,0,0,1509,1510,0,0,0,0,197,1875,1876,197,0,197,1541,1542,0,
196,0,0,0,0,0,0,0,0,0,0,0,0,0,0,0,0,0,0,0,0,0,197,0,197,1907,1908,0,0,1875,1876,0,1541,1542,0,0,1875,1876,197,0,0,2087,2088,0,0,0,0,0,0,0,0,0,0,0,0,0,0,0,0,0,0,621,0,0,0,0,0,1875,1876,0,0,0,0,0,0,0,1907,1908,0,0,0,0,0,0,0,0,0,0,0,0,0,1845,1846,0,0,0,0,0,0,1541,1542,0,0,0,1845,1846,2100,0,197,1509,1510,197,0,1541,1542,0,0,0,0,0,1907,1908,0,0,1509,1510,0,0,
0,0,0,0,0,0,1509,1510,0,0,0,0,0,0,0,0,0,0,0,0,1509,1510,0,0,0,0,0,1509,1510,1907,1908,0,0,0,197,0,1907,1908,0,0,197,2100,0,0,0,0,0,0,0,0,0,0,0,1509,1510,0,0,0,0,0,0,0,0,0,1875,1876,0,1907,1908,0,0,0,1875,1876,0,0,0,0,0,0,0,0,0,0,0,0,0,0,0,0,0,0,0,0,0,0,0,0,0,0,0,0,0,0,0,0,2126,2154,2091,1541,1542,0,1387,1388,0,0,0,0,0,0,0,0,0,0,1541,1542,0,0,
196,184,0,1387,1388,0,1541,1542,0,0,0,0,0,0,0,0,0,0,0,197,1541,1542,0,197,1875,1876,0,1541,1542,0,0,197,0,0,0,0,0,0,0,0,0,2100,0,0,0,0,0,0,0,0,0,0,0,1541,1542,0,0,0,0,0,0,0,0,0,1907,1908,0,0,0,0,0,0,1907,1908,0,0,0,0,0,0,1509,1510,0,0,0,0,0,0,0,0,0,0,0,0,0,0,0,0,0,0,0,0,1813,1814,0,0,0,0,2104,0,0,0,1419,1420,0,0,0,1509,1510,1387,1388,0,0,0,0,0,0,0,
0,198,0,1419,1420,0,0,0,0,0,0,0,0,0,0,0,0,0,0,0,1875,1501,1502,0,1907,1908,0,0,0,0,0,0,0,1509,1510,0,0,1509,1510,0,0,2100,0,0,0,0,0,0,0,0,0,0,0,0,0,0,0,0,0,0,0,0,0,0,621,621,621,621,621,621,0,0,0,0,0,0,0,0,0,0,1541,1542,0,0,0,0,0,0,0,1509,1510,0,0,0,0,0,0,1813,1814,0,0,0,1845,1846,0,0,0,0,2104,1509,1510,0,0,1509,1510,0,0,1541,1542,1419,1420,0,0,0,0,0,0,0,
0,196,0,0,0,0,0,0,0,0,1387,1388,0,0,0,0,0,0,0,0,1907,1533,1534,0,0,0,197,0,0,0,0,0,0,1541,1542,0,197,1541,1542,0,197,2100,0,0,0,0,0,1813,1814,0,0,0,0,0,0,0,0,0,0,0,0,0,0,0,0,0,0,0,0,0,0,0,0,0,0,0,0,1813,1814,0,0,0,0,0,0,0,0,1813,1814,1541,1542,0,0,0,0,0,0,1845,1846,0,0,0,0,0,0,0,0,0,2104,1541,1542,197,0,1541,1542,0,0,0,0,0,0,0,0,0,0,0,0,0,
184,192,193,0,0,0,0,0,0,0,1419,1420,0,0,0,0,0,0,0,0,0,0,0,0,0,0,0,0,0,1509,1510,0,0,0,0,0,0,0,0,0,0,2100,0,0,0,0,0,1845,1846,0,0,0,0,0,0,0,0,0,0,0,1813,1814,0,0,0,0,0,0,0,0,0,0,0,1875,1876,0,0,1845,1846,0,0,0,0,0,0,0,0,1845,1846,0,0,0,0,0,0,0,0,0,0,0,0,0,0,0,0,0,0,0,2104,197,0,0,0,0,0,0,0,0,0,0,0,0,0,0,0,0,184,0,
196,199,200,0,0,0,0,0,0,0,0,0,0,0,0,0,0,0,0,0,0,1509,1510,0,0,1387,1388,0,0,1541,1542,0,0,0,0,0,0,0,197,0,197,2100,0,0,0,0,0,0,0,0,0,0,0,0,0,0,0,0,0,0,1845,1846,0,0,0,0,0,0,0,1875,1876,0,0,1907,1908,0,0,0,0,0,0,0,0,0,0,0,1509,1510,0,0,0,0,0,0,0,0,0,0,0,0,0,0,0,0,0,0,0,2129,2155,0,0,0,1875,1876,0,0,0,0,0,0,0,0,0,0,0,0,0,196,
0,0,0,0,0,0,0,0,0,1387,1388,0,0,0,0,0,0,1387,1388,0,0,1541,1542,0,0,1419,1420,0,0,0,0,0,0,0,0,0,0,1875,1876,0,0,2100,0,0,0,0,0,1509,1510,0,0,0,0,0,0,0,0,0,0,0,0,0,0,0,0,0,0,0,0,1907,1908,0,0,0,0,0,0,0,0,0,0,0,0,0,0,0,1541,1542,0,0,0,0,0,0,1509,1510,0,0,0,0,0,1813,1814,0,0,0,2129,2155,0,1509,1510,197,1907,1908,0,0,0,0,0,0,0,1509,1510,0,0,0,198,0,
184,198,0,0,0,0,0,0,0,1419,1420,0,0,0,0,0,0,1419,1420,0,0,0,0,0,0,0,0,0,0,0,0,0,0,0,0,0,0,1907,1908,0,0,2100,0,0,0,0,0,1541,1542,0,0,0,1509,1510,0,0,0,0,0,0,0,0,0,0,0,0,0,1875,1876,0,0,0,0,0,0,0,1509,1510,0,0,0,1813,1814,0,0,0,0,0,0,0,0,0,0,0,1541,1542,0,0,1813,1814,0,1845,1846,0,0,2129,2155,0,197,1541,1542,0,197,0,0,0,197,0,0,0,0,1541,1542,0,0,0,0,196,
196,0,0,0,0,0,0,0,0,0,0,0,0,0,0,0,0,0,0,0,0,0,0,0,0,0,0,0,0,0,0,0,0,0,0,0,1509,1510,0,197,0,2100,0,0,0,0,0,0,0,0,0,0,1541,1542,0,0,0,1509,1510,1813,1814,0,0,0,0,0,0,1907,1908,1875,1876,0,0,0,0,0,1541,1542,0,0,0,1845,1846,0,0,0,0,0,0,0,0,0,0,0,0,0,0,0,1845,1846,0,0,0,0,2129,2155,0,0,0,0,0,1875,1876,0,1509,1510,0,0,0,0,0,0,1387,1388,0,0,184,0,
0,0,1387,1388,0,1509,1510,0,0,0,0,0,0,0,0,0,0,0,0,0,0,0,0,0,0,0,0,0,0,0,0,0,0,0,0,0,1541,1542,0,0,197,2100,0,0,0,0,0,0,0,0,0,0,0,0,0,0,0,1541,1542,1845,1846,0,0,0,1813,1814,0,0,0,1907,1908,0,0,0,0,1813,1814,0,1813,1814,0,0,0,1509,1510,0,0,0,0,0,0,0,0,0,0,0,0,0,0,0,0,0,0,2129,2155,0,197,0,197,1509,1510,1907,1908,0,1541,1542,0,0,0,0,0,0,1419,1420,0,0,198,0,
0,0,1419,1420,0,1541,1542,0,0,0,0,0,0,0,0,0,0,0,0,0,0,0,0,0,0,0,0,0,0,0,0,0,0,1387,1388,0,0,0,197,0,0,2100,0,1509,1510,0,0,0,0,0,0,0,201,203,204,206,0,0,0,0,0,0,0,0,1845,1846,0,0,0,0,0,0,0,0,0,1845,1846,0,1845,1846,0,0,0,1541,1542,0,0,0,0,0,0,0,0,0,0,0,0,0,0,0,0,0,0,2104,0,0,0,0,0,1541,1542,0,0,197,0,0,0,197,0,0,0,0,0,0,0,0,196,0,
196,0,0,0,0,0,0,0,0,0,0,0,0,0,0,0,0,197,0,0,0,0,0,0,0,0,0,0,0,1509,1510,0,0,1419,1420,0,1875,1876,0,0,2087,2088,0,1541,1542,0,0,0,0,0,0,0,277,317,318,282,0,0,0,0,0,0,0,2104,0,0,0,1875,1876,0,0,2100,0,0,0,0,0,0,0,0,0,0,0,0,0,0,0,0,0,0,0,0,0,0,0,0,0,0,0,0,0,0,0,2104,0,197,0,197,0,0,197,0,0,0,197,197,197,0,0,0,0,0,0,0,0,0,192,193,
184,0,1387,1388,0,0,1387,1388,0,0,0,0,1501,1502,0,1875,1876,0,1509,1510,0,0,0,0,0,0,0,0,0,1541,1542,0,0,0,0,197,1907,1908,197,0,2100,0,0,0,0,0,0,0,0,0,0,0,315,355,356,320,0,0,0,0,0,0,0,2104,0,0,2245,1907,1908,0,0,2100,0,0,0,0,1509,1510,0,0,1509,1510,1813,1814,0,0,0,0,0,0,0,0,0,0,0,2087,2154,2154,2154,2154,2154,2154,2154,2130,0,0,0,0,1875,1876,0,0,197,0,0,1875,1876,0,0,0,0,0,0,0,0,184,199,200,
0,0,1419,1420,0,0,1419,1420,0,0,0,1875,1533,1534,0,1907,1908,0,1541,1542,1875,1876,0,0,0,0,0,0,0,0,0,0,0,0,0,0,0,0,0,0,2100,0,0,0,0,0,0,0,0,0,0,0,391,393,394,396,0,0,0,0,0,0,0,2104,1875,1876,0,0,0,1875,1876,2100,0,0,0,0,1541,1542,0,0,1541,1542,1845,1846,0,0,0,0,0,0,0,0,0,0,0,2100,1509,1510,0,1509,1510,0,0,1509,1510,0,197,0,1907,1908,0,1509,1510,0,0,1907,1908,0,1387,1388,0,0,0,0,1509,1510,0,0,
196,1387,1388,0,0,0,0,0,0,0,197,1907,1908,0,0,0,0,197,0,0,1907,1908,0,0,0,0,0,0,0,0,0,0,0,1509,1510,0,0,0,1509,1510,2100,0,0,0,0,0,0,0,0,0,0,0,0,0,1813,1814,0,0,2087,2154,2154,2154,2154,2130,1907,1908,0,0,0,1907,1908,2126,2154,2091,0,0,0,0,0,0,0,0,0,0,0,0,1509,1510,0,0,0,0,0,0,0,2100,1541,1542,197,1541,1542,197,0,1541,1542,1509,1510,0,197,0,0,1541,1542,0,197,0,0,0,1419,1420,1509,1510,0,0,1541,1542,0,184,
0,1419,1420,0,0,0,1387,1388,0,1509,1510,0,0,0,197,0,1509,1510,0,197,0,0,0,0,0,0,1387,1388,0,0,0,0,0,1541,1542,0,0,0,1541,1542,2100,0,0,0,0,0,0,0,1509,1510,0,0,0,0,1845,1846,0,0,2100,0,197,0,0,0,0,197,1509,1510,0,197,0,0,0,2090,2154,2091,0,0,0,0,0,0,0,0,0,0,1541,1542,0,0,0,0,0,0,0,2100,0,197,0,0,0,1387,1388,0,0,1541,1542,0,0,197,0,0,197,0,1509,1510,1871,1872,0,0,1541,1542,0,0,0,0,0,0,
0,0,0,1509,1510,0,1419,1420,0,1541,1542,0,1875,1876,0,0,1541,1542,0,0,0,1509,1510,0,0,0,1419,1420,0,0,0,0,0,0,0,0,0,197,0,0,2100,0,0,0,0,0,0,0,1541,1542,0,0,0,0,0,0,1509,1510,2100,0,0,0,1509,1510,197,0,1541,1542,197,0,1509,1510,0,0,0,2090,2091,0,0,0,0,0,0,0,0,0,0,0,0,0,0,0,0,0,0,2100,0,0,0,0,0,1419,1420,0,0,0,197,0,1509,1510,197,1875,1876,0,1541,1542,1903,1904,0,0,0,0,0,0,0,0,0,196,
184,0,0,1541,1542,0,0,0,0,0,0,0,1907,1908,0,197,0,0,1875,1876,0,1541,1542,0,0,0,0,0,0,0,0,0,0,0,0,0,0,0,2087,2154,2088,0,0,0,0,0,0,0,0,0,0,0,0,0,0,0,1541,1542,2100,0,0,197,1541,1542,0,1509,1510,1387,1388,0,1541,1542,197,0,197,0,2090,2091,0,0,0,0,0,0,0,0,0,0,0,0,0,0,0,0,0,2100,0,197,0,0,0,0,0,0,0,0,0,0,1541,1542,0,1907,1908,0,0,0,0,0,0,0,0,0,0,0,0,0,184,0,
196,0,0,0,0,0,0,0,1623,1624,0,0,0,0,0,0,197,0,1907,1908,0,0,0,0,0,197,0,0,0,0,0,0,0,0,0,0,0,197,2100,507,0,1813,1814,0,0,0,0,0,0,0,0,0,0,0,0,0,0,0,2153,2154,2091,0,0,0,197,1541,1542,1419,1420,1387,1388,0,0,1509,1510,0,0,2090,2154,2154,2154,2154,2154,2154,2154,2154,2154,2154,2154,2154,2154,2154,2154,2154,2154,2088,1509,1510,0,0,0,0,0,0,0,0,1387,1388,0,0,0,0,0,0,0,0,0,0,0,0,0,1509,1510,0,1387,1388,198,0,
0,0,1387,1388,1510,0,0,0,1655,1656,0,197,0,0,1509,1510,0,0,0,197,0,1875,1876,0,1509,1510,0,0,1509,1510,0,197,0,1509,1510,0,0,0,2100,0,0,1845,1846,0,0,0,0,0,0,1813,1814,0,0,0,0,0,0,0,0,0,2090,2091,197,0,0,0,0,0,0,1419,1420,0,197,1541,1542,0,1875,1876,0,0,1509,1510,0,0,197,1509,1510,0,0,0,0,197,0,0,0,0,1541,1542,0,0,0,0,0,0,0,0,1419,1420,0,197,0,0,0,0,0,0,1509,1510,0,0,0,1541,1542,0,1419,1420,0,196,
1387,1388,1419,1420,1542,0,0,0,0,0,0,1875,1876,0,1541,1542,0,0,0,0,0,1907,1908,0,1541,1542,0,197,1541,1542,0,0,0,1541,1542,1875,1876,1509,2100,0,0,0,0,0,0,0,0,0,0,1845,1846,0,0,0,0,0,0,0,0,0,0,2090,2091,0,0,197,0,0,1509,1510,0,0,0,0,1509,1510,1907,1908,0,197,1541,1542,197,0,0,1541,1542,0,197,0,0,0,1509,1510,0,1875,1876,197,0,0,0,0,0,0,0,1387,1388,0,1875,1876,0,1509,1510,0,0,0,1541,1542,0,0,0,0,0,0,0,192,193,0,
1419,1420,1510,0,0,0,1387,1388,0,0,0,1907,1908,0,0,0,1875,1876,1509,1510,197,0,0,0,0,1875,1876,0,0,0,0,197,0,0,0,1907,1908,1541,2126,2154,2154,2154,2154,2127,0,0,0,0,0,0,0,0,0,0,0,0,0,0,0,0,0,0,2104,0,0,1875,1876,0,1541,1542,1509,1510,0,0,1541,1542,197,0,0,0,1387,1388,1387,1388,0,0,0,0,0,0,0,197,1541,1542,197,1907,1908,0,0,1509,1510,0,0,0,0,1419,1420,197,1907,1908,0,1541,1542,0,0,0,0,0,0,0,0,0,0,0,0,199,200,0,
0,1541,1542,0,0,0,1419,1420,0,0,0,0,0,0,197,0,1907,1908,1541,1542,0,0,0,197,0,1907,1908,197,0,197,1875,1876,0,0,197,0,0,0,197,0,0,0,0,2153,2154,2154,2154,2154,2154,2154,2154,2154,2154,2127,0,0,0,0,0,0,0,0,2104,0,197,1907,1908,0,0,0,1541,1542,0,0,0,1387,1388,0,0,0,1419,1420,1419,1420,0,0,1387,1388,0,0,0,0,0,0,0,0,197,0,0,1541,1542,0,1509,1510,0,0,0,0,0,197,0,0,0,0,0,0,0,1509,1510,0,0,0,0,0,0,0,184,196,
0,0,0,0,192,193,0,1509,1510,0,0,0,0,0,0,0,0,0,0,0,0,197,0,0,0,0,0,0,0,0,1907,1908,1509,1510,0,197,0,1875,1876,0,0,0,0,197,0,0,0,0,0,0,0,1875,1876,2126,2154,2154,2127,0,0,0,0,0,2104,1509,1510,0,0,197,0,1387,1388,0,0,1509,1510,1419,1420,0,0,0,1509,1510,0,0,0,0,1419,1420,0,0,0,0,0,0,0,0,0,0,1387,1388,1387,1388,1541,1542,0,197,0,1509,1510,0,0,0,0,0,0,0,0,1541,1542,0,0,0,0,0,0,198,0,0,
196,198,0,196,199,200,0,1541,1542,0,0,0,1387,1388,0,1509,1510,0,0,0,0,0,0,1509,1510,1875,1876,1509,1510,0,0,0,1541,1542,0,0,0,1907,1908,197,0,1509,1510,0,0,0,0,1875,1876,197,0,1907,1908,0,197,0,2126,2154,2127,0,0,0,2104,1541,1542,197,0,0,0,1419,1420,0,0,1541,1542,0,0,0,0,0,1541,1542,0,0,0,0,0,0,0,0,0,0,1387,1388,0,0,1509,1510,1419,1420,1419,1420,0,0,197,0,0,1541,1542,0,1509,1510,0,0,0,0,0,0,0,0,0,0,0,0,0,196,0,0,
192,193,0,184,198,0,0,0,0,0,0,0,1419,1420,0,1541,1542,1509,1510,0,0,0,197,1541,1542,1907,1908,1541,1542,197,0,0,0,0,0,1387,1388,0,0,0,0,1541,1542,0,0,197,0,1907,1908,0,1509,1510,0,0,0,1509,1510,197,2153,2154,2154,2154,2130,197,0,0,0,1509,1510,0,0,0,0,0,0,0,0,0,0,0,1387,1388,0,0,0,0,0,0,0,0,0,0,1419,1420,0,0,1541,1542,0,0,0,197,1509,1510,0,197,0,0,0,0,1541,1542,0,0,1387,1388,0,0,0,0,0,0,0,1387,1388,0,198,0,
199,200,0,0,0,1509,1510,0,0,0,0,0,0,1509,1510,0,0,1541,1542,0,0,0,0,0,0,0,0,0,0,1387,1388,1509,1510,1387,1388,1419,1420,0,1509,1510,0,0,0,1387,1388,0,1509,1510,197,0,1541,1542,0,197,0,1541,1542,0,1875,1876,0,1509,1510,0,197,0,0,1541,1542,0,0,0,0,0,0,0,0,0,0,0,1419,1420,0,0,0,0,0,0,1387,1388,0,0,0,0,0,0,0,0,0,0,0,0,1541,1542,0,1875,1876,197,197,0,0,0,0,0,1419,1420,0,0,0,0,0,0,0,1419,1420,184,192,193,
196,0,0,0,0,1541,1542,0,0,0,0,0,0,1541,1542,0,0,0,0,0,0,0,0,0,0,0,197,1509,1510,1419,1420,1541,1542,1419,1420,1509,1510,0,1541,1542,0,0,0,1419,1420,0,1541,1542,1387,1388,0,0,0,0,0,0,0,0,1907,1908,0,1541,1542,0,0,0,0,1387,1388,0,0,0,0,1387,1388,0,0,0,0,0,0,0,0,0,0,0,0,0,1419,1420,0,0,0,0,0,0,1387,1388,0,0,0,197,0,0,197,1907,1908,0,0,1387,1388,0,0,0,0,0,0,0,0,0,0,0,0,0,0,0,199,200,
0,184,0,0,0,0,0,0,0,0,0,0,0,0,0,0,0,0,0,0,0,1509,1510,0,0,0,0,1541,1542,0,0,1541,1542,1509,1510,1541,1542,0,0,0,0,0,0,197,0,0,0,0,1419,1420,197,1875,1876,0,197,0,0,0,0,197,0,0,0,1387,1388,1509,1510,1419,1420,0,0,0,0,1419,1420,0,0,1387,1388,0,0,0,0,0,1387,1388,0,0,0,0,0,0,0,0,0,0,1419,1420,0,0,0,0,0,197,197,0,1509,1510,197,1419,1420,0,0,0,1509,1510,0,0,0,0,0,0,0,0,0,0,0,184,
0,0,0,1387,1388,0,0,0,0,0,0,0,0,1387,1388,0,0,0,0,0,0,1541,1542,0,1509,1510,0,0,1387,1388,1509,1510,1419,1541,1542,0,0,0,0,0,1387,1388,0,0,1509,1510,0,197,0,0,0,1907,1908,1509,1510,0,197,0,0,0,1875,1876,0,1419,1420,1541,1542,0,0,0,1387,1388,0,0,0,0,0,1419,1420,0,0,0,0,0,1419,1420,0,0,0,0,0,0,0,0,0,0,0,0,0,0,0,197,1871,1872,0,197,1541,1542,197,0,0,0,0,0,1541,1542,0,0,0,0,0,0,0,0,0,1387,1388,0,
184,0,0,1419,1420,0,0,0,0,1509,1510,0,0,1419,1420,0,0,0,0,0,1509,1510,0,0,1541,1542,0,0,1419,1420,1541,1542,0,1387,1388,0,0,0,0,0,1419,1420,0,0,1541,1542,0,0,0,197,0,0,0,1541,1542,0,1875,1876,197,0,1907,1908,0,0,0,0,0,0,0,0,1419,1420,0,0,0,1387,1388,0,0,1387,1388,0,0,1387,1388,0,0,0,0,0,0,1509,1510,0,0,0,0,1509,1510,0,0,0,1903,1904,197,197,0,0,0,0,0,0,0,0,0,0,0,1509,1510,0,0,1509,1510,0,0,1419,1420,198,
196,0,0,0,0,0,0,0,0,1541,1542,0,0,0,0,0,0,0,0,0,1541,1542,0,0,0,0,0,0,0,0,0,0,0,1419,1420,0,0,0,0,0,0,0,0,197,0,0,1875,1876,197,0,197,0,0,197,0,0,1907,1908,0,0,0,0,197,0,0,0,0,0,0,0,1509,1510,0,0,0,1419,1420,0,0,1419,1420,0,0,1419,1420,0,0,0,0,0,0,1541,1542,0,0,0,0,1541,1542,0,0,0,0,0,0,0,0,0,0,0,0,0,1509,1510,0,0,0,1541,1542,0,0,1541,1542,0,0,0,0,0,
0,1387,1388,0,0,1387,1388,0,0,0,0,0,0,0,0,0,0,0,0,0,0,0,0,1871,1872,1509,1510,0,197,0,0,0,1509,1510,0,0,0,1509,1510,0,1509,1510,0,0,0,0,1907,1908,1509,1510,0,0,1387,1388,1387,1388,0,197,1509,1510,0,197,1509,1510,0,0,0,0,0,0,1541,1542,0,0,0,0,0,0,0,1509,1510,0,0,0,0,0,0,0,0,0,0,0,0,0,0,0,0,0,1387,1387,1388,0,1509,1510,0,0,1387,1388,1509,1510,0,0,1541,1542,0,0,0,0,0,0,1387,1388,0,0,0,0,0,196,
196,1419,1420,0,0,1419,1420,0,0,0,0,0,0,0,0,0,0,1387,1388,0,0,0,197,1903,1904,1541,1542,0,0,0,0,0,1541,1542,0,0,0,1541,1542,0,1541,1542,0,197,0,197,0,0,1541,1542,0,0,1419,1420,1419,1420,0,0,1541,1542,0,0,1541,1542,0,0,0,0,0,0,0,0,0,0,0,0,0,0,0,1541,1542,0,0,0,0,0,0,1509,1510,0,0,0,0,0,0,0,0,0,1419,1419,1420,0,1541,1542,0,0,1419,1420,1541,1542,0,0,0,0,0,0,0,0,0,0,1419,1420,0,0,0,0,0,184,
0,0,0,0,0,0,0,0,0,0,0,0,1509,1510,0,0,0,1419,1420,1509,1510,0,0,0,1875,1876,0,0,197,1509,1510,0,197,0,0,1509,1510,0,0,197,0,0,1875,1876,0,0,0,197,0,0,0,0,0,1509,1510,0,0,0,0,197,1875,1876,0,0,0,0,0,1387,1388,0,0,1387,1388,0,0,0,0,0,0,1387,1388,0,0,0,0,0,0,1541,1542,0,0,0,0,0,0,0,0,0,0,0,0,0,0,0,0,0,0,0,0,0,0,0,0,0,0,0,0,0,0,0,0,0,0,0,0,0,0,0,
0,198,0,0,0,0,0,0,0,0,0,0,1541,1542,0,0,0,0,0,1541,1542,0,1509,1510,1907,1908,0,197,0,1541,1542,0,0,0,0,1541,1542,197,0,0,0,0,1907,1908,0,197,0,0,0,0,0,0,0,1541,1542,0,0,0,0,0,1907,1908,0,197,0,0,0,1419,1420,0,0,1419,1420,0,0,0,0,0,0,1419,1420,0,0,0,0,0,0,0,0,0,0,0,0,0,0,0,0,0,0,0,0,0,0,0,0,0,0,0,0,0,0,0,0,0,0,0,0,0,0,0,0,0,0,1509,1510,0,0,196,
196,184,1387,1388,0,0,0,0,0,0,0,0,0,0,0,0,0,1387,1388,1509,1510,0,1541,1542,0,197,0,0,1875,1876,0,197,0,1875,1876,0,0,0,1875,1876,197,0,0,1509,1510,0,0,0,0,0,0,0,0,0,0,1387,1388,0,0,197,0,0,0,0,0,0,0,0,0,0,0,0,0,0,0,0,0,0,0,0,0,0,0,0,0,0,0,0,0,0,0,0,0,0,0,1509,1510,0,0,0,0,0,0,0,1509,1510,0,0,0,0,1387,1388,0,0,0,0,197,0,1501,1502,197,0,0,1541,1542,0,0,0,
0,0,1419,1420,0,0,0,0,1387,1388,0,0,0,0,0,0,0,1419,1420,1541,1542,197,0,197,0,0,0,197,1907,1908,0,0,197,1907,1908,0,197,0,1907,1908,0,0,0,1541,1542,0,0,0,1387,1388,0,0,0,0,0,1419,1420,0,0,0,197,1509,1510,0,1875,1876,0,197,0,0,0,0,197,0,0,0,197,1875,1876,0,197,1509,1510,0,197,0,0,1509,1510,0,197,0,0,0,0,1541,1542,0,0,0,1509,1510,0,0,1541,1542,0,0,0,0,1419,1420,0,0,0,0,0,0,1533,1534,1876,0,0,0,0,1509,1510,0,
198,196,0,0,0,1387,1388,0,1419,1420,0,0,0,1509,1510,0,0,0,0,0,0,0,0,1875,1876,0,1509,1510,0,0,0,197,0,1509,1510,0,0,1509,1510,0,0,0,197,0,0,0,0,0,1419,1420,0,0,0,0,0,0,0,0,0,0,0,1541,1542,0,1907,1908,0,1509,1510,0,1875,1876,0,1509,1510,0,0,1907,1908,0,0,1541,1542,0,0,197,0,1541,1542,1501,1502,1876,0,0,0,0,0,0,0,0,1541,1542,0,0,0,1387,1388,0,0,0,0,0,0,197,0,197,1509,1510,0,1907,1908,0,197,0,0,1541,1542,0,
184,0,0,0,0,1419,1420,0,0,0,0,0,0,1541,1542,1387,1388,0,0,0,0,0,0,1907,1908,1623,1624,1542,0,197,0,0,0,1541,1542,197,0,1541,1542,197,0,0,0,0,0,0,0,0,0,0,0,0,0,0,0,0,0,0,0,0,0,0,0,197,0,197,0,1541,1542,0,1907,1908,197,1541,1542,0,0,0,0,197,0,0,0,0,0,1875,1876,0,0,1533,1534,1908,0,0,0,0,1509,1510,0,0,0,0,0,1509,1510,1419,1420,0,1509,1510,0,0,1509,1510,0,0,1541,1542,197,0,0,0,1509,1510,0,0,0,0,
196,0,0,1387,1388,1509,1510,0,0,0,0,0,0,0,0,1419,1420,0,0,0,0,0,0,0,0,1655,1656,0,0,0,0,1387,1388,0,0,0,0,0,0,0,1509,1510,0,0,1387,1388,0,0,0,0,0,0,0,0,0,0,0,0,1387,1388,0,197,0,0,0,0,0,0,0,197,0,0,0,0,0,0,0,197,1875,1876,0,0,197,0,0,1907,1908,197,0,0,197,1509,1510,0,197,0,1541,1542,0,0,0,0,0,1541,1542,0,0,0,1541,1542,0,197,1541,1542,0,1875,1876,0,0,0,197,0,1541,1542,0,0,0,0,
0,0,0,1419,1420,1541,1542,0,0,0,0,0,0,0,0,0,0,0,0,0,0,0,1509,1510,0,0,0,0,0,0,0,1419,1420,0,0,0,0,0,0,0,1541,1542,0,0,1419,1420,0,0,0,0,0,0,0,0,0,0,0,0,1419,1420,0,0,0,1509,1510,197,0,197,0,0,0,0,0,1509,1510,0,0,0,1907,1908,0,0,0,0,0,197,0,0,0,197,0,1541,1542,0,0,0,0,0,0,0,0,0,0,0,0,0,0,0,0,1387,1388,0,0,197,0,1907,1908,197,1509,1510,0,0,0,197,1871,1872,0,0,
0,1509,1510,0,0,0,0,0,0,1387,1388,0,0,0,0,0,0,0,1509,1510,0,0,1541,1542,0,0,0,0,0,0,0,0,0,0,1509,1510,0,0,0,0,0,0,0,1509,1510,0,0,0,0,0,0,1509,1510,0,0,0,0,0,0,0,0,1509,1510,1541,1542,0,0,0,0,0,0,0,0,1541,1542,0,0,0,0,0,0,197,0,1509,1510,0,0,1875,1876,0,0,0,1875,1876,197,0,1387,1388,0,0,0,0,0,0,0,0,0,0,0,1419,1420,1387,1388,1509,1510,0,0,0,1541,1542,0,1875,1876,0,1903,1904,0,0,
196,1541,1542,0,0,0,1387,1388,0,1419,1420,0,0,0,1509,1510,0,0,1541,1542,0,0,0,0,0,0,0,0,0,0,0,0,0,0,1541,1542,0,0,0,0,0,0,0,1541,1542,0,0,0,0,0,0,1541,1542,0,0,0,1509,1510,0,0,0,1541,1542,0,1875,1876,0,0,1509,1510,0,0,0,1387,1388,0,0,0,0,0,0,0,0,1541,1542,0,197,1907,1908,0,197,0,1907,1908,0,0,1419,1420,0,0,0,0,0,0,0,0,0,0,0,0,0,1419,1420,1541,1542,0,197,0,0,0,197,1907,1908,0,0,0,0,0,
184,0,0,192,193,0,1419,1420,0,0,1387,1388,0,0,1541,1542,0,0,0,1387,1388,0,0,0,0,0,0,0,0,0,0,0,0,0,0,0,0,0,0,0,0,0,0,0,0,0,0,0,0,0,0,0,0,0,0,0,1541,1542,0,0,0,0,0,197,1907,1908,197,0,1541,1542,0,0,0,1419,1420,0,0,0,0,0,0,0,0,0,0,0,0,0,1509,1510,0,1509,1510,197,0,0,0,0,0,0,0,0,1387,1388,1509,1510,0,0,1509,1510,0,197,0,0,197,0,1875,1876,197,0,0,0,0,0,0,0,0,0,
0,198,0,199,200,0,1509,1510,0,0,1419,1420,0,0,0,1387,1388,0,0,1419,1420,0,0,0,0,0,0,0,1387,1388,0,0,0,0,0,0,0,0,0,0,0,0,0,0,0,0,0,0,0,0,0,0,0,0,0,0,0,0,0,0,0,1387,1388,197,0,0,0,0,0,0,0,0,0,0,0,0,0,0,0,0,0,0,0,0,197,1875,1876,0,1541,1542,197,1541,1542,0,0,0,0,0,0,0,0,0,1419,1420,1541,1542,0,0,1541,1542,0,1875,1876,0,0,197,1907,1908,0,1509,1510,0,0,197,0,0,0,0,
196,0,0,0,0,0,1541,1542,0,0,0,0,0,0,0,1419,1420,0,0,0,0,0,0,0,0,0,0,0,1419,1420,0,0,0,0,0,0,0,0,0,1387,1388,0,1509,1510,0,0,0,0,0,0,0,0,0,0,0,0,0,0,0,0,0,1419,1420,1875,1876,0,197,0,0,0,0,0,0,0,0,0,0,0,0,0,0,1509,1510,0,0,1907,1908,197,0,0,1871,1872,0,0,0,0,0,0,0,1509,1510,0,0,1387,1388,0,0,0,0,0,0,1907,1908,197,0,0,0,0,0,1541,1542,0,0,0,0,1509,1510,0,
0,0,1509,1510,0,1387,1388,0,0,0,0,1509,1510,0,0,0,0,0,0,0,0,0,0,0,0,0,0,0,0,0,0,0,0,0,0,0,1509,1510,0,1419,1420,0,1541,1542,0,0,0,1509,1510,0,0,0,0,0,0,0,1387,1388,0,0,1509,1510,0,1907,1908,1509,1510,0,0,0,0,0,0,0,0,0,0,0,0,0,0,1541,1542,0,0,0,0,0,0,0,1903,1904,0,0,1509,1510,0,0,0,1541,1542,0,0,1419,1420,0,0,0,1509,1510,0,0,0,0,1509,1510,0,197,0,0,0,197,0,0,0,1541,1542,0,
196,0,1541,1542,0,1419,1420,0,0,0,0,1541,1542,0,0,0,0,0,0,1509,1510,0,1509,1510,0,0,1509,1510,0,0,0,1387,1388,0,0,0,1541,1542,0,0,0,0,0,0,0,0,0,1541,1542,0,0,0,0,0,0,0,1419,1420,0,0,1541,1542,0,197,0,1541,1542,0,0,0,0,0,0,0,0,0,0,0,0,0,0,0,0,0,0,0,0,0,0,0,0,0,0,0,1541,1542,0,0,0,0,0,0,0,0,0,0,0,197,1541,1542,0,0,197,0,1541,1542,0,0,0,0,1387,1388,0,1387,1388,0,0,0,
0,0,0,0,0,0,0,0,0,0,0,0,0,0,0,0,0,0,0,1541,1542,0,1541,1542,0,0,1541,1542,0,0,0,1419,1420,0,0,0,0,0,0,0,0,1509,1510,0,0,0,0,0,0,0,0,0,0,0,0,0,0,0,0,0,0,0,0,0,197,0,0,0,0,0,0,0,0,0,0,0,0,0,1509,1510,0,0,0,0,0,0,0,0,0,1509,1510,0,0,0,0,0,0,0,0,0,0,0,0,0,0,0,1875,1876,0,0,0,1875,1876,0,0,0,0,0,1509,1510,1419,1420,0,1419,1420,0,0,0,
184,1387,1388,0,0,0,1387,1388,0,0,0,0,0,0,0,0,197,0,1509,1510,0,0,197,0,0,164,0,0,0,0,0,0,0,0,0,0,1509,1510,0,0,0,1541,1542,0,0,1509,1510,0,0,0,0,1509,1510,0,0,0,0,0,0,0,0,0,0,0,1875,1876,197,0,0,0,0,0,0,0,0,0,0,0,1541,1542,0,0,0,0,0,0,0,0,0,1541,1542,0,0,0,1387,1388,0,0,0,0,0,0,0,0,0,0,1907,1908,0,197,0,1907,1908,197,0,1387,1388,0,1541,1542,0,0,1509,1510,0,0,0,0,
196,1419,1420,0,0,0,1419,1420,0,0,0,0,0,1509,1510,0,0,0,1541,1542,0,0,0,0,197,0,197,0,0,197,0,0,164,0,0,0,1541,1542,0,0,0,0,0,0,0,1541,1542,0,0,0,0,1541,1542,0,0,0,0,0,0,0,0,0,0,197,1907,1908,0,1387,1388,0,0,0,0,0,0,0,0,0,1387,1388,0,0,0,0,0,0,0,0,0,0,0,0,0,0,1419,1420,0,0,0,0,0,0,0,0,0,0,197,1509,1510,0,0,1387,1388,0,0,1419,1420,0,0,0,0,0,1541,1542,0,0,0,0,
0,0,0,0,0,0,0,0,0,0,1387,1388,0,1541,1542,164,0,197,0,0,0,164,1509,1510,0,0,0,197,0,1509,1510,0,197,0,0,0,0,0,0,0,0,0,0,0,0,0,0,0,1509,1510,0,0,0,0,0,0,0,1509,1510,0,0,0,0,1509,1510,0,0,1419,1420,0,0,0,0,0,1509,1510,0,0,1419,1420,0,0,0,0,0,0,0,0,0,0,0,0,1509,1510,0,0,0,0,0,0,0,1875,1876,0,197,0,0,1541,1542,0,0,1419,1420,1509,1510,0,0,0,0,0,0,0,0,0,1509,1510,0,0,
184,0,0,0,0,0,0,0,0,0,1419,1420,0,0,0,0,0,0,0,0,197,0,1541,1542,0,197,164,0,0,1541,1542,197,0,1509,1510,177,0,197,0,0,0,0,0,1509,1510,0,0,0,1541,1542,0,0,0,0,0,0,0,1541,1542,0,0,0,0,1541,1542,0,197,0,0,0,0,0,0,0,1541,1542,0,0,0,0,0,0,0,0,0,0,0,0,0,0,0,0,1541,1542,0,0,0,0,0,0,0,1907,1908,0,0,1875,1876,0,0,0,0,1509,1510,1541,1542,0,1509,1510,0,0,0,0,0,0,1541,1542,0,196,
196,0,0,0,0,0,0,0,0,0,0,0,0,0,197,0,1509,1510,0,0,0,0,0,0,0,0,0,0,0,177,0,0,0,1541,1542,0,164,0,0,0,0,1509,1510,1541,1542,0,0,0,1509,1510,0,0,0,1509,1510,0,0,0,0,0,0,0,0,197,0,0,0,0,0,0,0,0,0,0,0,0,0,0,0,0,0,0,0,0,0,0,0,0,0,0,0,0,0,0,0,0,0,0,0,0,197,0,1509,1510,0,1907,1908,197,0,0,0,1541,1542,0,0,0,1541,1542,0,0,0,1509,1510,0,0,0,198,0,
0,198,0,0,0,0,0,1509,1510,0,1509,1510,0,0,1875,1876,1541,1542,0,1509,1510,1387,1388,0,0,0,0,0,0,0,0,0,164,197,0,0,197,0,197,0,0,1541,1542,0,1509,1510,0,0,1541,1542,1509,1510,0,1541,1542,0,0,0,1509,1510,0,0,0,0,0,197,0,0,0,0,0,1509,1510,0,0,0,1509,1510,0,0,0,1387,1388,0,0,0,1387,1388,0,1509,1510,1509,1510,0,0,0,0,0,1875,1876,0,0,1541,1542,0,0,0,0,0,0,0,0,0,0,0,0,0,0,0,0,0,1541,1542,1387,1388,0,196,0,
184,0,0,0,0,0,0,1541,1542,0,1541,1542,0,164,1907,1908,0,0,0,1541,1542,1419,1420,1509,1510,0,0,0,0,0,0,0,0,0,0,197,1875,1876,0,1509,1510,0,0,0,1541,1542,0,0,0,0,1541,1542,0,0,0,0,0,0,1541,1542,0,0,0,0,0,0,1875,1876,0,0,0,1541,1542,0,0,0,1541,1542,0,0,0,1419,1420,0,0,0,1419,1420,0,1541,1542,1541,1542,0,197,0,1509,1510,1907,1908,0,197,0,0,0,0,0,1387,1388,0,0,0,0,0,0,0,0,0,0,0,1509,1510,0,1419,1420,0,0,184,
196,0,0,0,0,0,1509,1510,0,0,0,0,1509,1510,0,197,164,0,0,0,0,0,0,1541,1542,0,0,0,1509,1510,0,0,0,0,0,164,1907,1908,0,1541,1542,0,0,0,0,0,0,0,0,0,1509,1510,0,0,0,0,0,0,0,0,0,0,0,0,0,197,1907,1908,0,0,0,0,0,0,0,1875,1876,0,0,0,0,0,0,0,0,0,0,0,0,0,0,0,0,0,0,0,1541,1542,0,0,0,0,0,0,0,0,0,1419,1420,0,0,0,0,0,0,0,0,0,0,0,1541,1542,0,0,1509,1510,0,0,
198,0,0,1509,1510,0,1541,1542,0,0,0,197,1541,1542,0,0,197,0,0,0,0,0,0,0,0,0,0,0,1541,1542,0,0,1387,1388,0,0,0,0,197,1541,1542,0,164,0,0,0,0,0,164,0,1541,1542,0,197,1875,1876,0,0,0,0,1509,1510,0,0,0,0,0,0,0,0,0,0,1875,1876,0,1907,1908,0,1509,1510,0,1875,1876,0,0,197,0,197,1509,1510,0,1875,1876,0,0,197,0,0,0,197,0,1875,1876,0,0,0,0,0,0,0,0,0,0,0,0,0,0,0,0,0,0,0,0,0,1541,1542,0,198,
0,0,0,1541,1542,0,0,0,0,0,0,164,1875,1876,0,0,0,0,0,0,0,0,0,0,0,0,0,0,0,0,0,0,1419,1420,0,1509,1510,0,0,0,0,0,1875,1876,0,0,0,0,0,197,0,0,0,0,1907,1908,0,1509,1510,0,1541,1542,1387,1388,0,197,0,197,1509,1510,0,197,1907,1908,0,0,197,0,1541,1542,197,1907,1908,0,197,0,0,0,1541,1542,0,1907,1908,0,0,0,1875,1876,0,0,0,1907,1908,197,0,0,0,0,0,0,1509,1510,0,1509,1510,1509,1510,0,0,0,1387,1388,0,0,0,0,0,0,
196,1387,1388,0,1509,1510,0,0,0,0,0,0,1907,1908,197,0,1509,1510,0,0,0,0,0,0,0,0,0,0,0,0,0,0,0,0,0,1541,1542,0,0,0,0,0,1907,1908,0,1509,1510,0,1875,1876,0,0,0,164,0,197,0,1509,1510,197,0,0,1419,1420,0,0,1509,1510,1541,1542,0,0,0,1875,1876,0,0,1875,1876,0,0,0,0,1509,1510,0,1875,1876,0,0,0,0,0,197,1509,1510,1907,1908,0,1509,1510,0,0,0,0,0,0,0,0,0,1541,1542,0,1541,1542,1541,1542,0,1509,1510,1419,1420,0,0,1387,1388,0,184,
0,1419,1420,0,1541,1542,0,0,0,0,0,0,197,0,0,0,1541,1542,0,0,0,0,0,0,0,1387,1388,0,0,0,0,0,0,0,0,0,1387,1388,0,0,0,197,0,0,197,1541,1542,0,1907,1908,164,0,0,197,164,0,0,1541,1542,0,1875,1876,0,0,0,0,1541,1542,0,197,0,1509,1510,1907,1908,197,0,1907,1908,0,197,0,0,1541,1542,0,1907,1908,0,197,0,0,0,0,1541,1542,0,0,0,1541,1542,1875,1876,0,0,0,0,0,0,0,0,0,0,0,0,0,0,0,1541,1542,0,0,1509,1510,1419,1420,0,196,
184,0,0,0,0,0,0,1509,1510,0,0,0,0,0,164,0,0,0,0,1509,1510,0,0,0,0,1419,1420,0,0,0,0,1509,1510,0,0,0,1419,1420,1509,1510,0,164,1509,1510,0,0,0,1509,1510,0,0,0,1387,1388,0,0,164,197,0,0,1907,1908,0,0,1509,1510,0,0,1875,1876,0,1541,1542,0,0,0,0,0,0,0,0,0,0,0,0,0,0,0,0,0,0,0,0,0,0,0,0,0,0,0,0,1907,1908,0,1509,1510,0,0,0,197,0,0,197,0,0,0,0,0,0,0,0,0,1541,1542,0,0,198,0,
192,193,0,0,0,0,0,1541,1542,1509,1510,0,1509,1510,0,0,197,0,0,1541,1542,0,0,0,0,0,0,0,0,0,0,1541,1542,0,0,0,0,0,1541,1542,0,0,1541,1542,0,197,0,1541,1542,0,197,0,1419,1420,0,0,0,0,1875,1876,1509,1510,197,0,1541,1542,0,0,1907,1908,0,197,0,0,1387,1388,0,1509,1510,0,0,1509,1510,0,0,1387,1388,0,0,0,0,0,0,1387,1388,0,0,0,0,0,0,0,0,0,1541,1542,0,197,0,0,1509,1510,0,0,1509,2007,2008,0,0,0,0,0,0,1509,1510,0,192,193,
199,200,0,0,0,0,1509,1510,0,1541,1542,0,1541,1542,0,0,0,0,0,0,0,0,0,1509,1510,0,0,0,0,0,0,0,0,0,0,0,0,0,0,0,0,0,164,0,0,1875,1876,0,0,164,0,0,0,0,1509,1510,0,164,1907,1908,1541,1542,0,0,0,0,0,0,0,0,1509,1510,0,0,1419,1420,0,1541,1542,0,0,1541,1542,0,0,1419,1420,0,1509,1510,1510,0,0,1419,1420,0,0,1509,1510,0,0,0,197,0,0,0,197,0,0,0,1541,1542,0,197,1541,2039,2040,197,197,0,0,0,0,1541,1542,0,199,200,
196,198,0,0,0,0,1541,1542,0,0,197,0,0,0,0,197,1509,1510,0,0,0,1509,1510,1541,1542,0,0,0,0,0,0,0,0,0,0,0,0,0,0,0,0,0,0,197,0,1907,1908,197,164,0,0,0,0,0,1541,1542,0,0,0,0,0,1875,1876,197,0,0,1509,1510,0,0,1541,1542,0,0,0,0,0,0,0,0,0,0,0,0,0,0,0,0,1541,1542,1542,0,0,0,0,0,0,1541,1542,0,0,1509,1510,0,1875,1876,0,1509,1510,0,0,0,0,0,0,0,0,0,0,0,0,0,0,0,0,0,196,0,
184,0,0,1509,1510,0,0,0,0,0,0,164,0,1509,1510,0,1541,1542,0,0,0,1541,1542,0,0,0,0,1509,1510,0,0,0,0,1509,1510,0,0,0,0,0,0,0,0,0,0,164,0,0,0,0,1509,1510,0,0,1387,1388,1509,1510,0,0,197,1907,1908,1875,1876,0,1541,1542,0,0,1509,1510,197,0,0,0,0,0,0,0,0,0,0,0,0,0,0,0,0,0,0,0,0,0,0,0,0,0,0,0,0,1541,1542,0,1907,1908,0,1541,1542,0,0,197,1875,1876,0,0,0,1875,1876,0,0,0,0,0,0,1387,1388,184,
196,0,0,1541,1542,0,0,0,0,1509,1510,0,197,1541,1542,0,0,0,0,0,0,0,0,0,0,0,0,1541,1542,0,0,0,0,1541,1542,0,0,0,0,0,1387,1388,0,0,0,0,0,0,0,0,1541,1542,0,0,1419,1420,1541,1542,0,0,0,0,0,1907,1908,0,0,0,0,0,1541,1542,0,0,0,0,0,0,0,0,0,0,0,0,0,0,0,0,0,0,0,0,0,0,0,1509,1510,0,0,0,1875,1876,0,0,0,0,197,0,197,0,0,0,1907,1908,0,197,0,1907,1908,0,0,0,0,0,0,1419,1420,0,
0,0,0,1509,1510,0,0,0,0,1541,1542,1875,1876,0,0,197,0,0,197,0,0,0,0,0,0,0,0,0,0,0,0,0,0,0,0,0,0,1509,1510,0,1419,1420,1509,1510,0,0,0,1509,1510,0,0,0,1509,1510,0,0,0,0,0,0,0,164,0,0,0,197,1509,0,0,0,197,0,0,0,0,0,0,0,0,0,1509,1510,0,0,1509,1510,0,1509,1510,0,0,1509,1510,0,0,1541,1542,0,0,197,1907,1908,0,197,1875,1876,0,0,0,0,0,0,0,0,197,0,0,0,0,0,0,0,0,1509,1510,0,0,198,
0,0,0,1541,1542,0,0,197,0,0,0,1907,1908,0,0,0,1875,1876,0,0,0,197,0,0,0,0,0,0,1509,1510,0,0,0,0,0,0,0,1541,1542,0,0,0,1541,1542,0,0,0,1541,1542,0,0,660,1541,1542,0,0,0,0,0,0,0,0,0,0,0,0,1541,0,0,0,1875,1876,1387,1388,0,0,0,0,0,0,1541,1542,1387,1388,1541,1542,0,1541,1542,1387,1388,1541,1542,0,0,0,1509,1510,0,0,0,0,0,0,1907,1908,0,197,0,0,1509,1510,0,0,0,1509,1510,0,197,197,0,0,0,1541,1542,0,0,0,
0,0,0,0,0,0,1509,1510,0,0,164,0,1509,1510,0,0,1907,1908,1509,1510,0,1875,1876,0,1509,1510,0,0,1541,1542,0,0,0,0,0,0,0,0,0,0,0,0,0,0,0,0,0,1387,1388,0,0,0,1387,1388,0,0,0,0,0,0,0,0,0,197,1509,1510,0,189,190,0,1907,1908,1419,1420,0,0,0,1509,1510,0,1387,1388,1419,1420,0,0,0,0,0,1419,1420,0,0,1509,1510,0,1541,1542,0,0,1509,1510,0,0,0,1509,1510,0,0,197,1541,1542,0,197,0,1541,1542,0,0,0,0,1509,1510,0,0,0,0,0,
0,0,0,0,0,0,1541,1542,0,197,0,0,1541,1542,0,0,164,0,1541,1542,0,1907,1908,0,1541,1542,0,0,0,0,0,0,0,0,0,0,0,0,0,0,0,0,0,0,0,0,0,1419,1420,0,0,0,1419,1420,0,0,0,0,0,1509,1510,0,0,0,1541,1542,0,1509,1510,0,0,0,0,1509,1510,0,0,1541,1542,0,1419,1420,1509,1510,0,0,0,0,1509,1510,0,0,0,1541,1542,0,0,0,0,0,1541,1542,0,197,0,1541,1542,0,0,0,0,0,657,0,0,0,0,1875,1876,0,0,1541,1542,0,0,0,0,196,
0,0,0,0,0,1875,1876,0,0,1875,1876,0,0,0,0,197,0,0,0,0,0,197,0,0,0,0,0,0,0,0,0,1509,1510,0,0,0,165,184,0,0,0,0,0,0,0,0,0,0,0,0,0,0,0,0,0,1509,1510,0,0,1541,1542,0,0,0,164,0,0,1541,1542,0,197,0,0,1541,1542,0,0,0,0,0,0,0,1541,1542,0,0,0,0,1541,1542,0,0,0,1387,1388,0,0,0,0,197,0,0,1875,1876,0,0,0,197,0,0,197,0,1875,1876,0,197,0,1907,1908,0,0,0,0,0,0,0,0,184,
0,0,0,0,197,1907,1908,197,0,1907,1908,164,1509,1510,1875,1876,0,197,0,0,1509,1510,0,0,1509,1510,0,0,0,1387,1388,1541,1542,1387,1388,0,198,196,0,0,0,0,0,0,0,1509,1510,0,0,0,0,0,0,0,0,1541,1542,1509,1510,0,0,0,0,0,0,0,0,1875,1876,0,0,0,0,1387,1388,0,0,1509,1510,0,0,0,0,0,0,0,0,0,0,0,0,0,0,1419,1420,0,0,0,0,0,0,0,1907,1908,0,197,0,1875,1876,0,0,0,1907,1908,0,0,0,0,0,0,0,0,0,0,0,0,0,0,
0,0,0,0,0,0,0,0,0,197,0,0,1541,1542,1907,1908,0,0,164,0,1541,1542,1387,1388,1541,1542,0,0,0,1419,1420,0,0,1419,1420,0,0,0,0,1387,1388,0,0,0,0,1541,1542,0,0,0,0,0,0,0,0,0,0,1541,1542,0,0,0,0,1387,1388,0,0,0,1908,1875,1876,1509,1510,1419,1420,0,0,1541,1542,0,0,0,0,0,0,0,0,0,0,0,0,0,0,0,0,0,0,0,0,0,197,0,0,0,0,197,0,1907,1908,0,0,0,197,0,0,0,197,0,0,1509,1510,1387,1388,0,0,0,184,0,
0,0,0,0,0,0,1509,1510,0,0,0,0,0,0,164,0,1509,1510,0,0,0,0,1419,1420,1387,1388,0,0,0,0,0,0,1509,1510,0,0,0,0,0,1419,1420,1509,1510,0,1509,1510,0,0,0,0,0,0,0,0,1387,1388,0,0,0,0,0,1509,1510,1419,1420,0,0,0,0,1907,1908,1541,1542,0,0,0,0,0,0,0,1509,1510,0,0,1509,1510,0,0,0,0,0,192,193,0,0,0,0,0,0,0,0,0,0,197,0,0,0,0,0,0,0,0,0,0,0,0,0,0,0,1541,1542,1419,1420,1509,1510,0,198,196,
0,0,0,0,0,0,1541,1542,0,0,0,164,0,0,197,0,1541,1542,0,197,0,0,1623,1624,1419,1420,0,0,0,0,0,0,1541,1542,0,0,1509,1510,0,0,0,1541,1542,0,1541,1542,0,0,0,0,0,0,1509,1510,1419,1420,0,0,0,0,0,1541,1542,0,1509,1510,0,1623,1624,197,0,0,0,197,1875,1876,0,1509,1510,0,1541,1542,0,0,1541,1542,0,0,0,0,0,199,200,0,0,0,0,0,0,0,0,0,0,0,3995,0,0,2974,0,0,2977,4002,0,0,0,0,0,0,0,0,0,0,0,1541,1542,0,192,193,
0,1623,1624,0,0,0,0,0,1875,1876,197,1509,1510,0,0,0,0,1875,1876,0,0,0,1655,1656,0,0,0,0,1509,1510,0,0,0,0,0,0,1541,1542,0,1509,1510,0,0,0,0,0,0,0,0,0,0,0,1541,1542,0,0,1509,1510,0,0,0,0,0,0,1541,1542,0,1655,1656,1509,1510,0,0,0,1907,1908,197,1541,1542,0,1679,1680,0,0,0,1509,1510,0,0,0,0,0,0,0,0,1387,1388,0,0,0,0,0,0,0,0,3004,3005,3006,3007,3008,3009,4034,0,0,0,0,0,0,0,0,0,0,0,0,0,0,199,200,
0,1655,1656,0,0,0,0,0,1907,1908,0,1541,1542,0,197,0,197,1907,1908,0,0,0,0,0,0,0,0,0,1541,1542,0,0,0,0,0,0,0,0,0,1541,1542,1387,1388,0,1509,1510,0,1509,1510,0,0,0,0,0,0,0,1541,1542,0,1509,1510,0,0,0,0,0,197,0,0,1541,1542,197,0,0,0,0,0,0,0,0,1711,1712,0,0,0,1541,1542,0,0,0,0,1509,1510,0,0,1419,1420,0,0,0,0,0,0,0,0,3036,3037,3038,3039,3040,3041,0,0,0,0,1387,1388,0,0,0,0,0,0,0,0,196,0,0,
0,0,1509,1510,0,0,0,0,0,197,0,0,0,0,164,0,0,0,0,0,0,0,0,1509,1510,0,0,0,0,0,0,0,0,0,0,0,1387,1388,0,0,0,1419,1420,0,1541,1542,0,1541,1542,1387,1388,0,0,0,0,0,0,0,0,1541,1542,197,0,197,0,0,0,0,197,0,197,0,0,197,0,0,0,197,0,0,197,0,0,0,0,0,0,0,0,1387,1388,1541,1542,0,0,0,0,0,0,1509,1510,0,0,0,0,3068,3069,3070,3071,3072,3073,0,0,0,0,1419,1420,0,0,0,0,1509,1510,0,198,0,184,0,
0,0,1541,1542,0,0,1509,1510,0,0,1387,1388,1509,1510,0,0,0,1509,1510,0,0,0,0,1541,1542,0,0,0,0,0,0,0,0,0,0,0,1419,1420,1509,1510,0,0,0,0,0,0,0,0,0,1419,1420,1509,1510,0,0,0,1509,1510,0,0,0,0,0,0,0,0,0,0,0,0,0,0,0,0,0,0,0,0,0,0,0,0,0,192,193,0,0,0,0,1419,1420,0,0,192,193,0,0,0,0,1541,1542,0,0,0,0,3100,3101,3102,3103,3104,3105,4130,0,0,0,0,0,0,1509,1510,0,1541,1542,192,193,184,0,196,
184,196,0,0,0,0,1541,1542,0,0,1419,1420,1541,1542,0,0,0,1541,1542,0,0,0,0,0,0,0,0,0,0,0,0,0,0,0,0,0,0,0,1541,1542,0,0,196,192,193,184,196,0,0,0,0,1541,1542,0,0,0,1541,1542,0,192,193,0,196,0,0,173,0,184,0,0,0,165,0,198,0,0,180,0,184,0,165,0,196,199,200,0,0,0,0,0,0,0,0,199,200,0,0,0,0,0,0,0,0,0,4155,0,0,3134,3135,0,0,4162,0,0,0,0,0,0,1541,1542,0,0,0,199,200,0,198,0,
0,196,184,0,0,0,0,0,0,0,0,0,0,0,0,0,0,0,0,0,0,0,0,0,0,0,0,0,0,0,184,196,0,0,0,0,0,0,0,0,0,0,0,199,200,0,198,0,184,0,0,0,0,0,0,0,0,0,0,199,200,196,165,0,198,0,165,0,0,173,184,0,0,0,0,165,0,0,0,198,0,180,0,0,196,0,0,0,0,0,0,0,198,0,196,184,0,0,0,0,0,0,0,0,0,0,0,0,0,0,0,0,0,0,0,0,0,0,0,184,0,196,184,0,0,196,184,0
</data>
 </layer>
 <layer id="5" name="Props Layer 2" width="128" height="100">
  <data encoding="csv">
0,0,0,0,0,0,0,0,0,0,0,0,0,0,0,0,0,0,0,0,0,0,0,0,0,0,0,0,0,0,0,0,0,0,0,0,0,0,0,0,0,0,0,0,0,0,0,0,0,0,0,0,0,0,0,0,0,0,0,0,0,0,0,0,0,0,0,0,0,0,0,0,0,0,0,0,0,0,0,0,0,0,0,0,0,0,0,0,0,0,0,0,0,0,0,0,0,0,0,0,0,0,0,0,0,0,0,0,0,0,0,0,0,0,0,0,0,0,0,0,0,0,0,0,0,0,0,0,
0,0,0,0,0,0,0,0,0,0,0,0,0,0,0,0,0,0,0,0,0,0,0,0,0,0,0,0,0,0,0,0,0,0,0,0,0,0,0,0,0,0,0,0,0,0,0,0,0,0,0,0,0,0,0,0,0,0,0,0,0,0,0,0,0,0,0,0,0,0,0,0,0,0,0,0,0,0,0,0,0,0,0,0,0,0,0,0,0,0,0,0,0,0,0,0,0,0,0,0,0,0,0,0,0,0,0,0,0,0,0,0,0,0,0,0,0,0,0,0,0,0,0,0,0,0,0,0,
0,0,0,0,0,0,0,0,0,0,0,0,0,0,0,0,0,0,0,0,0,0,0,0,0,0,0,0,0,0,0,0,0,0,0,0,0,0,0,0,0,0,0,0,0,0,0,0,0,0,0,0,0,0,0,0,0,0,0,0,0,0,0,0,0,0,0,0,0,0,0,0,0,0,0,0,0,0,0,0,0,0,0,0,0,0,0,0,0,0,0,0,0,0,0,0,0,0,0,0,0,0,0,0,0,0,0,0,0,0,0,0,0,0,0,0,0,0,0,0,0,0,0,0,0,0,0,0,
0,0,0,0,0,0,0,0,0,0,0,0,0,0,0,0,0,0,0,0,0,0,0,0,0,0,0,0,0,0,0,0,0,0,0,0,0,0,0,0,0,0,0,0,0,0,0,0,0,0,0,0,0,0,0,0,0,0,0,0,0,0,0,0,0,0,0,0,0,0,0,0,0,0,0,0,0,0,0,0,0,0,0,0,0,0,0,0,0,0,0,0,0,0,0,0,0,0,0,0,0,0,0,0,0,0,0,0,0,0,0,0,0,0,0,0,0,0,0,0,0,0,0,0,0,0,0,0,
0,0,0,0,0,0,0,0,0,0,0,0,0,0,0,0,0,0,0,0,0,0,0,0,0,0,0,0,0,0,0,0,0,0,0,0,0,0,0,0,0,0,0,0,0,0,0,0,0,0,0,0,0,0,0,0,0,0,0,0,0,0,0,0,0,0,0,0,0,0,0,0,0,0,0,0,0,0,0,0,0,0,0,0,0,0,0,0,0,0,0,0,0,0,0,0,0,0,0,0,0,0,0,0,0,0,0,0,0,0,0,0,0,0,0,0,0,0,0,0,0,0,0,0,0,0,0,0,
0,0,0,0,0,0,0,0,0,0,0,0,0,0,0,0,0,0,0,0,0,0,0,0,0,0,0,0,0,0,0,0,0,0,0,0,0,0,0,0,0,0,0,0,0,0,0,0,0,0,0,0,0,0,0,0,0,0,0,0,0,0,0,0,0,0,0,0,0,0,0,0,0,0,0,0,0,0,0,0,0,0,0,0,0,0,0,0,0,0,0,0,0,0,0,0,0,0,0,0,0,0,0,0,0,0,0,0,0,0,0,0,0,0,0,0,0,0,0,0,0,0,0,0,0,0,0,0,
0,0,0,0,0,0,0,0,0,0,0,0,0,0,0,0,0,0,0,0,0,0,0,0,0,0,0,0,0,0,0,0,0,0,0,0,0,0,0,0,0,0,0,0,0,0,0,0,0,0,0,0,0,0,0,0,0,0,0,0,0,0,0,0,0,0,0,0,0,0,0,0,0,0,0,0,0,0,0,0,0,0,0,0,0,0,0,0,0,0,0,0,0,0,0,0,0,0,0,0,0,0,0,0,0,0,0,0,0,0,0,0,0,0,0,0,0,0,0,0,0,0,0,0,0,0,0,0,
0,0,0,0,0,0,0,0,0,0,0,0,0,0,0,0,0,0,0,0,0,0,0,0,0,0,0,0,0,0,0,0,0,0,0,0,0,0,0,0,0,0,0,0,0,0,0,0,0,0,0,0,0,0,0,0,0,0,0,0,0,0,0,0,0,0,0,0,0,0,0,0,0,0,0,0,0,0,0,0,0,0,0,0,0,0,0,0,0,0,0,0,0,0,0,0,0,0,0,0,0,0,0,0,0,0,0,0,0,0,0,0,0,0,0,0,0,0,0,0,0,0,0,0,0,0,0,0,
0,0,0,0,0,0,0,0,0,0,0,0,0,0,0,0,0,0,0,0,0,0,0,0,0,0,0,0,0,0,0,0,0,0,0,0,0,0,0,0,0,0,0,0,0,0,0,0,0,0,0,0,0,0,0,0,0,0,0,0,0,0,0,0,0,0,0,0,0,0,0,0,0,0,0,0,0,0,0,0,0,0,0,0,0,0,0,0,0,0,0,0,0,0,0,0,0,0,0,0,0,0,0,0,0,0,0,0,0,0,0,0,0,0,0,0,0,0,0,0,0,0,0,0,0,0,0,0,
0,0,0,0,0,0,0,0,0,0,0,0,0,0,0,0,0,0,0,0,0,0,0,0,0,0,0,0,0,0,0,0,0,0,0,0,0,0,0,0,0,0,0,0,0,0,0,0,0,0,0,0,0,0,0,0,0,0,0,0,0,0,0,0,0,0,0,0,0,0,0,0,0,0,0,0,0,0,0,0,0,0,0,0,0,0,0,0,0,0,0,0,0,0,0,0,0,0,0,0,0,0,0,0,0,0,0,0,0,0,0,0,0,0,0,0,0,0,0,0,0,0,0,0,0,0,0,0,
0,0,0,0,0,0,0,0,0,0,0,0,0,0,0,0,0,0,0,0,0,0,0,0,0,0,0,0,0,0,0,0,0,0,0,0,0,0,0,0,0,0,0,0,0,0,0,0,0,0,0,0,0,0,0,0,0,0,0,0,0,0,0,0,0,0,0,0,0,0,0,0,0,0,0,0,0,0,0,0,0,0,0,0,0,0,0,0,0,0,0,0,0,0,0,0,0,0,0,0,0,0,0,0,0,0,0,0,0,0,0,0,0,0,0,0,0,0,0,0,0,0,0,0,0,0,0,0,
0,0,0,0,0,0,0,0,0,0,0,0,0,0,0,0,0,0,0,0,0,0,0,0,0,0,0,0,0,0,0,0,0,0,0,0,0,0,0,0,0,0,0,0,0,0,0,0,0,0,0,0,0,0,0,0,0,0,0,0,0,0,0,0,0,0,0,0,0,0,0,0,0,0,0,0,0,0,0,0,0,0,0,0,0,0,0,0,0,0,0,0,0,0,0,0,0,0,0,0,0,0,0,0,0,0,0,0,0,0,0,0,0,0,0,0,0,0,0,0,0,0,0,0,0,0,0,0,
0,0,0,0,0,0,0,0,0,0,0,0,0,0,0,0,0,0,0,0,0,0,0,0,0,0,0,0,0,0,0,0,0,0,0,0,0,0,0,0,0,0,0,0,0,0,0,0,0,0,0,0,0,0,0,0,0,0,0,0,0,0,0,0,0,0,0,0,0,0,0,0,0,0,0,0,0,0,0,0,0,0,0,0,0,0,0,0,0,0,0,0,0,0,0,0,0,0,0,0,0,0,0,0,0,0,0,0,0,0,0,0,0,0,0,0,0,0,0,0,0,0,0,0,0,0,0,0,
0,0,0,0,0,0,0,0,0,0,0,0,0,0,0,0,0,0,0,0,0,0,0,0,0,0,0,0,0,0,0,0,0,0,0,0,0,0,0,0,0,0,0,0,0,0,0,0,0,0,0,0,0,0,0,0,0,0,0,0,0,0,0,0,0,0,0,0,0,0,0,0,0,0,0,0,0,0,0,0,0,0,0,0,0,0,0,0,0,0,0,0,0,0,0,0,0,0,0,0,0,0,0,0,0,0,0,0,0,0,0,0,0,0,0,0,0,0,0,0,0,0,0,0,0,0,0,0,
0,0,0,0,0,0,0,0,0,0,0,0,0,0,0,0,0,0,0,0,0,0,0,0,0,0,0,0,0,0,0,0,0,0,0,0,0,0,0,0,0,0,0,0,0,0,0,0,0,0,0,0,0,0,0,0,0,0,0,0,0,0,0,0,0,0,0,0,0,0,0,0,0,0,0,0,0,0,0,0,0,0,0,0,0,0,0,0,0,0,0,0,0,0,0,0,0,0,0,0,0,0,0,0,0,0,0,0,0,0,0,0,0,0,0,0,0,0,0,0,0,0,0,0,0,0,0,0,
0,0,0,0,0,0,0,0,0,0,0,0,0,0,0,0,0,0,0,0,0,0,0,0,0,0,0,0,0,0,0,0,0,0,0,0,0,0,0,0,0,0,0,0,0,0,0,0,0,0,0,0,0,0,0,0,0,0,0,0,0,0,0,0,0,0,0,0,0,0,0,0,0,0,0,0,0,0,0,0,0,0,0,0,0,0,0,0,0,0,0,0,0,0,0,0,0,0,0,0,0,0,0,0,0,0,0,0,0,0,0,0,0,0,0,0,0,0,0,0,0,0,0,0,0,0,0,0,
0,0,0,0,0,0,0,0,0,0,0,0,0,0,0,0,0,0,0,0,0,0,0,0,0,0,0,0,0,0,0,0,0,0,0,0,0,0,0,0,0,0,0,0,0,0,0,0,0,0,0,0,0,0,0,0,0,0,0,0,0,0,0,0,0,0,0,0,0,0,0,0,0,0,0,0,0,0,0,0,0,0,0,0,0,0,0,0,0,0,0,0,0,0,0,0,0,0,0,0,0,0,0,0,0,0,0,0,0,0,0,0,0,0,0,0,0,0,0,0,0,0,0,0,0,0,0,0,
0,0,0,0,0,0,0,0,0,0,0,0,0,0,0,0,0,0,0,0,0,0,0,0,0,0,0,0,0,0,0,0,0,0,0,0,0,0,0,0,0,0,0,0,0,0,0,0,0,0,0,0,0,0,0,0,0,0,0,0,0,0,0,0,0,0,0,0,0,0,0,0,0,0,0,0,0,0,0,0,0,0,0,0,0,0,0,0,0,0,0,0,0,0,0,0,0,0,0,0,0,0,0,0,0,0,0,0,0,0,0,0,0,0,0,0,0,0,0,0,0,0,0,0,0,0,0,0,
0,0,0,0,0,0,0,0,0,0,0,0,0,0,0,0,0,0,0,0,0,0,0,0,0,0,0,0,0,0,0,0,0,0,0,0,0,0,0,0,0,0,0,0,0,0,0,0,0,0,0,0,0,0,0,0,0,0,0,0,0,0,0,0,0,0,0,0,0,0,0,0,0,0,0,0,0,0,0,0,0,0,0,0,0,0,0,0,0,0,0,0,0,0,0,0,0,0,0,0,0,0,0,0,0,0,0,0,0,0,0,0,0,0,0,0,0,0,0,0,0,0,0,0,0,0,0,0,
0,0,0,0,0,0,0,0,0,0,0,0,0,0,0,0,0,0,0,0,0,0,0,0,0,0,0,0,0,0,0,0,0,0,0,0,0,0,0,0,0,0,0,0,0,0,0,0,0,0,0,0,0,0,0,0,0,0,0,0,0,0,0,0,0,0,0,0,0,0,0,0,0,0,0,0,0,0,0,0,0,0,0,0,0,0,0,0,0,0,0,0,0,0,0,0,0,0,0,0,0,0,0,0,0,0,0,0,0,0,0,0,0,0,0,0,0,0,0,0,0,0,0,0,0,0,0,0,
0,0,0,0,0,0,0,0,0,0,0,0,0,0,0,0,0,0,0,0,0,0,0,0,0,0,0,0,0,0,0,0,0,0,0,0,0,0,0,0,0,0,0,0,0,0,0,0,0,0,0,0,0,0,0,0,0,0,0,0,0,0,0,0,0,0,0,0,0,0,0,0,0,0,0,0,0,0,0,0,0,0,0,0,0,0,0,0,0,0,0,0,0,0,0,0,0,0,0,0,0,0,0,0,0,0,0,0,0,0,0,0,0,0,0,0,0,0,0,0,0,0,0,0,0,0,0,0,
0,0,0,0,0,0,0,0,0,0,0,0,0,0,0,0,0,0,0,0,0,0,0,0,0,0,0,0,0,0,0,0,0,0,0,0,0,0,0,0,0,0,0,0,0,0,0,0,0,0,0,0,0,0,0,0,0,0,0,0,0,0,0,0,0,0,0,0,0,0,0,0,0,0,0,0,0,0,0,0,0,0,0,0,0,0,0,0,0,0,0,0,0,0,0,0,0,0,0,0,0,0,0,0,0,0,0,0,0,0,0,0,0,0,0,0,0,0,0,0,0,0,0,0,0,0,0,0,
0,0,0,0,0,0,0,0,0,0,0,0,0,0,0,0,0,0,0,0,0,0,0,0,0,0,0,0,0,0,0,0,0,0,0,0,0,0,0,0,0,0,0,0,0,0,0,0,0,0,0,0,0,0,0,0,0,0,0,0,0,0,0,0,0,0,0,0,0,0,0,0,0,0,0,0,0,0,0,0,0,0,0,0,0,0,0,0,0,0,0,0,0,0,0,0,0,0,0,0,0,0,0,0,0,0,0,0,0,0,0,0,0,0,0,0,0,0,0,0,0,0,0,0,0,0,0,0,
0,0,0,0,0,0,0,0,0,0,0,0,0,0,0,0,0,0,0,0,0,0,0,0,0,0,0,0,0,0,0,0,0,0,0,0,0,0,0,0,0,0,0,0,0,0,0,0,0,0,0,0,0,0,0,0,0,0,0,0,0,0,0,0,0,0,0,0,0,0,0,0,0,0,0,0,0,0,0,0,0,0,0,0,0,0,0,0,0,0,0,0,0,0,0,0,0,0,0,0,0,0,0,0,0,0,0,0,0,0,0,0,0,0,0,0,0,0,0,0,0,0,0,0,0,0,0,0,
0,0,0,0,0,0,0,0,0,0,0,0,0,0,0,0,0,0,0,0,0,0,0,0,0,0,0,0,0,0,0,0,0,0,0,0,0,0,0,0,0,0,0,0,0,0,0,0,0,0,0,0,0,0,0,0,0,0,0,0,0,0,0,0,0,0,0,0,0,0,0,0,0,0,0,0,0,0,0,0,0,0,0,0,0,0,0,0,0,0,0,0,0,0,0,0,0,0,0,0,0,0,0,0,0,0,0,0,0,0,0,0,0,0,0,0,0,0,0,0,0,0,0,0,0,0,0,0,
0,0,0,0,0,0,0,0,0,0,0,0,0,0,0,0,0,0,0,0,0,0,0,0,0,0,0,0,0,0,0,0,0,0,0,0,0,0,0,0,0,0,0,0,0,0,0,0,0,0,0,0,0,0,0,0,0,0,0,0,0,0,0,0,0,0,0,0,0,0,0,0,0,0,0,0,0,0,0,0,0,0,0,0,0,0,0,0,0,0,0,0,0,0,0,0,0,0,0,0,0,0,0,0,0,0,0,0,0,0,0,0,0,0,0,0,0,0,0,0,0,0,0,0,0,0,0,0,
0,0,0,0,0,0,0,0,0,0,0,0,0,0,0,0,0,0,0,0,0,0,0,0,0,0,0,0,0,0,0,0,0,0,0,0,0,0,0,0,0,0,0,0,0,0,0,0,0,0,0,0,0,0,0,0,0,0,0,0,0,0,0,0,0,0,0,0,0,0,0,0,0,0,0,0,0,0,0,0,0,0,0,0,0,0,0,0,0,0,0,0,0,0,0,0,0,0,0,0,0,0,0,0,0,0,0,0,0,0,0,0,0,0,0,0,0,0,0,0,0,0,0,0,0,0,0,0,
0,0,0,0,0,0,0,0,0,0,0,0,0,0,0,0,0,0,0,0,0,0,0,0,0,0,0,0,0,0,0,0,0,0,0,0,0,0,0,0,0,0,0,0,0,0,0,0,0,0,0,0,0,0,0,0,0,0,0,0,0,0,0,0,0,0,0,0,0,0,0,0,0,0,0,0,0,0,0,0,0,0,0,0,0,0,0,0,0,0,0,0,0,0,0,0,0,0,0,0,0,0,0,0,0,0,0,0,0,0,0,0,0,0,0,0,0,0,0,0,0,0,0,0,0,0,0,0,
0,0,0,0,0,0,0,0,0,0,0,0,0,0,0,0,0,0,0,0,0,0,0,0,0,0,0,0,0,0,0,0,0,0,0,0,0,0,0,0,0,0,0,0,0,0,0,0,0,0,0,0,0,0,0,0,0,0,0,0,0,0,0,0,0,0,0,0,0,0,0,0,0,0,0,0,0,0,0,0,0,0,0,0,0,0,0,0,0,0,0,0,0,0,0,0,0,0,0,0,0,0,0,0,0,0,0,0,0,0,0,0,0,0,0,0,0,0,0,0,0,0,0,0,0,0,0,0,
0,0,0,0,0,0,0,0,0,0,0,0,0,0,0,0,0,0,0,0,0,0,0,0,0,0,0,0,0,0,0,0,0,0,0,0,0,0,0,0,0,0,0,0,0,0,0,0,0,0,0,0,0,0,0,0,0,0,0,0,0,0,0,0,0,0,0,0,0,0,0,0,0,0,0,0,0,0,0,0,0,0,0,0,0,0,0,0,0,0,0,0,0,0,0,0,0,0,0,0,0,0,0,0,0,0,0,0,0,0,0,0,0,0,0,0,0,0,0,0,0,0,0,0,0,0,0,0,
0,0,0,0,0,0,0,0,0,0,0,0,0,0,0,0,0,0,0,0,0,0,0,0,0,0,0,0,0,0,0,0,0,0,0,0,0,0,0,0,0,0,0,0,0,0,0,0,0,0,0,0,0,0,0,0,0,0,0,0,0,0,0,0,0,0,0,0,0,0,0,0,0,0,0,0,0,0,0,0,0,0,0,0,0,0,0,0,0,0,0,0,0,0,0,0,0,0,0,0,0,0,0,0,0,0,0,0,0,0,0,0,0,0,0,0,0,0,0,0,0,0,0,0,0,0,0,0,
0,0,0,0,0,0,0,0,0,0,0,0,0,0,0,0,0,0,0,0,0,0,0,0,0,0,0,0,0,0,0,0,0,0,0,0,0,0,0,0,0,0,0,0,0,0,0,0,0,0,0,0,0,0,0,0,0,0,0,0,0,0,0,0,0,0,0,0,0,0,0,0,0,0,0,0,0,0,0,0,0,0,0,0,0,0,0,0,0,0,0,0,0,0,0,0,0,0,0,0,0,0,0,0,0,0,0,0,0,0,0,0,0,0,0,0,0,0,0,0,0,0,0,0,0,0,0,0,
0,0,0,0,0,0,0,0,0,0,0,0,0,0,0,0,0,0,0,0,0,0,0,0,0,0,0,0,0,0,0,0,0,0,0,0,0,0,0,0,0,0,0,0,0,0,0,0,0,0,0,0,0,0,0,0,0,0,0,0,0,0,0,0,0,0,0,0,0,0,0,0,0,0,0,0,0,0,0,0,0,0,0,0,0,0,0,0,0,0,0,0,0,0,0,0,0,0,0,0,0,0,0,0,0,0,0,0,0,0,0,0,0,0,0,0,0,0,0,0,0,0,0,0,0,0,0,0,
0,0,0,0,0,0,0,0,0,0,0,0,0,0,0,0,0,0,0,0,0,0,0,0,0,0,0,0,0,0,0,0,0,0,0,0,0,0,0,0,0,0,0,0,0,0,0,0,0,0,0,0,0,0,0,0,0,0,0,0,0,0,0,0,0,0,0,0,0,0,0,0,0,0,0,0,0,0,0,0,0,0,0,0,0,0,0,0,0,0,0,0,0,0,0,0,0,0,0,0,0,0,0,0,0,0,0,0,0,0,0,0,0,0,0,0,0,0,0,0,0,0,0,0,0,0,0,0,
0,0,0,0,0,0,0,0,0,0,0,0,0,0,0,0,0,0,0,0,0,0,0,0,0,0,0,0,0,0,0,0,0,0,0,0,0,0,0,0,0,0,0,0,0,0,0,0,0,0,0,0,0,0,0,0,0,0,0,0,0,0,0,0,0,0,0,0,0,0,0,0,0,0,0,0,0,0,0,0,0,0,0,0,0,0,0,0,0,0,0,0,0,0,0,0,0,0,0,0,0,0,0,0,0,0,0,0,0,0,0,0,0,0,0,0,0,0,0,0,0,0,0,0,0,0,0,0,
0,0,0,0,0,0,0,0,0,0,0,0,0,0,0,0,0,0,0,0,0,0,0,0,0,0,0,0,0,0,0,0,0,0,0,0,0,0,0,0,0,0,0,0,0,0,0,0,0,0,0,0,0,0,0,0,0,0,0,0,0,0,0,0,0,0,0,0,0,0,0,0,0,0,0,0,0,0,0,0,0,0,0,0,0,0,0,0,0,0,0,0,0,0,0,0,0,0,0,0,0,0,0,0,0,0,0,0,0,0,0,0,0,0,0,0,0,0,0,0,0,0,0,0,0,0,0,0,
0,0,0,0,0,0,0,0,0,0,0,0,0,0,0,0,0,0,0,0,0,0,0,0,0,0,0,0,0,0,0,0,0,0,0,0,0,0,0,0,0,0,0,0,0,0,0,0,0,0,0,0,0,0,0,0,0,0,0,0,0,0,0,0,0,0,0,0,0,0,0,0,0,0,0,0,0,0,0,0,0,0,0,0,0,0,0,0,0,0,0,0,0,0,0,0,0,0,0,0,0,0,0,0,0,0,0,0,0,0,0,0,0,0,0,0,0,0,0,0,0,0,0,0,0,0,0,0,
0,0,0,0,0,0,0,0,0,0,0,0,0,0,0,0,0,0,0,0,0,0,0,0,0,0,0,0,0,0,0,0,0,0,0,0,0,0,0,0,0,0,0,0,0,0,0,0,0,0,0,0,0,0,0,0,0,0,0,0,0,0,0,0,0,0,0,0,0,0,0,0,0,0,0,0,0,0,0,0,0,0,0,0,0,0,0,0,0,0,0,0,0,0,0,0,0,0,0,0,0,0,0,0,0,0,0,0,0,0,0,0,0,0,0,0,0,0,0,0,0,0,0,0,0,0,0,0,
0,0,0,0,0,0,0,0,0,0,0,0,0,0,0,0,0,0,0,0,0,0,0,0,0,0,0,0,0,0,0,0,0,0,0,0,0,0,0,0,0,0,0,0,0,0,0,0,0,0,0,0,0,0,0,0,0,0,0,0,0,0,0,0,0,0,0,0,0,0,0,0,0,0,0,0,0,0,0,0,0,0,0,0,0,0,0,0,0,0,0,0,0,0,0,0,0,0,0,0,0,0,0,0,0,0,0,0,0,0,0,0,0,0,0,0,0,0,0,0,0,0,0,0,0,0,0,0,
0,0,0,0,0,0,0,0,0,0,0,0,0,0,0,0,0,0,0,0,0,0,0,0,0,0,0,0,0,0,0,0,0,0,0,0,0,0,0,0,0,0,0,0,0,0,0,0,0,0,0,0,0,0,0,0,0,0,0,0,0,0,0,0,0,0,0,0,0,0,0,0,0,0,0,0,0,0,0,0,0,0,0,0,0,0,0,0,0,0,0,0,0,0,0,0,0,0,0,0,0,0,0,0,0,0,0,0,0,0,0,0,0,0,0,0,0,0,0,0,0,0,0,0,0,0,0,0,
0,0,0,0,0,0,0,0,0,0,0,0,0,0,0,0,0,0,0,0,0,0,0,0,0,0,0,0,0,0,0,0,0,0,0,0,0,0,0,0,0,0,0,0,0,0,0,0,0,0,0,0,0,0,0,0,0,0,0,0,0,0,0,0,0,0,0,0,0,0,0,0,0,0,0,0,0,0,0,0,0,0,0,0,0,0,0,0,0,0,0,0,0,0,0,0,0,0,0,0,0,0,0,0,0,0,0,0,0,0,0,0,0,0,0,0,0,0,0,0,0,0,0,0,0,0,0,0,
0,0,0,0,0,0,0,0,0,0,0,0,0,0,0,0,0,0,0,0,0,0,0,0,0,0,0,0,0,0,0,0,0,0,0,0,0,0,0,0,0,0,0,0,0,0,0,0,0,0,0,0,0,0,0,0,0,0,0,0,0,0,0,0,0,0,0,0,0,0,0,0,0,0,0,0,0,0,0,0,0,0,0,0,0,0,0,0,0,0,0,0,0,0,0,0,0,0,0,0,0,0,0,0,0,0,0,0,0,0,0,0,0,0,0,0,0,0,0,0,0,0,0,0,0,0,0,0,
0,0,0,0,0,0,0,0,0,0,0,0,0,0,0,0,0,0,0,0,0,0,0,0,0,0,0,0,0,0,0,0,0,0,0,0,0,0,0,0,0,0,0,0,0,0,0,0,0,0,0,0,0,0,0,0,0,0,0,0,0,0,0,0,0,0,0,0,0,0,0,0,0,0,0,0,0,0,0,0,0,0,0,0,0,0,0,0,0,0,0,0,0,0,0,0,0,0,0,0,0,0,0,0,0,0,0,0,0,0,0,0,0,0,0,0,0,0,0,0,0,0,0,0,0,0,0,0,
0,0,0,0,0,0,0,0,0,0,0,0,0,0,0,0,0,0,0,0,0,0,0,0,0,0,0,0,0,0,0,0,0,0,0,0,0,0,0,0,0,0,0,0,0,0,0,0,0,0,0,0,0,0,0,0,0,0,0,0,0,0,0,0,0,0,0,0,0,0,0,0,0,0,0,0,0,0,0,0,0,0,0,0,0,0,0,0,0,0,0,0,0,0,0,0,0,0,0,0,0,0,0,0,0,0,0,0,0,0,0,0,0,0,0,0,0,0,0,0,0,0,0,0,0,0,0,0,
0,0,0,0,0,0,0,0,0,0,0,0,0,0,0,0,0,0,0,0,0,0,0,0,0,0,0,0,0,0,0,0,0,0,0,0,0,0,0,0,0,0,0,0,0,0,0,0,0,0,0,0,0,0,0,0,0,0,0,0,0,0,0,0,0,0,0,0,0,0,0,0,0,0,0,0,0,0,0,0,0,0,0,0,0,0,0,0,0,0,0,0,0,0,0,0,0,0,0,0,0,0,0,0,0,0,0,0,0,0,0,0,0,0,0,0,0,0,0,0,0,0,0,0,0,0,0,0,
0,0,0,0,0,0,0,0,0,0,0,0,0,0,0,0,0,0,0,0,0,0,0,0,0,0,0,0,0,0,0,0,0,0,0,0,0,0,0,0,0,0,0,0,0,0,0,0,0,0,0,0,0,0,0,0,0,0,0,0,0,0,0,0,0,0,0,0,0,0,0,0,0,0,0,0,0,0,0,0,0,0,0,0,0,0,0,0,0,0,0,0,0,0,0,0,0,0,0,0,0,0,0,0,0,0,0,0,0,0,0,0,0,0,0,0,0,0,0,0,0,0,0,0,0,0,0,0,
0,0,0,0,0,0,0,0,0,0,0,0,0,0,0,0,0,0,0,0,0,0,0,0,0,0,0,0,0,0,0,0,0,0,0,0,0,0,0,0,0,0,0,0,0,0,0,0,0,0,0,0,0,0,0,0,0,0,0,0,0,0,0,0,0,0,0,0,0,0,0,0,0,0,0,0,0,0,0,0,0,0,0,0,0,0,0,0,0,0,0,0,0,0,0,0,0,0,0,0,0,0,0,0,0,0,0,0,0,0,0,0,0,0,0,0,0,0,0,0,0,0,0,0,0,0,0,0,
0,0,0,0,0,0,0,0,0,0,0,0,0,0,0,0,0,0,0,0,0,0,0,0,0,0,0,0,0,0,0,0,0,0,0,0,0,0,0,0,0,0,0,0,0,0,0,0,0,0,0,0,0,0,0,0,0,0,0,0,0,0,0,0,0,0,0,0,0,0,0,0,0,0,0,0,0,0,0,0,0,0,0,0,0,0,0,0,0,0,0,0,0,0,0,0,0,0,0,0,0,0,0,0,0,0,0,0,0,0,0,0,0,0,0,0,0,0,0,0,0,0,0,0,0,0,0,0,
0,0,0,0,0,0,0,0,0,0,0,0,0,0,0,0,0,0,0,0,0,0,0,0,0,0,0,0,0,0,0,0,0,0,0,0,0,0,0,0,0,0,0,0,0,0,0,0,0,0,0,0,0,0,0,0,0,0,0,0,0,0,0,0,0,0,0,0,0,0,0,0,0,0,0,0,0,0,0,0,0,0,0,0,0,0,0,0,0,0,0,0,0,0,0,0,0,0,0,0,0,0,0,0,0,0,0,0,0,0,0,0,0,0,0,0,0,0,0,0,0,0,0,0,0,0,0,0,
0,0,0,0,0,0,0,0,0,0,0,0,0,0,0,0,0,0,0,0,0,0,0,0,0,0,0,0,0,0,0,0,0,0,0,0,0,0,0,0,0,0,0,0,0,0,0,0,0,0,0,0,0,0,0,0,0,0,0,0,0,0,0,0,0,0,0,0,0,0,0,0,0,0,0,0,0,0,0,0,0,0,0,0,0,0,0,0,0,0,0,0,0,0,0,0,0,0,0,0,0,0,0,0,0,0,0,0,0,0,0,0,0,0,0,0,0,0,0,0,0,0,0,0,0,0,0,0,
0,0,0,0,0,0,0,0,0,0,0,0,0,0,0,0,0,0,0,0,0,0,0,0,0,0,0,0,0,0,0,0,0,0,0,0,0,0,0,0,0,0,0,0,0,0,0,0,0,0,0,0,0,0,0,0,0,0,0,0,0,0,0,0,0,0,0,0,0,0,0,0,0,0,0,0,0,0,0,0,0,0,0,0,0,0,0,0,0,0,0,0,0,0,0,0,0,0,0,0,0,0,0,0,0,0,0,0,0,0,0,0,0,0,0,0,0,0,0,0,0,0,0,0,0,0,0,0,
0,0,0,0,0,0,0,0,0,0,0,0,0,0,0,0,0,0,0,0,0,0,0,0,0,0,0,0,0,0,0,0,0,0,0,0,0,0,0,0,0,0,0,0,0,0,0,0,0,0,0,0,0,0,0,0,0,0,0,0,0,0,0,0,0,0,0,0,0,0,0,0,0,0,0,0,0,0,0,0,0,0,0,0,0,0,0,0,0,0,0,0,0,0,0,0,0,0,0,0,0,0,0,0,0,0,0,0,0,0,0,0,0,0,0,0,0,0,0,0,0,0,0,0,0,0,0,0,
0,0,0,0,0,0,0,0,0,0,0,0,0,0,0,0,0,0,0,0,0,0,0,0,0,0,0,0,0,0,0,0,0,0,0,0,0,0,0,0,0,0,0,0,0,0,0,0,0,0,0,0,0,0,0,0,0,0,0,0,0,0,0,0,0,0,0,0,0,0,0,0,0,0,0,0,0,0,0,0,0,0,0,0,0,0,0,0,0,0,0,0,0,0,0,0,0,0,0,0,0,0,0,0,0,0,0,0,0,0,0,0,0,0,0,0,0,0,0,0,0,0,0,0,0,0,0,0,
0,0,0,0,0,0,0,0,0,0,0,0,0,0,0,0,0,0,0,0,0,0,0,0,0,0,0,0,0,0,0,0,0,0,0,0,0,0,0,0,0,0,0,0,0,0,0,0,0,0,0,0,0,0,0,0,0,0,0,0,0,0,0,0,0,0,0,0,0,0,0,0,0,0,0,0,0,0,0,0,0,0,0,0,0,0,0,0,0,0,0,0,0,0,0,0,0,0,0,0,0,0,0,0,0,0,0,0,0,0,0,0,0,0,0,0,0,0,0,0,0,0,0,0,0,0,0,0,
0,0,0,0,0,0,0,0,0,0,0,0,0,0,0,0,0,0,0,0,0,0,0,0,0,0,0,0,0,0,0,0,0,0,0,0,0,0,0,0,0,0,0,0,0,0,0,0,0,0,0,0,0,0,0,0,0,0,0,0,0,0,0,0,0,0,0,0,0,0,0,0,0,0,0,0,0,0,0,0,0,0,0,0,0,0,0,0,0,0,0,0,0,0,0,0,0,0,0,0,0,0,0,0,0,0,0,0,0,0,0,0,0,0,0,0,0,0,0,0,0,0,0,0,0,0,0,0,
0,0,0,0,0,0,0,0,0,0,0,0,0,0,0,0,0,0,0,0,0,0,0,0,0,0,0,0,0,0,0,0,0,0,0,0,0,0,0,0,0,0,0,0,0,0,0,0,0,0,0,0,0,0,0,0,0,0,0,0,0,0,0,0,0,0,0,0,0,0,0,0,0,0,0,0,0,0,0,0,0,0,0,0,0,0,0,0,0,0,0,0,0,0,0,0,0,0,0,0,0,0,0,0,0,0,0,0,0,0,0,0,0,0,0,0,0,0,0,0,0,0,0,0,0,0,0,0,
0,0,0,0,0,0,0,0,0,0,0,0,0,0,0,0,0,0,0,0,0,0,0,0,0,0,0,0,0,0,0,0,0,0,0,0,0,0,0,0,0,0,0,0,0,0,0,0,0,0,0,0,0,0,0,0,0,0,0,0,0,0,0,0,0,0,0,0,0,0,0,0,0,0,0,0,0,0,0,0,0,0,0,0,0,0,0,0,0,0,0,0,0,0,0,0,0,0,0,0,0,0,0,0,0,0,0,0,0,0,0,0,0,0,0,0,0,0,0,0,0,0,0,0,0,0,0,0,
0,0,0,0,0,0,0,0,0,0,0,0,0,0,0,0,0,0,0,0,0,0,0,0,0,0,0,0,0,0,0,0,0,0,0,0,0,0,0,0,0,0,0,0,0,0,0,0,0,0,0,0,0,0,0,0,0,0,0,0,0,0,0,0,0,0,0,0,0,0,0,0,0,0,0,0,0,0,0,0,0,0,0,0,0,0,0,0,0,0,0,0,0,0,0,0,0,0,0,0,0,0,0,0,0,0,0,0,0,0,0,0,0,0,0,0,0,0,0,0,0,0,0,0,0,0,0,0,
0,0,0,0,0,0,0,0,0,0,0,0,0,0,0,0,0,0,0,0,0,0,0,0,0,0,0,0,0,0,0,0,0,0,0,0,0,0,0,0,0,0,0,0,0,0,0,0,0,0,0,0,0,0,0,0,0,0,0,0,0,0,0,0,0,0,0,0,0,0,0,0,0,0,0,0,0,0,0,0,0,0,0,0,0,0,0,0,0,0,0,0,0,0,0,0,0,0,0,0,0,0,0,0,0,0,0,0,0,0,0,0,0,0,0,0,0,0,0,0,0,0,0,0,0,0,0,0,
0,0,0,0,0,0,0,0,0,0,0,0,0,0,0,0,0,0,0,0,0,0,0,0,0,0,0,0,0,0,0,0,0,0,0,0,0,0,0,0,0,0,0,0,0,0,0,0,0,0,0,0,0,0,0,0,0,0,0,0,0,0,0,0,0,0,0,0,0,0,0,0,0,0,0,0,0,0,0,0,0,0,0,0,0,0,0,0,0,0,0,0,0,0,0,0,0,0,0,0,0,0,0,0,0,0,0,0,0,0,0,0,0,0,0,0,0,0,0,0,0,0,0,0,0,0,0,0,
0,0,0,0,0,0,0,0,0,0,0,0,0,0,0,0,0,0,0,0,0,0,0,0,0,0,0,0,0,0,0,0,0,0,0,0,0,0,0,0,0,0,0,0,0,0,0,0,0,0,0,0,0,0,0,0,0,0,0,0,0,0,0,0,0,0,0,0,0,0,0,0,0,0,0,0,0,0,0,0,0,0,0,0,0,0,0,0,0,0,0,0,0,0,0,0,0,0,0,0,0,0,0,0,0,0,0,0,0,0,0,0,0,0,0,0,0,0,0,0,0,0,0,0,0,0,0,0,
0,0,0,0,0,0,0,0,0,0,0,0,0,0,0,0,0,0,0,0,0,0,0,0,0,0,0,0,0,0,0,0,0,0,0,0,0,0,0,0,0,0,0,0,0,0,0,0,0,0,0,0,0,0,0,0,0,0,0,0,0,0,0,0,0,0,0,0,0,0,0,0,0,0,0,0,0,0,0,0,0,0,0,0,0,0,0,0,0,0,0,0,0,0,0,0,0,0,0,0,0,0,0,0,0,0,0,0,0,0,0,0,0,0,0,0,0,0,0,0,0,0,0,0,0,0,0,0,
0,0,0,0,0,0,0,0,0,0,0,0,0,0,0,0,0,0,0,0,0,0,0,0,0,0,0,0,0,0,0,0,0,0,0,0,0,0,0,0,0,0,0,0,0,0,0,0,0,0,0,0,0,0,0,0,0,0,0,0,0,0,0,0,0,0,0,0,0,0,0,0,0,0,0,0,0,0,0,0,0,0,0,0,0,0,0,0,0,0,0,0,0,0,0,0,0,0,0,0,0,0,0,0,0,0,0,0,0,0,0,0,0,0,0,0,0,0,0,0,0,0,0,0,0,0,0,0,
0,0,0,0,0,0,0,0,0,0,0,0,0,0,0,0,0,0,0,0,0,0,0,0,0,0,0,0,0,0,0,0,0,0,0,0,0,0,0,0,0,0,0,0,0,0,0,0,0,0,0,0,0,0,0,0,0,0,0,0,0,0,0,0,0,0,0,0,0,0,0,0,0,0,0,0,0,0,0,0,0,0,0,0,0,0,0,0,0,0,0,0,0,0,0,0,0,0,0,0,0,0,0,0,0,0,0,0,0,0,0,0,0,0,0,0,0,0,0,0,0,0,0,0,0,0,0,0,
0,0,0,0,0,0,0,0,0,0,0,0,0,0,0,0,0,0,0,0,0,0,0,0,0,0,0,0,0,0,0,0,0,0,0,0,0,0,0,0,0,0,0,0,0,0,0,0,0,0,0,0,0,0,0,0,0,0,0,0,0,0,0,0,0,0,0,0,0,0,0,0,0,0,0,0,0,0,0,0,0,0,0,0,0,0,0,0,0,0,0,0,0,0,0,0,0,0,0,0,0,0,0,0,0,0,0,0,0,0,0,0,0,0,0,0,0,0,0,0,0,0,0,0,0,0,0,0,
0,0,0,0,0,0,0,0,0,0,0,0,0,0,0,0,0,0,0,0,0,0,0,0,0,0,0,0,0,0,0,0,0,0,0,0,0,0,0,0,0,0,0,0,0,0,0,0,0,0,0,0,0,0,0,0,0,0,0,0,0,0,0,0,0,0,0,0,0,0,0,0,0,0,0,0,0,0,0,0,0,0,0,0,0,0,0,0,0,0,0,0,0,0,0,0,0,0,0,0,0,0,0,0,0,0,0,0,0,0,0,0,0,0,0,0,0,0,0,0,0,0,0,0,0,0,0,0,
0,0,0,0,0,0,0,0,0,0,0,0,0,0,0,0,0,0,0,0,0,0,0,0,0,0,0,0,0,0,0,0,0,0,0,0,0,0,0,0,0,0,0,0,0,0,0,0,0,0,0,0,0,0,0,0,0,0,0,0,0,0,0,0,0,0,0,0,0,0,0,0,0,0,0,0,0,0,0,0,0,0,0,0,0,0,0,0,0,0,0,0,0,0,0,0,0,0,0,0,0,0,0,0,0,0,0,0,0,0,0,0,0,0,0,0,0,0,0,0,0,0,0,0,0,0,0,0,
0,0,0,0,0,0,0,0,0,0,0,0,0,0,0,0,0,0,0,0,0,0,0,0,0,0,0,0,0,0,0,0,0,0,0,0,0,0,0,0,0,0,0,0,0,0,0,0,0,0,0,0,0,0,0,0,0,0,0,0,0,0,0,0,0,0,0,0,0,0,0,0,0,0,0,0,0,0,0,0,0,0,0,0,0,0,0,0,0,0,0,0,0,0,0,0,0,0,0,0,0,0,0,0,0,0,0,0,0,0,0,0,0,0,0,0,0,0,0,0,0,0,0,0,0,0,0,0,
0,0,0,0,0,0,0,0,0,0,0,0,0,0,0,0,0,0,0,0,0,0,0,0,0,0,0,0,0,0,0,0,0,0,0,0,0,0,0,0,0,0,0,0,0,0,0,0,0,0,0,0,0,0,0,0,0,0,0,0,0,0,0,0,0,0,0,0,0,0,0,0,0,0,0,0,0,0,0,0,0,0,0,0,0,0,0,0,0,0,0,0,0,0,0,0,0,0,0,0,0,0,0,0,0,0,0,0,0,0,0,0,0,0,0,0,0,0,0,0,0,0,0,0,0,0,0,0,
0,0,0,0,0,0,0,0,0,0,0,0,0,0,0,0,0,0,0,0,0,0,0,0,0,0,0,0,0,0,0,0,0,0,0,0,0,0,0,0,0,0,0,0,0,0,0,0,0,0,0,0,0,0,0,0,0,0,0,0,0,0,0,0,0,0,0,0,0,0,0,0,0,0,0,0,0,0,0,0,0,0,0,0,0,0,0,0,0,0,0,0,0,0,0,0,0,0,0,0,0,0,0,0,0,0,0,0,0,0,0,0,0,0,0,0,0,0,0,0,0,0,0,0,0,0,0,0,
0,0,0,0,0,0,0,0,0,0,0,0,0,0,0,0,0,0,0,0,0,0,0,0,0,0,0,0,0,0,0,0,0,0,0,0,0,0,0,0,0,0,0,0,0,0,0,0,0,0,0,0,0,0,0,0,0,0,0,0,0,0,0,0,0,0,0,0,0,0,0,0,0,0,0,0,0,0,0,0,0,0,0,0,0,0,0,0,0,0,0,0,0,0,0,0,0,0,0,0,0,0,0,0,0,0,0,0,0,0,0,0,0,0,0,0,0,0,0,0,0,0,0,0,0,0,0,0,
0,0,0,0,0,0,0,0,0,0,0,0,0,0,0,0,0,0,0,0,0,0,0,0,0,0,0,0,0,0,0,0,0,0,0,0,0,0,0,0,0,0,0,0,0,0,0,0,0,0,0,0,0,0,0,0,0,0,0,0,0,0,0,0,0,0,0,0,0,0,0,0,0,0,0,0,0,0,0,0,0,0,0,0,0,0,0,0,0,0,0,0,0,0,0,0,0,0,0,0,0,0,0,0,0,0,0,0,0,0,0,0,0,0,0,0,0,0,0,0,0,0,0,0,0,0,0,0,
0,0,0,0,0,0,0,0,0,0,0,0,0,0,0,0,0,0,0,0,0,0,0,0,0,0,0,0,0,0,0,0,0,0,0,0,0,0,0,0,0,0,0,0,0,0,0,0,0,0,0,0,0,0,0,0,0,0,0,0,0,0,0,0,0,0,0,0,0,0,0,0,0,0,0,0,0,0,0,0,0,0,0,0,0,0,0,0,0,0,0,0,0,0,0,0,0,0,0,0,0,0,0,0,0,0,0,0,0,0,0,0,0,0,0,0,0,0,0,0,0,0,0,0,0,0,0,0,
0,0,0,0,0,0,0,0,0,0,0,0,0,0,0,0,0,0,0,0,0,0,0,0,0,0,0,0,0,0,0,0,0,0,0,0,0,0,0,0,0,0,0,0,0,0,0,0,0,0,0,0,0,0,0,0,0,0,0,0,0,0,0,0,0,0,0,0,0,0,0,0,0,0,0,0,0,0,0,0,0,0,0,0,0,0,0,0,0,0,0,0,0,0,0,0,0,0,0,0,0,0,0,0,0,0,0,0,0,0,0,0,0,0,0,0,0,0,0,0,0,0,0,0,0,0,0,0,
0,0,0,0,0,0,0,0,0,0,0,0,0,0,0,0,0,0,0,0,0,0,0,0,0,0,0,0,0,0,0,0,0,0,0,0,0,0,0,0,0,0,0,0,0,0,0,0,0,0,0,0,0,0,0,0,0,0,0,0,0,0,0,0,0,0,0,0,0,0,0,0,0,0,0,0,0,0,0,0,0,0,0,0,0,0,0,0,0,0,0,0,0,0,0,0,0,0,0,0,0,0,0,0,0,0,0,0,0,0,0,0,0,0,0,0,0,0,0,0,0,0,0,0,0,0,0,0,
0,0,0,0,0,0,0,0,0,0,0,0,0,0,0,0,0,0,0,0,0,0,0,0,0,0,0,0,0,0,0,0,0,0,0,0,0,0,0,0,0,0,0,0,0,0,0,0,0,0,0,0,0,0,0,0,0,0,0,0,0,0,0,0,0,0,0,0,0,0,0,0,0,0,0,0,0,0,0,0,0,0,0,0,0,0,0,0,0,0,0,0,0,0,0,0,0,0,0,0,0,0,0,0,0,0,0,0,0,0,0,0,0,0,0,0,0,0,0,0,0,0,0,0,0,0,0,0,
0,0,0,0,0,0,0,0,0,0,0,0,0,0,0,0,0,0,0,0,0,0,0,0,0,0,0,0,0,0,0,0,0,0,0,0,0,0,0,0,0,0,0,0,0,0,0,0,0,0,0,0,0,0,0,0,0,0,0,0,0,0,0,0,0,0,0,0,0,0,0,0,0,0,0,0,0,0,0,0,0,0,0,0,0,0,0,0,0,0,0,0,0,0,0,0,0,0,0,0,0,0,0,0,0,0,0,0,0,0,0,0,0,0,0,0,0,0,0,0,0,0,0,0,0,0,0,0,
0,0,0,0,0,0,0,0,0,0,0,0,0,0,0,0,0,0,0,0,0,0,0,0,0,0,0,0,0,0,0,0,0,0,0,0,0,0,0,0,0,0,0,0,0,0,0,0,0,0,0,0,0,0,0,0,0,0,0,0,0,0,0,0,0,0,0,0,0,0,0,0,0,0,0,0,0,0,0,0,0,0,0,0,0,0,0,0,0,0,0,0,0,0,0,0,0,0,0,0,0,0,0,0,0,0,0,0,0,0,0,0,0,0,0,0,0,0,0,0,0,0,0,0,0,0,0,0,
0,0,0,0,0,0,0,0,0,0,0,0,0,0,0,0,0,0,0,0,0,0,0,0,0,0,0,0,0,0,0,0,0,0,0,0,0,0,0,0,0,0,0,0,0,0,0,0,0,0,0,0,0,0,0,0,0,0,0,0,0,0,0,0,0,0,0,0,0,0,0,0,0,0,0,0,0,0,0,0,0,0,0,0,0,0,0,0,0,0,0,0,0,0,0,0,0,0,0,0,0,0,0,0,0,0,0,0,0,0,0,0,0,0,0,0,0,0,0,0,0,0,0,0,0,0,0,0,
0,0,0,0,0,0,0,0,0,0,0,0,0,0,0,0,0,0,0,0,0,0,0,0,0,0,0,0,0,0,0,0,0,0,0,0,0,0,0,0,0,0,0,0,0,0,0,0,0,0,0,0,0,0,0,0,0,0,0,0,0,0,0,0,0,0,0,0,0,0,0,0,0,0,0,0,0,0,0,0,0,0,0,0,0,0,0,0,0,0,0,0,0,0,0,0,0,0,0,0,0,0,0,0,0,0,0,0,0,0,0,0,0,0,0,0,0,0,0,0,0,0,0,0,0,0,0,0,
0,0,0,0,0,0,0,0,0,0,0,0,0,0,0,0,0,0,0,0,0,0,0,0,0,0,0,0,0,0,0,0,0,0,0,0,0,0,0,0,0,0,0,0,0,0,0,0,0,0,0,0,0,0,0,0,0,0,0,0,0,0,0,0,0,0,0,0,0,0,0,0,0,0,0,0,0,0,0,0,0,0,0,0,0,0,0,0,0,0,0,0,0,0,0,0,0,0,0,0,0,0,0,0,0,0,0,0,0,0,0,0,0,0,0,0,0,0,0,0,0,0,0,0,0,0,0,0,
0,0,0,0,0,0,0,0,0,0,0,0,0,0,0,0,0,0,0,0,0,0,0,0,0,0,0,0,0,0,0,0,0,0,0,0,0,0,0,0,0,0,0,0,0,0,0,0,0,0,0,0,0,0,0,0,0,0,0,0,0,0,0,0,0,0,0,0,0,0,0,0,0,0,0,0,0,0,0,0,0,0,0,0,0,0,0,0,0,0,0,0,0,0,0,0,0,0,0,0,0,0,0,0,0,0,0,0,0,0,0,0,0,0,0,0,0,0,0,0,0,0,0,0,0,0,0,0,
0,0,0,0,0,0,0,0,0,0,0,0,0,0,0,0,0,0,0,0,0,0,0,0,0,0,0,0,0,0,0,0,0,0,0,0,0,0,0,0,0,0,0,0,0,0,0,0,0,0,0,0,0,0,0,0,0,0,0,0,0,0,0,0,0,0,0,0,0,0,0,0,0,0,0,0,0,0,0,0,0,0,0,0,0,0,0,0,0,0,0,0,0,0,0,0,0,0,0,0,0,0,0,0,0,0,0,0,0,0,0,0,0,0,0,0,0,0,0,0,0,0,0,0,0,0,0,0,
0,0,0,0,0,0,0,0,0,0,0,0,0,0,0,0,0,0,0,0,0,0,0,0,0,0,0,0,0,0,0,0,0,0,0,0,0,0,0,0,0,0,0,0,0,0,0,0,0,0,0,0,0,0,0,0,0,0,0,0,0,0,0,0,0,0,0,0,0,0,0,0,0,0,0,0,0,0,0,0,0,0,0,0,0,0,0,0,0,0,0,0,0,0,0,0,0,0,0,0,0,0,0,0,0,0,0,0,0,0,0,0,0,0,0,0,0,0,0,0,0,0,0,0,0,0,0,0,
0,0,0,0,0,0,0,0,0,0,0,0,0,0,0,0,0,0,0,0,0,0,0,0,0,0,0,0,0,0,0,0,0,0,0,0,0,0,0,0,0,0,0,0,0,0,0,0,0,0,0,0,0,0,0,0,0,0,0,0,0,0,0,0,0,0,0,0,0,0,0,0,0,0,0,0,0,0,0,0,0,0,0,0,0,0,0,0,0,0,0,0,0,0,0,0,0,0,0,0,0,0,0,0,0,0,0,0,0,0,0,0,0,0,0,0,0,0,0,0,0,0,0,0,0,0,0,0,
0,0,0,0,0,0,0,0,0,0,0,0,0,0,0,0,0,0,0,0,0,0,0,0,0,0,0,0,0,0,0,0,0,0,0,0,0,0,0,0,0,0,0,0,0,0,0,0,0,0,0,0,0,0,0,0,0,0,0,0,0,0,0,0,0,0,0,0,0,0,0,0,0,0,0,0,0,0,0,0,0,0,0,0,0,0,0,0,0,0,0,0,0,0,0,0,0,0,0,0,0,0,0,0,0,0,0,0,0,0,0,0,0,0,0,0,0,0,0,0,0,0,0,0,0,0,0,0,
0,0,0,0,0,0,0,0,0,0,0,0,0,0,0,0,0,0,0,0,0,0,0,0,0,0,0,0,0,0,0,0,0,0,0,0,0,0,0,0,0,0,0,0,0,0,0,0,0,0,0,0,0,0,0,0,0,0,0,0,0,0,0,0,0,0,0,0,0,0,0,0,0,0,0,0,0,0,0,0,0,0,0,0,0,0,0,0,0,0,0,0,0,0,0,0,0,0,0,0,0,0,0,0,0,0,0,0,0,0,0,0,0,0,0,0,0,0,0,0,0,0,0,0,0,0,0,0,
0,0,0,0,0,0,0,0,0,0,0,0,0,0,0,0,0,0,0,0,0,0,0,0,0,0,0,0,0,0,0,0,0,0,0,0,0,0,0,0,0,0,0,0,0,0,0,0,0,0,0,0,0,0,0,0,0,0,0,0,0,0,0,0,0,0,0,0,0,0,0,0,0,0,0,0,0,0,0,0,0,0,0,0,0,0,0,0,0,0,0,0,0,0,0,0,0,0,0,0,0,0,0,0,0,0,0,0,0,0,0,0,0,0,0,0,0,0,0,0,0,0,0,0,0,0,0,0,
0,0,0,0,0,0,0,0,0,0,0,0,0,0,0,0,0,0,0,0,0,0,0,0,0,0,0,0,0,0,0,0,0,0,0,0,0,0,0,0,0,0,0,0,0,0,0,0,0,0,0,0,0,0,0,0,0,0,0,0,0,0,0,0,0,0,0,0,0,0,0,0,0,0,0,0,0,0,0,0,0,0,0,0,0,0,0,0,0,0,0,0,0,0,0,0,0,0,0,0,0,0,0,0,0,0,0,0,0,0,2465,2466,2467,2468,0,0,0,0,0,0,0,0,0,0,0,0,0,0,
0,0,0,0,0,0,0,0,0,0,0,0,0,0,0,0,0,0,0,0,0,0,0,0,0,0,0,0,0,0,0,0,0,0,0,0,0,0,0,0,0,0,0,0,0,0,0,0,0,0,0,0,0,0,0,0,0,0,0,0,0,0,0,0,0,0,0,0,0,0,0,0,0,0,0,0,0,0,0,0,0,0,0,0,0,0,0,0,0,0,0,0,0,0,0,0,0,0,0,0,0,0,0,0,0,0,0,0,0,0,2497,0,0,2500,0,0,0,0,0,0,0,0,0,0,0,0,0,0,
0,0,0,0,0,0,0,0,0,0,0,0,0,0,0,0,0,0,0,0,0,0,0,0,0,0,0,0,0,0,0,0,0,0,0,0,0,0,0,0,0,0,0,0,0,0,0,0,0,0,0,0,0,0,0,0,0,0,0,0,0,0,0,0,0,0,0,0,0,0,0,0,0,0,0,0,0,0,0,0,0,0,0,0,0,0,0,0,0,0,0,0,0,0,0,0,0,0,0,0,0,0,0,0,0,0,0,0,0,0,0,0,0,2532,0,0,0,0,0,0,0,0,0,0,0,0,0,0,
0,0,0,0,0,0,0,0,0,0,0,0,0,0,0,0,0,0,0,0,0,0,0,0,0,0,0,0,0,0,0,0,0,0,0,0,0,0,0,0,0,0,0,0,0,0,0,0,0,0,0,0,0,0,0,0,0,0,0,0,0,0,0,0,0,0,0,0,0,0,0,0,0,0,0,0,0,0,0,0,0,0,0,0,0,0,0,0,0,0,0,0,0,0,0,0,0,0,0,0,0,0,0,0,0,0,2465,2466,2467,2468,0,0,0,2564,0,0,0,0,0,0,0,0,0,0,0,0,0,0,
0,0,0,0,0,0,0,0,0,0,0,0,0,0,0,0,0,0,0,0,0,0,0,0,0,0,0,0,0,0,0,0,0,0,0,0,0,0,0,0,0,0,0,0,0,0,0,0,0,0,0,0,0,0,0,0,0,0,0,0,0,0,0,0,0,0,0,0,0,0,0,0,0,0,0,0,0,0,0,0,0,0,0,0,0,0,0,0,0,0,0,0,0,0,0,0,0,0,0,0,0,0,0,0,2690,2691,2497,2498,2499,2500,2690,2691,0,0,0,0,0,0,0,0,0,0,0,0,0,0,0,0,
0,0,0,0,0,0,0,0,0,0,0,0,0,0,0,0,0,0,0,0,0,0,0,0,0,0,0,0,0,0,0,0,0,0,0,0,0,0,0,0,0,0,0,0,0,0,0,0,0,0,0,0,0,0,0,0,0,0,0,0,0,0,0,0,0,0,0,0,0,0,0,0,0,0,0,0,0,0,0,0,0,0,0,0,0,0,0,0,0,0,0,0,0,0,0,0,0,0,0,0,0,0,0,0,2722,2723,2529,2530,2531,2532,2722,2723,0,0,0,0,0,0,0,0,0,0,0,0,0,0,0,0,
0,0,0,0,0,0,0,0,0,0,0,0,0,0,0,0,0,0,0,0,0,0,0,0,0,0,0,0,0,0,0,0,0,0,0,0,0,0,0,0,0,0,0,0,0,0,0,0,0,0,0,0,0,0,0,0,0,0,0,0,0,0,0,0,0,0,0,0,0,0,0,0,0,0,0,0,0,2007,2008,0,0,0,0,0,0,0,0,0,0,0,0,0,0,0,0,0,0,0,0,0,0,0,0,0,2754,2755,2561,2562,2563,2564,2754,2755,0,0,0,0,0,0,0,0,0,0,0,0,0,0,0,0,
0,0,0,0,0,0,0,0,0,0,0,0,0,0,0,0,0,0,0,0,0,0,0,0,0,0,0,0,0,0,0,0,0,0,0,0,0,0,0,0,0,0,0,0,0,0,0,0,0,0,0,0,0,0,0,0,0,0,0,0,0,0,0,0,0,0,0,0,0,0,0,0,0,0,0,0,0,2039,2040,0,0,0,0,0,0,0,0,0,0,0,0,0,0,0,0,0,0,0,0,0,0,0,0,2848,2849,0,2593,2594,2595,2596,0,2848,2849,0,0,0,0,0,0,0,0,0,0,0,0,0,0,0,
0,0,0,0,0,0,0,0,0,0,0,0,0,0,0,0,0,0,0,0,0,0,0,0,0,0,0,0,0,0,0,0,0,0,0,0,0,0,0,0,0,0,0,0,0,0,0,0,0,0,0,0,0,0,0,0,0,0,0,0,0,0,0,0,0,0,0,0,0,0,0,0,0,0,0,0,0,0,0,0,0,0,0,0,0,0,0,0,0,0,0,0,0,0,0,0,0,0,0,0,0,0,0,2880,2881,0,2625,2626,2627,2628,0,2880,2881,0,0,0,0,0,0,0,0,0,0,0,0,0,0,0,
0,0,0,0,0,0,0,0,0,0,0,0,0,0,0,0,0,0,0,0,0,0,0,0,0,0,0,0,0,0,0,0,0,0,0,0,0,0,0,0,0,0,0,0,0,0,0,0,0,0,0,0,0,0,0,0,0,0,0,0,0,0,0,0,0,0,0,0,0,0,0,0,0,0,0,0,0,0,0,0,0,0,0,0,0,0,0,0,0,0,0,0,0,0,0,0,0,0,0,0,0,0,0,2912,2913,0,0,0,0,0,0,2912,2913,0,0,0,0,0,0,0,0,0,0,0,0,0,0,0,
0,0,0,0,0,0,0,0,0,0,0,0,0,0,0,0,0,0,0,0,0,0,0,0,0,0,0,0,0,0,0,0,0,0,0,0,0,0,0,0,0,0,0,0,0,0,0,0,0,0,0,0,0,0,0,0,0,0,0,0,0,0,0,0,0,0,0,0,0,0,0,0,0,0,0,0,0,0,0,0,0,0,0,0,0,0,0,0,0,0,0,0,0,0,0,0,0,0,0,0,0,0,0,2944,2945,0,0,0,0,0,0,2944,2945,0,0,0,0,0,0,0,0,0,0,0,0,0,0,0,
0,0,0,0,0,0,0,0,0,0,0,0,0,0,0,0,0,0,0,0,0,0,0,0,0,0,0,0,0,0,0,0,0,0,0,0,0,0,0,0,0,0,0,0,0,0,0,0,0,0,0,0,0,0,0,0,0,0,0,0,0,0,0,0,0,0,0,0,0,0,0,0,0,0,0,0,0,0,0,0,0,0,0,0,0,0,0,0,0,0,0,0,0,0,0,0,0,0,0,0,0,0,0,0,0,0,0,0,0,0,0,0,0,0,0,0,0,0,0,0,0,0,0,0,0,0,0,0
</data>
 </layer>
 <layer id="6" name="Props Layer 3" width="128" height="100">
  <data encoding="csv">
0,0,0,0,0,0,0,0,0,0,0,0,0,0,0,0,0,0,0,0,0,0,0,0,0,0,0,0,0,0,0,0,0,0,0,0,0,0,0,0,0,0,0,0,0,0,0,0,0,0,0,0,0,0,0,0,0,0,0,0,0,0,0,0,0,0,0,0,0,0,0,0,0,0,0,0,0,0,0,0,0,0,0,0,0,0,0,0,0,0,0,0,0,0,0,0,0,0,0,0,0,0,0,0,0,0,0,0,0,0,0,0,0,0,0,0,0,0,0,0,0,0,0,0,0,0,0,0,
0,0,0,0,0,0,0,0,0,0,0,0,0,0,0,0,0,0,0,0,0,0,0,0,0,0,0,0,0,0,0,0,0,0,0,0,0,0,0,0,0,0,0,0,0,0,0,0,0,0,0,0,0,0,0,0,0,0,0,0,0,0,0,0,0,0,0,0,0,0,0,0,0,0,0,0,0,0,0,0,0,0,0,0,0,0,0,0,0,0,0,0,0,0,0,0,0,0,0,0,1439,1440,0,0,0,0,0,0,0,0,0,0,0,0,0,0,0,0,0,0,0,0,0,0,0,0,0,0,
0,0,0,0,0,0,0,0,0,0,0,0,0,0,0,0,0,0,0,0,0,0,0,0,0,0,0,0,0,0,0,0,0,0,0,0,0,0,0,0,0,0,0,0,0,0,0,0,0,0,0,0,0,0,0,0,0,0,0,0,0,0,0,0,0,0,0,0,0,0,0,0,0,0,0,0,0,0,0,0,0,0,0,0,0,0,0,0,0,0,0,0,0,0,0,0,0,0,0,0,1471,1472,0,0,0,0,0,0,0,0,0,0,0,0,0,0,0,0,0,0,0,0,0,0,0,0,0,0,
0,0,0,0,0,0,0,0,0,0,0,0,0,0,0,0,0,0,0,0,0,0,0,0,0,0,0,0,0,0,0,0,0,0,0,0,0,0,0,0,0,0,0,0,0,0,0,0,0,0,0,0,0,0,0,0,0,0,0,0,0,0,0,0,0,0,0,0,0,0,0,0,0,0,0,0,0,0,0,0,0,0,0,0,0,0,0,0,0,0,0,0,0,0,0,0,0,0,0,0,0,0,0,0,0,0,0,0,0,0,0,0,0,0,0,0,0,0,0,0,0,0,0,0,0,0,0,0,
0,0,0,0,0,0,0,0,0,0,0,0,0,0,0,0,0,0,0,0,0,0,0,0,0,0,0,0,0,0,0,0,0,0,0,0,0,0,0,0,0,0,0,0,0,0,0,0,0,0,0,0,0,0,0,0,0,0,0,0,0,0,0,0,0,0,0,0,0,0,0,0,0,0,0,0,0,0,0,0,0,0,0,0,0,0,0,0,0,0,0,0,0,0,0,0,0,0,0,0,0,0,0,0,0,0,0,0,0,0,0,0,0,0,0,0,0,0,0,0,0,0,0,0,0,0,0,0,
0,0,0,0,0,0,0,0,0,0,0,0,0,0,0,0,0,0,0,0,0,0,0,0,0,0,0,0,0,0,0,0,0,0,0,0,0,0,0,0,0,0,0,0,0,0,0,0,0,0,0,0,0,0,0,0,0,0,0,0,0,0,0,0,0,0,0,0,0,0,0,0,0,0,0,0,0,0,0,0,0,0,0,0,0,0,0,0,0,0,0,0,0,0,1439,1440,0,0,0,0,0,0,0,0,0,0,0,0,0,0,0,0,0,0,0,0,0,0,0,0,0,0,0,0,0,0,0,0,
0,0,0,0,0,0,0,0,0,0,0,0,0,0,0,0,0,0,0,0,0,0,0,0,0,0,0,0,0,0,0,0,0,0,0,0,0,0,0,0,0,0,0,0,0,0,0,0,0,0,0,0,0,0,0,0,0,0,0,0,0,0,0,0,0,0,0,0,0,0,0,0,0,0,0,0,0,0,0,0,0,0,0,0,0,0,0,0,0,0,0,0,0,0,1471,1472,0,0,0,0,0,0,0,0,0,1439,1440,0,0,0,0,0,0,0,0,0,0,0,0,0,0,0,0,0,0,0,0,0,
0,0,0,0,0,0,0,0,0,0,0,0,0,0,0,0,0,0,0,0,0,0,0,0,0,0,0,0,0,0,0,0,0,0,0,0,0,0,0,0,0,0,0,0,0,0,0,0,0,0,0,0,0,0,0,0,0,0,0,0,0,0,0,0,0,0,0,0,0,0,0,0,0,0,0,0,0,0,0,0,0,0,0,0,0,0,0,0,0,0,0,0,0,0,0,0,0,0,0,0,0,0,0,0,0,1471,1472,0,0,0,0,0,0,0,0,0,0,0,0,0,0,0,0,0,0,0,0,0,
0,0,0,0,0,0,0,0,0,0,0,0,0,0,0,0,0,0,0,0,0,0,0,1694,0,0,1697,1698,0,0,0,0,0,0,0,0,0,0,0,0,0,0,0,0,0,0,0,0,0,0,0,0,0,0,0,0,0,0,0,0,0,0,0,0,0,0,0,0,0,0,0,0,0,0,0,0,0,0,0,0,0,0,0,0,0,0,0,0,0,0,0,0,1439,1440,0,0,0,0,0,0,0,0,0,0,0,0,0,0,0,0,0,0,0,0,0,0,0,0,0,0,0,0,0,0,0,0,0,0,
0,0,0,0,0,0,0,0,0,0,0,0,0,0,0,0,0,0,0,0,0,0,1725,0,0,0,0,0,0,0,0,0,0,0,0,0,0,0,0,0,0,0,0,0,0,0,0,0,0,0,0,0,0,0,0,0,0,0,0,0,0,0,0,0,0,0,0,0,0,0,0,0,0,0,0,0,0,0,0,0,0,0,0,0,0,0,0,0,0,0,0,0,1471,1472,0,0,0,0,0,0,0,0,0,0,0,0,0,0,0,0,0,0,0,0,0,0,0,0,0,0,0,0,0,0,0,0,0,0,
0,0,0,0,0,0,0,0,0,0,0,0,0,0,0,0,0,0,0,0,0,0,0,0,0,0,0,0,0,0,0,0,0,0,0,0,0,0,0,0,0,0,0,0,0,0,0,0,0,0,0,0,0,0,0,0,0,0,0,0,0,0,0,0,0,0,0,0,0,0,0,0,0,0,0,0,0,0,0,0,0,0,0,0,0,0,0,0,0,0,0,0,0,0,0,0,0,0,0,0,0,0,0,0,0,0,0,0,0,0,0,0,0,0,0,0,0,0,0,0,0,0,0,0,0,0,0,0,
0,0,0,0,0,0,0,0,0,0,0,0,0,0,0,0,0,0,0,0,0,0,0,0,0,0,0,0,0,0,0,0,0,0,0,0,0,0,0,0,0,0,0,0,0,0,0,0,0,0,0,0,0,0,0,0,0,0,0,0,0,0,0,0,0,0,0,0,0,0,0,0,0,0,0,0,0,0,0,0,0,0,0,0,0,0,0,0,0,0,0,0,0,0,0,0,0,0,0,0,0,0,0,0,0,0,0,0,0,0,0,0,0,0,0,0,0,0,0,0,0,0,0,0,0,0,0,0,
0,0,0,0,0,0,0,0,0,0,0,0,0,0,0,0,0,0,0,0,0,0,0,0,0,0,0,0,0,0,0,0,0,0,0,0,0,0,0,0,0,0,0,0,0,0,0,0,0,0,0,0,0,0,0,0,0,0,0,0,0,0,0,0,0,0,0,0,0,0,0,0,0,0,0,0,0,0,0,0,0,0,0,0,0,0,0,0,0,0,0,0,0,0,0,0,0,0,0,0,0,0,0,0,0,0,0,0,0,0,0,0,0,0,0,0,0,0,0,0,0,0,0,0,0,0,0,0,
0,0,0,0,0,0,0,0,0,0,0,0,0,0,0,0,0,0,0,0,0,0,0,0,0,0,0,0,0,0,0,0,0,0,0,0,0,0,0,0,0,0,0,0,0,0,0,0,0,0,0,0,0,0,0,0,0,0,0,0,0,0,0,0,0,0,0,0,0,0,0,0,0,0,0,0,0,0,0,0,0,0,0,0,0,0,0,0,0,0,0,0,0,0,0,0,0,0,0,0,1439,1440,0,0,0,0,0,0,0,0,0,0,0,0,0,0,0,0,0,0,0,0,0,0,0,0,0,0,
0,0,0,0,0,0,0,0,0,0,0,0,0,0,0,0,0,0,0,0,0,0,0,0,0,0,0,0,0,0,0,0,0,0,0,0,0,0,0,0,0,0,0,0,0,0,0,0,0,0,0,0,0,0,0,0,0,0,0,0,0,0,0,0,0,0,0,0,0,0,0,0,0,0,0,0,0,0,0,0,0,0,0,0,0,0,0,0,0,0,0,0,0,0,0,0,0,0,0,0,1471,1472,0,0,0,0,0,0,0,0,0,0,0,0,0,0,0,0,0,0,0,0,0,0,0,0,0,0,
0,0,0,0,0,0,0,0,0,0,0,0,0,0,0,0,0,0,0,0,0,0,0,0,0,0,0,0,0,0,0,0,0,0,0,0,0,0,0,0,0,0,0,0,0,0,0,0,0,0,0,0,0,0,0,0,0,0,0,0,0,0,0,0,0,0,0,0,0,0,0,0,0,0,0,0,0,0,0,0,0,0,0,0,0,0,0,0,0,0,0,0,0,0,0,0,0,0,0,0,0,0,0,0,0,0,0,0,0,0,0,0,0,0,0,0,0,0,0,0,0,0,0,0,0,0,0,0,
0,0,0,0,0,0,0,0,0,0,0,0,0,0,0,0,0,0,0,0,0,0,0,0,0,0,0,0,0,0,0,0,0,0,0,0,0,0,0,0,0,0,0,0,0,0,0,0,0,0,0,0,0,0,0,0,0,0,0,0,0,0,0,0,0,0,0,0,0,0,0,0,0,0,0,0,0,0,0,0,0,0,0,0,0,0,0,0,0,0,0,0,0,0,0,0,0,0,0,0,0,0,0,0,0,0,0,0,0,0,0,0,0,0,0,0,0,0,0,0,0,0,0,0,0,0,0,0,
0,0,0,0,0,0,0,0,0,0,0,0,0,0,0,0,0,0,0,0,0,0,0,0,0,0,0,0,0,0,0,0,0,0,0,0,0,0,0,0,0,0,0,0,0,0,0,0,0,0,0,0,0,0,0,0,0,0,0,0,0,0,0,0,0,0,0,0,0,0,0,0,0,0,0,0,0,0,0,0,0,0,1439,1440,0,0,0,0,0,0,0,0,0,0,0,0,0,0,0,0,0,0,0,0,0,0,0,0,0,0,0,0,0,0,0,0,0,0,0,0,0,0,0,0,0,0,0,0,
0,0,0,0,0,0,0,0,0,0,0,0,0,0,0,0,0,0,0,0,0,0,0,0,0,0,0,0,0,0,0,0,0,0,0,0,0,0,0,0,0,0,0,0,0,0,0,0,0,0,0,0,0,0,0,0,0,0,0,0,0,0,0,0,0,0,0,0,0,0,0,0,0,0,0,0,0,0,0,0,0,0,1471,1472,0,0,0,0,0,0,0,0,0,0,0,0,0,0,0,1439,1440,0,0,0,0,0,0,0,0,0,0,0,0,0,0,0,0,0,0,0,0,0,0,0,0,0,0,0,
0,0,0,0,0,0,0,0,0,0,0,0,0,0,0,0,0,0,0,0,0,0,0,0,0,0,0,0,0,0,0,0,0,0,0,0,0,0,0,0,0,0,0,0,0,0,0,0,0,0,0,0,0,0,0,0,0,0,0,0,0,0,0,0,0,0,0,0,0,0,0,0,0,0,0,0,0,0,0,0,0,0,0,0,0,0,0,0,0,0,0,0,0,0,0,0,0,0,0,1471,1472,0,0,0,0,0,0,0,0,0,0,0,0,0,0,0,0,0,0,0,0,0,0,0,0,0,0,0,
0,0,0,0,0,0,0,0,0,0,0,0,0,0,0,0,0,0,0,0,0,0,0,0,0,0,0,0,0,0,0,0,0,0,0,0,0,0,0,0,0,0,0,0,0,0,0,0,0,0,0,0,0,0,0,0,0,0,0,0,0,0,0,0,0,0,0,0,0,0,0,0,0,0,0,0,0,0,0,0,0,0,0,0,0,0,0,0,0,0,0,0,0,0,1439,1440,0,0,0,0,0,0,0,0,0,0,0,0,0,0,0,0,0,0,0,0,0,0,0,0,0,0,0,0,0,0,0,0,
0,0,0,0,0,0,0,0,0,0,0,0,0,0,0,0,0,0,0,0,0,0,0,0,0,0,0,0,0,0,0,0,0,0,0,0,0,0,0,0,0,0,0,0,0,0,0,0,0,0,0,0,0,0,0,0,0,0,0,0,0,0,0,0,0,0,0,0,0,0,0,0,0,0,0,0,0,0,0,0,0,0,0,0,0,0,0,0,0,0,0,0,0,0,1471,1472,0,0,0,0,0,0,0,0,0,0,0,0,0,0,0,0,0,0,0,0,0,0,0,0,0,0,0,0,0,0,0,0,
0,0,0,0,0,0,0,0,0,0,0,0,0,0,0,0,0,0,0,0,0,0,0,0,0,0,0,0,0,0,0,0,0,0,0,0,0,0,0,0,0,0,0,0,0,0,0,0,0,0,0,0,0,0,0,0,0,0,0,0,0,0,0,0,0,0,0,0,0,0,0,0,0,0,0,0,0,0,0,0,0,0,0,0,0,0,0,0,0,0,0,0,0,0,0,0,0,0,0,0,0,0,0,0,0,0,0,0,0,0,0,0,0,0,0,0,0,0,0,0,0,0,0,0,0,0,0,0,
0,0,0,0,0,0,0,0,0,0,0,0,0,0,0,0,0,0,0,0,0,0,0,0,0,0,0,0,0,0,0,0,0,0,0,0,0,0,0,0,0,0,0,0,0,0,0,0,0,0,0,0,0,0,0,0,0,0,0,0,0,0,0,0,0,0,0,0,0,0,0,0,0,0,0,0,0,0,0,0,0,0,0,0,0,0,0,0,1439,1440,0,0,0,0,0,0,0,0,0,0,0,0,0,0,0,0,0,0,0,0,0,0,0,0,0,0,0,0,0,0,0,0,0,0,0,0,0,0,
0,0,0,0,0,0,0,0,0,0,0,0,0,0,0,0,0,0,0,0,0,0,0,0,0,0,0,0,0,0,0,0,0,0,0,0,0,0,0,0,0,0,0,0,0,0,0,0,0,0,0,0,0,0,0,0,0,0,0,0,0,0,0,0,0,0,0,0,0,0,0,0,0,0,0,0,0,0,0,0,0,0,0,0,0,0,0,0,1471,1472,0,0,0,0,0,0,0,0,0,0,0,0,0,0,0,0,0,0,0,0,0,0,0,0,0,0,0,0,0,0,0,0,0,0,0,0,0,0,
0,0,0,0,0,0,0,0,0,0,0,0,0,0,0,0,0,0,0,0,0,0,0,0,0,0,0,0,0,0,0,0,0,0,0,0,0,0,0,0,0,0,0,0,0,0,0,0,0,0,0,0,0,0,0,0,0,0,0,0,0,0,0,0,0,0,0,0,0,0,0,0,0,0,0,0,0,0,0,0,0,0,0,0,0,0,0,0,0,0,0,0,1439,1440,0,0,0,0,0,0,0,0,0,0,0,0,0,0,0,0,0,0,0,0,0,0,0,0,0,0,0,0,0,0,0,0,0,0,
0,0,0,0,0,0,0,0,0,0,0,0,0,0,0,0,0,0,0,0,0,0,0,0,0,0,0,0,0,0,0,0,0,0,0,0,0,0,0,0,0,0,0,0,0,0,0,0,0,0,0,0,0,0,0,0,0,0,0,0,0,0,0,0,0,0,0,0,0,0,0,0,0,0,0,0,0,0,0,0,0,0,0,0,0,0,0,0,0,0,0,0,1471,1472,0,0,0,0,0,0,0,0,0,0,0,0,0,0,0,0,0,0,0,0,0,0,0,0,0,0,0,0,0,0,0,0,0,0,
0,0,0,0,0,0,0,0,0,0,0,0,0,0,0,0,0,0,0,0,0,0,0,0,0,0,0,0,0,0,0,0,0,0,0,0,0,0,0,0,0,0,0,0,0,0,0,0,0,0,0,0,0,0,0,0,0,0,0,0,0,0,0,0,0,0,0,0,0,0,0,0,0,0,0,0,0,0,0,0,0,0,0,0,0,0,0,0,0,0,0,0,0,0,0,0,0,0,0,0,0,0,0,0,0,0,0,0,0,0,0,0,0,0,0,0,0,0,0,0,0,0,0,0,0,0,0,0,
0,0,0,0,0,0,0,0,0,0,0,0,0,0,0,0,0,0,0,0,0,0,0,0,0,0,0,0,0,0,0,0,0,0,0,0,0,0,0,0,0,0,0,0,0,0,0,0,0,0,0,0,0,0,0,0,0,0,0,0,0,0,0,0,0,0,0,0,0,0,0,0,0,0,0,0,0,0,0,0,0,0,0,0,0,0,0,0,0,0,0,1439,1440,0,0,0,0,0,0,0,0,0,0,0,0,0,0,0,0,0,0,0,0,0,0,0,0,0,0,0,0,0,0,0,0,0,0,0,
0,0,0,0,0,0,0,0,0,0,0,0,0,0,0,0,0,0,0,0,0,0,0,0,0,0,0,0,0,0,0,0,0,0,0,0,0,0,0,0,0,0,0,0,0,0,0,0,0,0,0,0,0,0,0,0,0,0,0,0,0,0,0,0,0,0,0,0,0,0,0,0,0,0,0,0,0,0,0,0,0,0,0,0,0,0,0,0,0,0,0,1471,1472,0,0,0,0,0,0,0,0,0,0,0,0,0,0,0,0,0,0,0,0,0,0,0,0,0,0,0,0,0,0,0,0,0,0,0,
0,0,0,0,0,0,0,0,0,0,0,0,0,0,0,0,0,0,0,0,0,0,0,0,0,0,0,0,0,0,0,0,0,0,0,0,0,0,0,0,0,0,0,0,0,0,0,0,0,0,0,0,0,0,0,0,0,0,0,0,0,0,0,0,0,0,0,0,0,0,0,0,0,0,0,0,0,0,0,0,0,0,0,0,0,0,0,0,0,0,0,0,0,0,0,0,0,0,0,0,0,0,0,0,0,0,0,0,0,0,0,0,0,0,0,0,0,0,0,0,0,0,0,0,0,0,0,0,
0,0,0,0,0,0,0,0,0,0,0,0,0,0,0,0,0,0,0,0,0,0,0,0,0,0,0,0,0,0,0,0,0,0,0,0,0,0,0,0,0,0,0,0,0,0,0,0,0,0,0,0,0,0,0,0,0,0,0,0,0,0,0,0,0,0,0,0,0,0,0,0,0,0,0,0,0,0,0,0,0,0,0,0,0,0,0,0,1439,1440,0,0,0,0,0,0,0,0,0,0,0,0,0,0,0,0,0,0,0,0,0,0,0,0,0,0,0,0,0,0,0,0,0,0,0,0,0,0,
0,0,0,0,0,0,0,0,0,0,0,0,0,0,0,0,0,0,0,0,0,0,0,0,0,0,0,0,0,0,0,0,0,0,0,0,0,0,0,0,0,0,0,0,0,0,0,0,0,0,0,0,0,0,0,0,0,0,0,0,0,0,0,0,0,0,0,0,0,0,0,0,0,0,0,0,0,0,0,0,0,0,0,0,0,0,0,0,1471,1472,0,0,0,0,0,0,0,0,0,0,0,0,0,0,0,0,0,0,0,0,0,0,0,0,0,0,0,0,0,0,0,0,0,0,0,0,0,0,
0,0,0,0,0,0,0,0,0,0,0,0,0,0,0,0,0,0,0,0,0,0,0,0,0,0,0,0,0,0,0,0,0,0,0,0,0,0,0,0,0,0,0,0,0,0,0,0,0,0,0,0,0,0,0,0,0,0,0,0,0,0,0,0,0,0,0,0,0,0,0,0,0,0,0,0,0,0,0,0,0,0,0,0,0,0,0,0,0,0,0,0,0,0,0,0,0,0,0,0,0,0,0,0,0,0,0,0,0,0,0,0,0,0,0,0,0,0,0,0,0,0,0,0,0,0,0,0,
0,0,0,0,0,0,0,0,0,0,0,0,0,0,0,0,0,0,0,0,0,0,0,0,0,0,0,0,0,0,0,0,0,0,0,0,0,0,0,0,0,0,0,0,0,0,0,0,0,0,0,0,0,0,0,0,0,0,0,0,0,0,0,0,0,0,0,0,0,0,0,0,0,0,0,0,0,0,0,0,0,0,0,0,0,0,0,0,0,0,0,0,0,0,0,0,0,0,0,0,0,0,0,0,0,0,0,0,0,0,0,0,0,0,0,0,0,0,0,0,0,0,0,0,0,0,0,0,
0,0,0,0,0,0,0,0,0,1606,0,0,0,0,0,0,0,0,0,0,0,0,0,0,0,0,0,0,0,0,0,0,0,0,0,0,0,0,0,0,0,0,0,0,0,0,0,0,0,0,0,0,0,0,0,0,0,0,0,0,0,0,0,0,0,0,0,0,0,0,0,0,0,0,0,0,0,0,0,0,0,0,0,0,0,0,0,0,0,0,0,0,0,0,0,0,0,0,0,0,0,0,0,0,0,0,0,0,0,0,0,0,0,0,0,0,0,0,0,0,0,0,0,0,0,0,0,0,
0,0,0,0,0,0,0,0,1637,0,0,0,0,0,0,0,0,0,0,0,0,0,0,0,0,0,0,0,0,0,0,0,0,0,0,0,0,0,0,0,0,0,0,0,0,0,0,0,0,0,0,0,0,0,0,0,0,0,0,0,0,0,0,0,0,0,0,0,0,0,0,0,0,0,0,0,0,0,0,0,0,0,0,0,0,0,0,0,0,0,0,0,0,0,0,0,0,0,0,0,0,0,0,0,0,0,0,0,0,0,0,0,0,0,0,0,0,0,0,0,0,0,0,0,0,0,0,0,
0,0,0,0,0,0,0,0,0,0,0,0,0,0,0,0,0,0,0,0,0,0,0,0,0,0,0,0,0,0,0,0,0,0,0,0,0,0,0,0,0,0,0,0,0,0,0,0,0,0,0,0,0,0,0,0,0,0,0,0,0,0,0,0,0,0,0,0,0,0,0,0,0,0,0,0,0,0,0,0,0,0,0,0,0,0,0,0,0,0,0,0,0,0,0,0,0,0,0,0,0,0,0,0,0,0,0,0,0,0,0,0,0,0,0,0,0,0,0,0,0,0,0,0,0,0,0,0,
0,0,0,0,0,0,0,0,0,0,0,0,0,0,0,0,0,0,0,0,0,0,0,0,0,0,0,0,0,0,0,0,0,0,0,0,0,0,0,0,0,0,0,0,0,0,0,0,0,0,0,0,0,0,0,0,0,0,0,0,0,0,0,0,0,0,0,0,0,0,0,0,0,0,0,0,0,0,0,0,0,0,0,0,0,0,0,0,0,0,0,0,0,0,0,0,0,0,0,0,0,0,0,0,0,0,0,0,0,0,0,0,0,0,0,0,0,0,0,0,0,0,0,0,0,0,0,0,
0,0,0,0,0,0,0,0,0,0,0,0,0,0,0,0,0,0,0,0,0,0,0,0,0,0,0,0,0,0,0,0,0,0,0,0,0,0,0,0,0,0,0,0,0,0,0,0,0,0,0,0,0,0,0,0,0,0,0,0,0,0,0,0,0,0,0,0,0,0,0,0,0,0,0,0,0,0,0,0,0,0,0,0,0,0,0,0,0,0,0,0,0,0,0,0,0,0,0,0,0,0,0,0,0,0,0,0,0,0,0,0,0,0,0,0,0,0,0,0,0,0,0,0,0,0,0,0,
0,0,0,0,0,0,0,0,0,0,0,0,0,0,0,0,0,0,0,0,0,0,0,0,0,0,0,0,0,0,0,0,0,0,0,0,0,0,0,0,0,0,0,0,0,0,0,0,0,0,0,0,0,0,0,0,0,0,0,0,0,0,0,0,0,0,0,0,0,0,0,0,0,0,0,0,0,0,0,0,0,0,0,0,0,0,0,0,0,0,0,0,0,0,0,0,0,0,0,0,0,0,0,0,0,0,0,0,0,0,0,0,0,0,0,0,0,0,0,0,0,0,0,0,0,0,0,0,
0,0,0,0,0,0,0,0,0,0,0,0,0,0,0,0,0,0,0,0,0,0,0,0,0,0,0,0,0,0,0,0,0,0,0,0,0,0,0,0,0,0,0,0,0,0,0,0,0,0,0,0,0,0,0,0,0,0,0,0,0,0,0,0,0,0,0,0,0,0,0,0,0,0,0,0,0,0,0,0,0,0,0,0,0,0,0,0,0,0,0,0,0,0,0,0,0,0,0,0,0,0,0,0,0,0,0,0,0,0,0,0,0,0,0,0,0,0,0,0,0,0,0,0,0,0,0,0,
0,0,0,0,0,0,0,0,0,0,0,0,0,0,0,0,0,0,0,0,0,0,0,0,0,0,0,0,0,0,0,0,0,0,0,0,0,0,0,0,0,0,0,0,0,0,0,0,0,0,0,0,0,0,0,0,0,0,0,0,0,0,0,0,0,0,0,0,0,0,0,0,0,0,0,0,0,0,0,0,0,0,0,0,0,0,0,0,0,0,0,0,0,0,0,0,0,0,0,0,0,0,0,0,0,0,0,0,0,0,0,0,0,0,0,0,0,0,0,0,0,0,0,0,0,0,0,0,
0,0,0,0,0,0,0,0,0,0,0,0,0,0,0,0,0,0,0,0,0,0,0,0,0,0,0,0,0,0,0,0,0,0,0,0,0,0,0,0,0,0,0,0,0,0,0,0,0,0,0,0,0,0,0,0,0,0,0,0,0,0,0,0,0,0,0,0,0,0,0,0,0,0,0,0,0,0,0,0,0,0,0,0,0,0,0,0,0,0,0,0,0,0,0,0,0,0,0,0,0,0,0,0,0,0,0,0,0,0,0,0,0,0,0,0,0,0,0,0,0,0,0,0,0,0,0,0,
0,0,0,0,0,0,0,0,0,0,0,0,0,0,0,0,0,0,0,0,0,0,0,0,0,0,0,0,0,0,0,0,0,0,0,0,0,0,0,0,0,0,0,0,0,0,0,0,0,0,0,0,0,0,0,0,0,0,0,0,0,0,0,0,0,0,0,0,0,0,0,0,0,0,0,0,0,0,0,0,0,0,0,0,0,0,0,0,0,0,0,0,0,0,0,0,0,0,0,0,0,0,0,0,0,0,0,0,0,0,0,0,0,0,0,0,0,0,0,0,0,0,0,0,0,0,0,0,
0,0,0,0,0,0,0,0,0,0,0,0,0,0,0,0,0,0,0,0,0,0,0,0,0,0,0,0,0,0,0,0,0,0,0,0,0,0,0,0,0,0,0,0,0,0,0,0,0,0,0,0,0,0,0,0,0,0,0,0,0,0,0,0,0,0,0,0,0,0,0,0,0,0,0,0,0,0,0,0,0,0,0,0,0,0,0,0,0,0,0,0,0,0,0,0,0,0,0,0,0,0,0,0,0,0,0,0,0,0,0,0,0,0,0,0,0,0,0,0,0,0,0,0,0,0,0,0,
0,0,0,0,0,0,0,0,0,0,0,0,0,0,0,0,0,0,0,0,0,0,0,0,0,0,0,0,0,0,0,0,0,0,0,0,0,0,0,0,0,0,0,0,0,0,0,0,0,0,0,0,0,0,0,0,0,0,0,0,0,0,0,0,0,0,0,0,0,0,0,0,0,0,0,0,0,0,0,0,0,0,0,0,0,0,0,0,0,0,0,0,0,0,0,0,0,0,0,0,0,0,0,0,0,0,0,0,0,0,0,0,0,0,0,0,0,0,0,0,0,0,0,0,0,0,0,0,
0,0,0,0,0,0,0,0,0,0,0,0,0,0,0,0,0,0,0,0,0,0,0,0,0,0,0,0,0,0,0,0,0,0,0,0,0,0,0,0,0,0,0,0,0,0,0,0,0,0,0,0,0,0,0,0,0,0,0,0,0,0,0,0,0,0,0,0,0,0,0,0,0,0,0,0,0,0,0,0,0,0,0,0,0,0,0,0,0,0,0,0,0,0,0,0,0,0,0,0,0,0,0,0,0,0,0,0,0,0,0,0,0,0,0,0,0,0,0,0,0,0,0,0,0,0,0,0,
0,0,0,0,0,0,0,0,0,0,0,0,0,0,0,0,0,0,0,0,0,0,0,0,0,0,0,0,0,0,0,0,0,0,0,0,0,0,0,0,0,0,0,0,0,0,0,0,0,0,0,0,0,0,0,0,0,0,0,0,0,0,0,0,0,0,0,0,0,0,0,0,0,0,0,0,0,0,0,0,0,0,0,0,0,0,0,0,0,0,0,0,0,0,0,0,0,0,0,0,0,0,0,0,0,0,0,0,0,0,0,0,0,0,0,0,0,0,0,0,0,0,0,0,0,0,0,0,
0,0,0,0,0,0,0,0,0,0,0,0,0,0,0,0,0,0,0,0,0,0,0,0,0,0,0,0,0,0,0,0,0,0,0,0,0,0,0,0,0,0,0,0,0,0,0,0,0,0,0,0,0,0,0,0,0,0,0,0,0,0,0,0,0,0,0,0,0,0,0,0,0,0,0,0,0,0,0,0,0,0,0,0,0,0,0,0,0,0,0,0,0,0,0,0,0,0,0,0,0,0,0,0,0,0,0,0,0,0,0,0,0,0,0,0,0,0,0,0,0,0,0,0,0,0,0,0,
0,0,0,0,0,0,0,0,0,0,0,0,0,0,0,0,0,0,0,0,0,0,0,0,0,0,0,0,0,0,0,0,0,0,0,0,0,0,0,0,0,0,0,0,0,0,0,0,0,0,0,0,0,0,0,0,0,0,0,0,0,0,0,0,0,0,0,0,0,0,0,0,0,0,0,0,0,0,0,0,0,0,0,0,0,0,0,0,0,0,0,0,0,0,0,0,0,0,0,0,0,0,0,0,0,0,0,0,0,0,0,0,0,0,0,0,0,0,0,0,0,0,0,0,0,0,0,0,
0,0,0,0,0,0,0,0,0,0,0,0,0,0,0,0,0,0,0,0,0,0,0,0,0,0,0,0,0,0,0,0,0,0,0,0,0,0,0,0,0,0,0,0,0,0,0,0,0,0,0,0,0,0,0,0,0,0,0,0,0,0,0,0,0,0,0,0,0,0,0,0,0,0,0,0,0,0,0,0,0,0,0,0,0,0,0,0,0,0,0,0,0,0,0,0,0,0,0,0,0,0,0,0,0,0,0,0,0,0,0,0,0,0,0,0,0,0,0,0,0,0,0,0,0,0,0,0,
0,0,0,0,0,0,0,0,0,0,0,0,0,0,0,0,0,0,0,0,0,0,0,0,0,0,0,0,0,0,0,0,0,0,0,0,0,0,0,0,0,0,0,0,0,0,0,0,0,0,0,0,0,0,0,0,0,0,0,0,0,0,0,0,0,0,0,0,0,0,0,0,0,0,0,0,0,0,0,0,0,0,0,0,0,0,0,0,0,0,0,0,0,0,0,0,0,0,0,0,0,0,0,0,0,0,0,0,0,0,0,0,0,0,0,0,0,0,0,0,0,0,0,0,0,0,0,0,
0,0,0,0,0,0,0,0,0,0,0,0,0,0,0,0,0,0,0,0,0,0,0,0,0,0,0,0,0,0,0,0,0,0,0,0,0,0,0,0,0,0,0,0,0,0,0,0,0,0,0,0,0,0,0,0,0,0,0,0,0,0,0,0,0,0,0,0,0,0,0,0,0,0,0,0,0,0,0,0,0,0,0,0,0,0,0,0,0,0,0,0,0,0,0,0,0,0,0,0,0,0,0,0,0,0,0,0,0,0,0,0,0,0,0,0,0,0,0,0,0,0,0,0,0,0,0,0,
0,0,0,0,0,0,0,0,0,0,0,0,0,0,0,0,0,0,0,0,0,0,0,0,0,0,0,0,0,0,0,0,0,0,0,0,0,0,0,0,0,0,0,0,0,0,0,0,0,0,0,0,0,0,0,0,0,0,0,0,0,0,0,0,0,0,0,0,0,0,0,0,0,0,0,0,0,0,0,0,0,0,0,0,0,0,0,0,0,0,0,0,0,0,0,0,0,0,0,0,0,0,0,0,0,0,0,0,0,0,0,0,0,0,0,0,0,0,0,0,0,0,0,0,0,0,0,0,
0,0,0,0,0,0,0,0,0,0,0,0,0,0,0,0,0,0,0,0,0,0,0,0,0,0,0,0,0,0,0,0,0,0,0,0,0,0,0,0,0,0,0,0,0,0,0,0,0,0,0,0,0,0,0,0,0,0,0,0,0,0,0,0,0,0,0,0,0,0,0,0,0,0,0,0,0,0,0,0,0,0,0,0,0,0,0,0,0,0,0,0,0,0,0,0,0,0,0,0,0,0,0,0,0,0,0,0,0,0,0,0,0,0,0,0,0,0,0,0,0,0,0,0,0,0,0,0,
0,0,0,0,0,0,0,0,0,0,0,0,0,0,0,0,0,0,0,0,0,0,0,0,0,0,1606,0,0,0,0,0,0,0,0,0,0,0,0,0,0,0,0,0,0,0,0,0,0,0,0,0,0,0,0,0,0,0,0,0,0,0,0,0,0,0,0,0,0,0,0,0,0,0,0,0,0,0,0,0,0,0,0,0,0,0,0,0,0,0,0,0,0,0,0,0,0,0,0,0,0,0,0,0,0,0,0,0,0,0,0,0,0,0,0,0,0,0,0,0,0,0,0,0,0,0,0,0,
0,0,0,0,0,0,0,0,0,0,0,0,0,0,0,0,0,0,0,0,0,0,0,0,0,1637,0,0,0,0,0,0,0,0,0,0,0,0,0,0,0,0,0,0,0,0,0,0,0,0,0,0,0,0,0,0,0,0,0,0,0,0,0,0,0,0,0,0,0,0,0,0,0,0,0,0,0,0,0,0,0,0,0,0,0,0,0,0,0,0,0,0,0,0,0,0,0,0,0,0,0,0,0,0,0,0,0,0,0,0,0,0,0,0,0,0,0,0,0,0,0,0,0,0,0,0,0,0,
0,0,0,0,0,0,0,0,0,0,0,0,0,0,0,0,0,0,0,0,0,0,0,0,0,0,0,0,0,0,0,0,0,0,0,0,0,0,0,0,0,0,0,0,0,0,0,0,0,0,0,0,0,0,0,0,0,0,0,0,0,0,0,0,0,0,0,0,0,0,0,0,0,0,0,0,0,0,0,0,0,0,0,0,0,0,0,0,0,0,0,0,0,0,0,0,0,0,0,0,0,0,0,0,0,0,0,0,0,0,0,0,0,0,0,0,0,0,0,0,0,0,0,0,0,0,0,0,
0,0,0,0,0,0,0,0,0,0,0,0,0,0,0,0,0,0,0,0,0,0,0,0,0,0,0,0,0,0,0,0,0,0,0,0,0,0,0,0,0,0,0,0,0,0,0,0,0,0,0,0,0,0,0,0,0,0,0,0,0,0,0,0,0,0,0,0,0,0,0,0,0,0,0,0,0,0,0,0,0,0,0,0,0,0,0,0,0,0,0,0,0,0,0,0,0,0,0,0,0,0,0,0,0,0,0,0,0,0,0,0,0,0,0,0,0,0,0,0,0,0,0,0,0,0,0,0,
0,0,0,0,0,0,0,0,0,0,0,0,0,0,0,0,0,0,0,0,0,0,0,0,0,0,0,0,0,0,0,0,0,0,0,0,0,0,0,0,0,0,0,0,0,0,0,0,0,0,0,0,0,0,0,0,0,0,0,0,0,0,0,0,0,0,0,0,0,0,0,0,0,0,0,0,0,0,0,0,0,0,0,0,0,0,0,0,0,0,0,0,0,0,0,0,0,0,0,0,0,0,0,0,0,0,0,0,0,0,0,0,0,0,0,0,0,0,0,0,0,0,0,0,0,0,0,0,
0,0,0,0,0,0,0,0,0,0,0,0,0,0,0,0,0,0,0,0,0,0,0,0,0,0,0,0,0,0,0,0,0,0,0,0,0,0,0,0,0,0,0,0,0,0,0,0,0,0,0,0,0,0,0,0,0,0,0,0,0,0,0,0,0,0,0,0,0,0,0,0,0,0,0,0,0,0,0,0,0,0,0,0,0,0,0,0,0,0,0,0,0,0,0,0,0,0,0,0,0,0,0,0,0,0,0,0,0,0,0,0,0,0,0,0,0,0,0,0,0,0,0,0,0,0,0,0,
0,0,0,0,0,0,0,0,0,0,0,0,0,0,0,0,0,0,0,0,0,0,0,0,0,0,0,0,0,0,0,0,0,0,0,0,0,0,0,0,0,0,0,0,0,0,0,0,0,0,0,0,0,0,0,0,0,0,0,0,0,0,0,0,0,0,0,0,0,0,0,0,0,0,0,0,0,0,0,0,0,0,0,0,0,0,0,0,0,0,0,0,0,0,0,0,0,0,0,0,0,0,0,0,0,0,0,0,0,0,0,0,0,0,0,0,0,0,0,0,0,0,0,0,0,0,0,0,
0,0,0,0,0,0,0,0,0,0,0,0,0,0,0,0,0,0,0,0,0,0,0,0,0,0,0,0,0,0,0,0,0,0,0,0,0,0,0,0,0,0,0,0,0,0,0,0,0,0,0,0,0,0,0,0,0,0,0,0,0,0,0,0,0,0,0,0,0,0,0,0,0,0,0,0,0,0,0,0,0,0,0,0,0,0,0,0,0,0,0,0,0,0,0,0,0,0,0,0,0,0,0,0,0,0,0,0,0,0,0,0,0,0,0,0,0,0,0,0,0,0,0,0,0,0,0,0,
0,0,0,0,0,0,0,0,0,0,0,0,0,0,0,0,0,0,0,0,0,0,0,0,0,0,0,0,0,0,0,0,0,0,0,0,0,0,0,0,0,0,0,0,0,0,0,0,0,0,0,0,0,0,0,0,0,0,0,0,0,0,0,0,0,0,0,0,0,0,0,0,0,0,0,0,0,0,0,0,0,0,0,0,0,0,0,0,0,0,0,0,0,0,0,0,0,0,0,0,0,0,0,0,0,0,0,0,0,0,0,0,0,0,0,0,0,0,0,0,0,0,0,0,0,0,0,0,
0,0,0,0,0,0,0,0,0,0,0,0,0,0,0,0,0,0,0,0,0,0,0,0,0,0,0,0,0,0,0,0,0,0,0,0,0,0,0,0,0,0,0,0,0,0,0,0,0,0,0,0,0,0,0,0,0,0,0,0,0,0,0,0,0,0,0,0,0,0,0,0,0,0,0,0,0,0,0,0,0,0,0,0,0,0,0,0,0,0,0,0,0,0,0,0,0,0,0,0,0,0,0,0,0,0,0,0,0,0,0,0,0,0,0,0,0,0,0,0,0,0,0,0,0,0,0,0,
0,0,0,0,0,0,0,0,0,0,0,0,0,0,0,0,0,0,0,0,0,0,0,0,0,0,0,0,0,0,0,0,0,0,0,0,0,0,0,0,0,0,0,0,0,0,0,0,0,0,0,0,0,0,0,0,0,0,0,0,0,0,0,0,0,0,0,0,0,0,0,0,0,0,0,0,0,0,0,0,0,0,0,0,0,0,0,0,0,0,0,0,0,0,0,0,0,0,0,0,0,0,0,0,0,0,0,0,0,0,0,0,0,0,0,0,0,0,0,0,0,0,0,0,0,0,0,0,
0,0,0,0,0,0,0,0,0,0,0,0,0,0,0,0,0,0,0,0,0,0,0,0,0,0,0,0,0,0,0,0,0,0,0,0,0,0,0,0,0,0,0,0,0,0,0,0,0,0,0,0,0,0,0,0,0,0,0,0,0,0,0,0,0,0,0,0,0,0,0,0,0,0,0,0,0,0,0,0,0,0,0,0,0,0,0,0,0,0,0,0,0,0,0,0,0,0,0,0,0,0,0,0,0,0,0,0,0,0,0,0,0,0,0,0,0,0,0,0,0,0,0,0,0,0,0,0,
0,0,0,0,0,0,0,0,0,0,0,0,0,0,0,0,0,0,0,0,0,0,0,0,0,0,0,0,0,0,0,0,0,0,0,0,0,0,0,0,0,0,0,0,0,0,0,0,0,0,0,0,0,0,0,0,0,0,0,0,0,0,0,0,0,0,0,0,0,0,0,0,0,0,0,0,0,0,0,0,0,0,0,0,0,0,0,0,0,0,0,0,0,0,0,0,0,0,0,0,0,0,0,0,0,0,0,0,0,0,0,0,0,0,0,0,0,0,0,0,0,0,0,0,0,0,0,0,
0,0,0,0,0,0,0,0,0,0,0,0,0,0,0,0,0,0,0,0,0,0,0,0,0,0,0,0,0,0,0,0,0,0,0,0,0,0,0,0,0,0,0,0,0,0,0,0,0,0,0,0,0,0,0,0,0,0,0,0,0,0,0,0,0,0,0,0,0,0,0,0,0,0,0,0,0,0,0,0,0,0,0,0,0,0,0,0,0,0,0,0,0,0,0,0,0,0,0,0,0,0,0,0,0,0,0,0,0,0,0,0,0,0,0,0,0,0,0,0,0,0,0,0,0,0,0,0,
0,0,0,0,0,0,0,0,0,0,0,0,0,0,0,0,0,0,0,0,0,0,0,0,0,0,0,0,0,0,0,0,0,0,0,0,0,0,0,0,0,0,0,0,0,0,0,0,0,0,0,0,0,0,0,0,0,0,0,0,0,0,0,0,0,0,0,0,0,0,0,0,0,0,0,0,0,0,0,0,0,0,0,0,0,0,0,0,0,0,0,0,0,0,0,0,0,0,0,0,0,0,0,0,0,0,0,0,0,0,0,0,0,0,0,0,0,0,0,0,0,0,0,0,0,0,0,0,
0,0,0,0,0,0,0,0,0,0,0,0,0,0,0,0,0,0,0,0,0,0,0,0,0,0,0,0,0,0,0,0,0,0,0,0,0,0,0,0,0,0,0,0,0,0,0,0,0,0,0,0,0,0,0,0,0,0,0,0,0,0,0,0,0,0,0,0,0,0,0,0,0,0,0,0,0,0,0,0,0,0,0,0,0,0,0,0,0,0,0,0,0,0,0,0,0,0,0,0,0,0,0,0,0,0,0,0,0,0,0,0,0,0,0,0,0,0,0,0,0,0,0,0,0,0,0,0,
0,0,0,0,0,0,0,0,0,0,0,0,0,0,0,0,0,0,0,0,0,0,0,0,0,0,0,0,0,0,0,0,0,0,0,0,0,0,0,0,0,0,0,0,0,0,0,0,0,0,0,0,0,0,0,0,0,0,0,0,0,0,0,0,0,0,0,0,0,0,0,0,0,0,0,0,0,0,0,0,0,0,0,0,0,0,0,0,0,0,0,0,0,0,0,0,0,0,0,0,0,0,0,0,0,0,0,0,0,0,0,0,0,0,0,0,0,0,0,0,0,0,0,0,0,0,0,0,
0,0,0,0,0,0,0,0,0,0,0,0,0,0,0,0,0,0,0,0,0,0,0,0,0,0,0,0,0,0,0,0,0,0,0,0,0,0,0,0,0,0,0,0,0,0,0,0,0,0,0,0,0,0,0,0,0,0,0,0,0,0,0,0,0,0,0,0,0,0,0,0,0,0,0,0,0,0,0,0,0,0,0,0,0,0,0,0,0,0,0,0,0,0,0,0,0,0,0,0,0,0,0,0,0,0,0,0,0,0,0,0,0,0,0,0,0,0,0,0,0,0,0,0,0,0,0,0,
0,0,0,0,0,0,0,0,0,0,0,0,0,0,0,0,0,0,0,0,0,0,0,0,0,0,0,0,0,0,0,0,0,0,0,0,0,0,0,0,0,0,0,0,0,0,0,0,0,0,0,0,0,0,0,0,0,0,0,0,0,0,0,0,0,0,0,0,0,0,0,0,0,0,0,0,0,0,0,0,0,0,0,0,0,0,0,0,0,0,0,0,0,0,0,0,0,0,0,0,0,0,0,0,0,0,0,0,0,0,0,0,0,0,0,0,0,0,0,0,0,0,0,0,0,0,0,0,
0,0,0,0,0,0,0,0,0,0,0,0,0,0,0,0,0,0,0,0,0,0,0,0,0,0,0,0,0,0,0,0,0,0,0,0,0,0,0,0,0,0,0,0,0,0,0,0,0,0,0,0,0,0,0,0,0,0,0,0,0,0,0,0,0,0,0,0,0,0,0,0,0,0,0,0,0,0,0,0,0,0,0,0,0,0,0,0,0,0,0,0,0,0,0,0,0,0,0,0,0,0,0,0,0,0,0,0,0,0,0,0,0,0,0,0,0,0,0,0,0,0,0,0,0,0,0,0,
0,0,0,0,0,0,0,0,0,0,0,0,0,0,0,0,0,0,0,0,0,0,0,0,0,0,0,0,0,0,0,0,0,0,0,0,0,0,0,0,0,0,0,0,0,0,0,0,0,0,0,0,0,0,0,0,0,0,0,0,0,0,0,0,0,0,0,0,0,0,0,0,0,0,0,0,0,0,0,0,0,0,0,0,0,0,0,0,0,0,0,0,0,0,0,0,0,0,0,0,0,0,0,0,0,0,0,0,0,0,0,0,0,0,0,0,0,0,0,0,0,0,0,0,0,0,0,0,
0,0,0,0,0,0,0,0,0,0,0,0,0,0,0,0,0,0,0,0,0,0,0,0,0,0,0,0,0,0,0,0,0,0,0,0,0,0,0,0,0,0,0,0,0,0,0,0,0,0,0,0,0,0,0,0,0,0,0,0,0,0,0,0,0,0,0,0,0,0,0,0,0,0,0,0,0,0,0,0,0,0,0,0,0,0,0,0,0,0,0,0,0,0,0,0,0,0,0,0,0,0,0,0,0,0,0,0,0,0,0,0,0,0,0,0,0,0,0,0,0,0,0,0,0,0,0,0,
0,0,0,0,0,0,0,0,0,0,0,0,0,0,0,0,0,0,0,0,0,0,0,0,0,0,0,0,0,0,0,0,0,0,0,0,0,0,0,0,0,0,0,0,0,0,0,0,0,0,0,0,0,0,0,0,0,0,0,0,0,0,0,0,0,0,0,0,0,0,0,0,0,0,0,0,0,0,0,0,0,0,0,0,0,0,0,0,0,0,0,0,0,0,0,0,0,0,0,0,0,0,0,0,0,0,0,0,0,0,0,0,0,0,0,0,0,0,0,0,0,0,0,0,0,0,0,0,
0,0,0,0,0,0,0,0,0,0,0,0,0,0,0,0,0,0,0,0,0,0,0,0,0,0,0,0,0,0,0,0,0,0,0,0,0,0,0,0,0,0,0,0,0,0,0,0,0,0,0,0,0,0,0,0,0,0,0,0,0,0,0,0,0,0,0,0,0,0,0,0,0,0,0,0,0,0,0,0,0,0,0,0,0,0,0,0,0,0,0,0,0,0,0,0,0,0,0,0,0,0,0,0,0,0,0,0,0,0,0,0,0,0,0,0,0,0,0,0,0,0,0,0,0,0,0,0,
0,0,0,0,0,0,0,0,0,0,0,0,0,0,0,0,0,0,0,0,0,0,0,0,0,0,0,0,0,0,0,0,0,0,0,0,0,0,0,0,0,0,0,0,0,0,0,0,0,0,0,0,0,0,0,0,0,0,0,0,0,0,0,0,0,0,0,0,0,0,0,0,0,0,0,0,0,0,0,0,0,0,0,0,0,0,0,0,0,0,0,0,0,0,0,0,0,0,0,0,0,0,0,0,0,0,0,0,0,0,0,0,0,0,0,1605,1606,0,0,0,0,0,0,0,0,0,0,0,
0,0,0,0,0,0,0,0,0,0,0,0,0,0,0,0,0,0,0,0,0,0,0,0,0,0,0,0,0,0,0,0,0,0,0,0,0,0,0,0,0,0,0,0,0,0,0,0,0,0,0,0,0,0,0,0,0,0,0,0,0,0,0,0,0,0,0,0,0,0,0,0,0,0,0,0,0,0,0,0,0,0,0,0,0,0,0,0,0,0,0,0,0,0,0,0,0,0,0,0,0,0,0,0,0,0,0,0,0,0,0,0,0,0,0,1605,1606,0,0,0,0,0,0,0,0,0,0,0,
0,0,0,0,0,0,0,0,0,0,0,0,0,0,0,0,0,0,0,0,0,0,0,0,0,0,0,0,0,0,0,0,0,0,0,0,0,0,0,0,0,0,0,0,0,0,0,0,0,0,0,0,0,0,0,0,0,0,0,0,0,0,0,0,0,0,0,0,0,0,0,0,0,0,0,0,0,0,0,0,0,0,0,0,0,0,0,0,0,0,0,0,0,0,0,0,0,0,0,0,0,0,0,0,0,0,0,0,0,0,0,0,0,0,0,0,0,0,0,0,0,0,0,0,0,0,0,0,
0,0,0,0,0,0,0,0,0,0,0,0,0,0,0,0,0,0,0,0,0,0,0,0,0,0,0,0,0,0,0,0,0,0,0,0,0,0,0,0,0,0,0,0,0,0,0,0,0,0,0,0,0,0,0,0,0,0,0,0,0,0,0,0,0,0,0,0,0,0,0,0,0,0,0,0,0,0,0,0,0,0,0,0,0,0,0,0,0,0,0,0,0,0,0,0,0,0,0,0,0,0,0,0,0,0,0,0,0,0,0,0,0,0,0,0,0,0,0,0,0,0,0,0,0,0,0,0,
0,0,0,0,0,0,0,0,0,0,0,0,0,0,0,0,0,0,0,0,0,0,0,0,0,0,0,0,0,0,0,0,0,0,0,0,0,0,0,0,0,0,0,0,0,0,0,0,0,0,0,0,0,0,0,0,0,0,0,0,0,0,0,0,0,0,0,0,0,0,0,0,0,0,0,0,0,0,0,0,0,0,0,0,0,0,0,0,0,0,0,0,0,0,0,0,0,0,0,0,0,0,0,0,0,0,0,0,0,0,0,0,0,0,0,0,0,0,0,0,0,0,0,0,0,0,0,0,
0,0,0,0,0,0,0,0,0,0,0,0,0,0,0,0,0,0,0,0,0,0,0,0,0,0,0,0,0,0,0,0,0,0,0,0,0,0,0,0,0,0,0,0,0,0,0,0,657,0,0,0,0,0,0,0,0,0,0,0,0,0,0,0,0,0,0,0,0,0,0,0,0,0,0,0,0,0,0,0,0,0,0,0,0,0,0,0,0,0,0,0,0,0,0,0,0,0,0,0,0,0,0,0,0,0,0,0,0,0,0,0,0,0,0,0,0,0,0,0,0,0,0,0,0,0,0,0,
0,0,0,0,0,0,0,0,0,0,0,0,0,0,0,0,0,0,0,0,0,0,0,0,0,0,0,0,0,0,0,0,0,0,0,0,0,0,0,0,0,0,0,0,0,0,0,0,0,0,0,0,0,0,0,0,0,0,0,0,0,0,0,0,0,0,0,0,0,0,0,0,0,0,0,0,0,0,0,0,0,0,0,0,0,0,0,0,0,0,0,0,0,0,0,0,0,0,0,0,0,0,0,0,0,0,0,0,0,0,0,0,0,0,0,0,0,0,0,0,0,0,0,0,0,0,0,0,
0,0,0,0,0,0,0,0,0,0,0,0,0,0,0,0,0,0,0,0,0,0,0,0,0,0,0,0,0,0,0,0,0,0,0,0,0,0,0,0,0,0,0,0,0,0,0,0,0,0,0,0,0,0,0,0,0,0,0,0,0,0,0,0,0,0,0,0,0,0,0,0,0,0,0,0,0,0,0,0,0,0,0,0,0,0,0,0,0,0,0,0,0,0,0,0,0,0,0,0,0,0,0,0,0,0,0,0,0,0,0,0,0,0,0,0,0,0,0,0,0,0,0,0,0,0,0,0,
0,0,0,0,0,0,0,0,0,0,0,0,0,0,0,0,0,0,0,0,0,0,0,0,0,0,0,0,0,0,0,0,0,0,0,0,0,0,0,0,0,0,0,0,0,0,0,0,0,0,0,0,0,0,0,0,0,0,0,0,0,0,0,0,0,0,0,0,0,0,0,0,0,0,0,0,0,0,0,0,0,0,0,0,0,0,0,0,0,0,0,0,0,0,0,0,0,0,0,0,0,0,0,0,0,0,0,0,0,0,0,0,0,0,0,0,0,0,0,0,0,0,0,0,0,0,0,0,
0,0,0,0,0,0,0,0,0,0,0,0,0,0,0,0,0,0,0,0,0,0,0,0,0,0,0,0,0,0,0,0,0,0,0,0,0,0,0,0,0,0,0,0,0,0,0,0,0,0,0,0,0,0,0,0,0,0,660,0,0,0,0,0,0,0,0,0,0,0,0,0,0,0,0,0,0,0,0,0,0,0,0,0,0,0,0,0,0,0,0,0,0,0,0,0,0,0,0,0,0,0,0,0,0,0,0,0,0,0,0,0,0,0,0,0,0,0,0,0,0,0,0,0,0,0,0,0,
0,0,0,0,0,0,0,0,0,0,0,0,0,0,0,0,0,0,0,0,0,0,0,0,0,0,0,0,0,0,0,0,0,0,0,0,0,0,0,0,0,0,0,0,0,0,0,0,0,0,0,0,0,0,0,0,0,0,0,0,0,0,0,0,0,0,0,0,0,0,0,0,0,0,0,0,0,0,0,0,0,0,0,0,0,0,0,0,0,0,0,0,0,0,0,0,0,0,0,0,0,0,0,0,0,0,0,0,0,0,0,0,0,0,0,0,0,0,0,0,0,0,0,0,0,0,0,0,
0,0,0,0,0,0,0,0,0,0,0,0,0,0,0,0,0,0,0,0,0,0,0,0,0,0,0,0,0,0,0,0,0,0,0,0,0,0,0,0,0,0,0,0,0,0,0,0,0,0,0,0,0,0,0,0,0,0,0,0,0,0,0,0,0,0,0,0,0,0,0,0,0,0,0,0,0,0,0,0,0,0,0,0,0,0,0,0,0,0,0,0,0,0,0,0,0,0,0,0,0,0,0,0,0,0,0,0,0,0,0,0,0,0,0,0,0,0,0,0,0,0,0,0,0,0,0,0,
0,0,0,0,0,0,0,0,0,0,0,0,0,0,0,0,0,0,0,0,0,0,0,0,0,0,0,0,0,0,0,0,0,0,0,0,0,0,0,0,0,0,0,0,0,0,0,0,0,660,0,0,0,0,0,0,0,0,0,0,0,0,0,0,0,0,0,0,0,0,0,0,0,0,0,0,0,0,0,0,0,0,0,0,0,0,0,0,0,0,0,0,0,0,0,0,0,0,0,0,0,0,0,0,0,0,0,0,0,0,0,0,0,0,0,0,0,0,0,0,0,0,0,0,0,0,0,0,
0,0,0,0,0,0,0,0,0,0,0,0,0,0,0,0,0,0,0,0,0,0,0,1606,0,0,0,0,0,0,0,0,0,0,0,0,0,0,0,0,0,0,0,0,0,0,0,0,0,0,0,0,0,0,0,0,0,0,0,0,0,0,0,0,0,0,0,0,1606,0,0,0,0,0,0,0,0,0,0,0,0,0,0,0,0,0,0,0,0,0,0,0,0,0,0,0,0,0,0,0,0,0,0,0,1637,1606,0,1637,1574,0,1637,1606,0,0,0,0,0,0,0,0,0,0,0,0,0,0,0,0,
0,0,1606,0,0,0,0,0,0,0,0,0,0,0,0,0,0,0,0,0,0,0,1637,0,0,0,0,0,0,0,0,0,0,0,0,0,0,0,0,0,0,0,0,0,0,0,0,0,0,0,0,0,0,0,0,0,0,0,0,0,0,0,0,0,0,0,0,1637,0,0,0,0,0,0,0,0,0,1637,1606,0,0,0,0,0,0,0,0,0,0,0,0,0,0,0,0,0,0,0,0,0,0,0,0,0,1605,0,1637,1605,1606,1574,1605,1670,0,0,0,0,0,0,0,0,0,0,0,0,0,0,0,0,
0,1637,0,0,0,0,0,0,0,0,0,0,0,0,0,0,0,0,0,0,0,0,0,0,0,0,0,0,0,0,0,0,0,0,0,0,0,0,0,0,0,0,0,0,0,0,0,0,0,0,0,0,0,0,0,0,0,0,0,0,0,0,0,0,0,0,0,0,0,0,0,0,0,0,0,0,0,1637,1606,0,0,0,0,0,0,0,0,0,0,0,0,0,0,0,0,0,0,0,0,0,0,0,0,0,0,1637,1574,1669,1606,1606,1574,0,0,0,0,0,0,0,0,0,0,0,0,0,0,0,0,0,
0,0,0,0,0,0,0,0,0,0,0,0,0,0,0,0,0,0,0,0,0,0,0,0,0,0,0,0,0,0,0,0,0,0,0,0,0,0,0,0,0,0,0,0,0,0,0,0,0,0,0,0,0,0,0,0,0,0,0,0,0,0,0,0,0,0,0,0,0,0,0,0,0,0,0,0,0,0,0,0,0,0,0,0,0,0,0,0,0,0,0,0,0,0,0,0,0,0,0,0,0,0,0,0,1606,1669,1637,0,0,1606,1606,0,1606,0,0,0,0,0,0,0,0,0,0,0,0,0,0,0,
0,0,0,0,0,0,0,0,0,0,0,0,0,0,0,0,0,0,0,0,0,0,0,0,0,0,0,0,0,0,0,0,0,0,0,0,0,0,0,0,0,0,0,0,0,0,0,0,0,0,0,0,0,0,0,0,0,0,0,0,0,0,0,0,0,0,0,0,0,0,0,0,0,0,0,0,0,0,0,0,0,0,0,0,0,0,0,0,0,0,0,0,0,0,0,0,0,0,0,0,0,0,0,1637,1606,0,1637,1669,1670,1637,0,1637,1606,0,0,0,0,0,0,0,0,0,0,0,0,0,0,0,
0,0,0,0,0,0,0,0,0,0,0,0,0,0,0,0,0,0,0,0,0,0,0,0,0,0,0,0,0,0,0,0,0,0,0,0,0,0,0,0,0,0,0,0,0,0,0,0,0,0,0,0,0,0,0,0,0,0,0,0,0,0,0,0,0,0,0,0,0,0,0,0,0,0,0,0,0,0,0,0,0,0,0,0,0,0,0,0,0,0,0,0,0,0,0,0,0,0,0,0,0,0,0,0,0,0,0,0,0,0,0,0,0,0,0,0,0,0,0,0,0,0,0,0,0,0,0,0,
0,0,0,0,0,0,0,0,0,0,0,0,0,0,0,0,0,0,0,0,0,0,0,0,0,0,0,0,0,0,0,0,0,0,0,0,0,0,0,0,0,0,0,0,0,0,0,0,0,0,0,0,0,0,0,0,0,0,0,0,0,0,0,0,0,0,0,0,0,0,0,0,0,0,0,0,0,0,0,0,0,0,0,0,0,0,0,0,0,0,0,0,0,0,0,0,0,0,0,0,0,0,0,0,0,0,0,0,0,0,0,0,0,0,0,0,0,0,0,0,0,0,0,0,0,0,0,0
</data>
 </layer>
 <layer id="10" name="Props Layer 4" width="128" height="100" locked="1">
  <data encoding="csv">
0,0,0,0,0,0,0,0,0,0,0,0,0,0,0,0,0,0,0,0,0,0,0,0,0,0,0,0,0,0,0,0,0,0,0,0,0,0,0,0,0,0,0,0,0,0,0,0,0,0,0,0,0,0,0,0,0,0,0,0,0,0,0,0,0,0,0,0,0,0,0,0,0,0,0,0,0,0,0,0,0,0,0,0,0,0,0,0,0,0,0,0,0,0,0,0,0,0,0,0,0,0,0,0,0,0,0,0,0,0,0,0,0,0,0,0,0,0,0,0,0,0,0,0,0,0,0,0,
0,0,0,0,0,0,0,0,0,0,0,0,0,0,0,0,0,0,0,0,0,0,0,0,0,0,0,0,0,0,0,0,0,0,0,0,0,0,0,0,0,0,0,0,0,0,0,0,0,0,0,0,0,0,0,0,0,0,0,0,0,0,0,0,0,0,0,0,0,0,0,0,0,0,0,0,0,0,0,0,0,0,0,0,0,0,0,0,0,0,0,0,0,0,0,0,0,0,0,0,0,0,0,0,0,0,0,0,0,0,0,0,0,0,0,0,0,0,0,0,0,0,0,0,0,0,0,0,
0,0,0,0,0,0,0,0,0,0,0,0,0,0,0,0,0,0,0,0,0,0,0,0,0,0,0,0,0,0,0,0,0,0,0,0,0,0,0,0,0,0,0,0,0,0,0,0,0,0,0,0,0,0,0,0,0,0,0,0,0,0,0,0,0,0,0,0,0,0,0,0,0,0,0,0,0,0,0,0,0,0,0,0,0,0,0,0,0,0,0,0,0,0,0,0,0,0,0,0,0,0,0,0,0,0,0,0,0,0,0,0,0,0,0,0,0,0,0,0,0,0,0,0,0,0,0,0,
0,0,0,0,0,0,0,0,0,0,0,0,0,0,0,0,0,0,0,0,0,0,0,0,0,0,0,0,0,0,0,0,0,0,0,0,0,0,0,0,0,0,0,0,0,0,0,0,0,0,0,0,0,0,0,0,0,0,0,0,0,0,0,0,0,0,0,0,0,0,0,0,0,0,0,0,0,0,0,0,0,0,0,0,0,0,0,0,0,0,0,0,0,0,0,0,0,0,0,0,0,0,0,0,0,0,0,0,0,0,0,0,0,0,0,0,0,0,0,0,0,0,0,0,0,0,0,0,
0,0,0,0,0,0,0,0,0,0,0,0,0,0,0,0,0,0,0,0,0,0,0,0,0,0,0,0,0,0,0,0,0,0,0,0,0,0,0,0,0,0,0,0,0,0,0,0,0,0,0,0,0,0,0,0,0,0,0,0,0,0,0,0,0,0,0,0,0,0,0,0,0,0,0,0,0,0,0,0,0,0,0,0,0,0,0,0,0,0,0,0,0,0,0,0,0,0,0,0,0,0,0,0,0,0,0,0,0,0,0,0,0,0,0,0,0,0,0,0,0,0,0,0,0,0,0,0,
0,0,0,0,0,0,0,0,0,0,0,0,0,0,0,0,0,0,0,0,0,0,0,0,0,0,0,0,0,0,0,0,0,0,0,0,0,0,0,0,0,0,0,0,0,0,0,0,0,0,0,0,0,0,0,0,0,0,0,0,0,0,0,0,0,0,0,0,0,0,0,0,0,0,0,0,0,0,0,0,0,0,0,0,0,0,0,0,0,0,0,0,0,0,0,0,0,0,0,0,0,0,0,0,0,0,0,0,0,0,0,0,0,0,0,0,0,0,0,0,0,0,0,0,0,0,0,0,
0,0,0,0,0,0,0,0,0,0,0,0,0,0,0,0,0,0,0,0,0,0,0,0,0,0,0,0,0,0,0,0,0,0,0,0,0,0,0,0,0,0,0,0,0,0,0,0,0,0,0,0,0,0,0,0,0,0,0,0,0,0,0,0,0,0,0,0,0,0,0,0,0,0,0,0,0,0,0,0,0,0,0,0,0,0,0,0,0,0,0,0,0,0,0,0,0,0,0,0,0,0,0,0,0,0,0,0,0,0,0,0,0,0,0,0,0,0,0,0,0,0,0,0,0,0,0,0,
0,0,0,0,0,0,0,0,0,0,0,0,0,0,0,0,0,0,0,0,0,0,0,0,0,0,0,0,0,0,0,0,0,0,0,0,0,0,0,0,0,0,0,0,0,0,0,0,0,0,0,0,0,0,0,0,0,0,0,0,0,0,0,0,0,0,0,0,0,0,0,0,0,0,0,0,0,0,0,0,0,0,0,0,0,0,0,0,0,0,0,0,0,0,0,0,0,0,0,0,0,0,0,0,0,0,0,0,0,0,0,0,0,0,0,0,0,0,0,0,0,0,0,0,0,0,0,0,
0,0,0,0,0,0,0,0,0,0,0,0,0,0,0,0,0,0,0,0,0,0,0,0,0,0,0,0,0,0,0,0,0,0,0,0,0,0,0,0,0,0,0,0,0,0,0,0,0,0,0,0,0,0,0,0,0,0,0,0,0,0,0,0,0,0,0,0,0,0,0,0,0,0,0,0,0,0,0,0,0,0,0,0,0,0,0,0,0,0,0,0,0,0,0,0,0,0,0,0,0,0,0,0,0,0,0,0,0,0,0,0,0,0,0,0,0,0,0,0,0,0,0,0,0,0,0,0,
0,0,0,0,0,0,0,0,0,0,0,0,0,0,0,0,0,0,0,0,0,0,0,0,0,0,0,0,0,0,0,0,0,0,0,0,0,0,0,0,0,0,0,0,0,0,0,0,0,0,0,0,0,0,0,0,0,0,0,0,0,0,0,0,0,0,0,0,0,0,0,0,0,0,0,0,0,0,0,0,0,0,0,0,0,0,0,0,0,0,0,0,0,0,0,0,0,0,0,0,0,0,0,0,0,0,0,0,0,0,0,0,0,0,0,0,0,0,0,0,0,0,0,0,0,0,0,0,
0,0,0,0,0,0,0,0,0,0,0,0,0,0,0,0,0,0,0,0,0,0,0,0,0,0,0,0,0,0,0,0,0,0,0,0,0,0,0,0,0,0,0,0,0,0,0,0,0,0,0,0,0,0,0,0,0,0,0,0,0,0,0,0,0,0,0,0,0,0,0,0,0,0,0,0,0,0,0,0,0,0,0,0,0,0,0,0,0,0,0,0,0,0,0,0,0,0,0,0,0,0,0,0,0,0,0,0,0,0,0,0,0,0,0,0,0,0,0,0,0,0,0,0,0,0,0,0,
0,0,0,0,0,0,0,0,0,0,0,0,0,0,0,0,0,0,0,0,0,0,0,0,0,0,0,0,0,0,0,0,0,0,0,0,0,0,0,0,0,0,0,0,0,0,0,0,0,0,0,0,0,0,0,0,0,0,0,0,0,0,0,0,0,0,0,0,0,0,0,0,0,0,0,0,0,0,0,0,0,0,0,0,0,0,0,0,0,0,0,0,0,0,0,0,0,0,0,0,0,0,0,0,0,0,0,0,0,0,0,0,0,0,0,0,0,0,0,0,0,0,0,0,0,0,0,0,
0,0,0,0,0,0,0,0,0,0,0,0,0,0,0,0,0,0,0,0,0,0,0,0,0,0,0,0,0,0,0,0,0,0,0,0,0,0,0,0,0,0,0,0,0,0,0,0,0,0,0,0,0,0,0,0,0,0,0,0,0,0,0,0,0,0,0,0,0,0,0,0,0,0,0,0,0,0,0,0,0,0,0,0,0,0,0,0,0,0,0,0,0,0,0,0,0,0,0,0,0,0,0,0,0,0,0,0,0,0,0,0,0,0,0,0,0,0,0,0,0,0,0,0,0,0,0,0,
0,0,0,0,0,0,0,0,0,0,0,0,0,0,0,0,0,0,0,0,0,0,0,0,0,0,0,0,0,0,0,0,0,0,0,0,0,0,0,0,0,0,0,0,0,0,0,0,0,0,0,0,0,0,0,0,0,0,0,0,0,0,0,0,0,0,0,0,0,0,0,0,0,0,0,0,0,0,0,0,0,0,0,0,0,0,0,0,0,0,0,0,0,0,0,0,0,0,0,0,0,0,0,0,0,0,0,0,0,0,0,0,0,0,0,0,0,0,0,0,0,0,0,0,0,0,0,0,
0,0,0,0,0,0,0,0,0,0,0,0,0,0,0,0,0,0,0,0,0,0,0,0,0,0,0,0,0,0,0,0,0,0,0,0,0,0,0,0,0,0,0,0,0,0,0,0,0,0,0,0,0,0,0,0,0,0,0,0,0,0,0,0,0,0,0,0,0,0,0,0,0,0,0,0,0,0,0,0,0,0,0,0,0,0,0,0,0,0,0,0,0,0,0,0,0,0,0,0,0,0,0,0,0,0,0,0,0,0,0,0,0,0,0,0,0,0,0,0,0,0,0,0,0,0,0,0,
0,0,0,0,0,0,0,0,0,0,0,0,0,0,0,0,0,0,0,0,0,0,0,0,0,0,0,0,0,0,0,0,0,0,0,0,0,0,0,0,0,0,0,0,0,0,0,0,0,0,0,0,0,0,0,0,0,0,0,0,0,0,0,0,0,0,0,0,0,0,0,0,0,0,0,0,0,0,0,0,0,0,0,0,0,0,0,0,0,0,0,0,0,0,0,0,0,0,0,0,0,0,0,0,0,0,0,0,0,0,0,0,0,0,0,0,0,0,0,0,0,0,0,0,0,0,0,0,
0,0,0,0,0,0,0,0,0,0,0,0,0,0,0,0,0,0,0,0,0,0,0,0,0,0,0,0,0,0,0,0,0,0,0,0,0,0,0,0,0,0,0,0,0,0,0,0,0,0,0,0,0,0,0,0,0,0,0,0,0,0,0,0,0,0,0,0,0,0,0,0,0,0,0,0,0,0,0,0,0,0,0,0,0,0,0,0,0,0,0,0,0,0,0,0,0,0,0,0,0,0,0,0,0,0,0,0,0,0,0,0,0,0,0,0,0,0,0,0,0,0,0,0,0,0,0,0,
0,0,0,0,0,0,0,0,0,0,0,0,0,0,0,0,0,0,0,0,0,0,0,0,0,0,0,0,0,0,0,0,0,0,0,0,0,0,0,0,0,0,0,0,0,0,0,0,0,0,0,0,0,0,0,0,0,0,0,0,0,0,0,0,0,0,0,0,0,0,0,0,0,0,0,0,0,0,0,0,0,0,0,0,0,0,0,0,0,0,0,0,0,0,0,0,0,0,0,0,0,0,0,0,0,0,0,0,0,0,0,0,0,0,0,0,0,0,0,0,0,0,0,0,0,0,0,0,
0,0,0,0,0,0,0,0,0,0,0,0,0,0,0,0,0,0,0,0,0,0,0,0,0,0,0,0,0,0,0,0,0,0,0,0,0,0,0,0,0,0,0,0,0,0,0,0,0,0,0,0,0,0,0,0,0,0,0,0,0,0,0,0,0,0,0,0,0,0,0,0,0,0,0,0,0,0,0,0,0,0,0,0,0,0,0,0,0,0,0,0,0,0,0,0,0,0,0,0,0,0,0,0,0,0,0,0,0,0,0,0,0,0,0,0,0,0,0,0,0,0,0,0,0,0,0,0,
0,0,0,0,0,0,0,0,0,0,0,0,0,0,0,0,0,0,0,0,0,0,0,0,0,0,0,0,0,0,0,0,0,0,0,0,0,0,0,0,0,0,0,0,0,0,0,0,0,0,0,0,0,0,0,0,0,0,0,0,0,0,0,0,0,0,0,0,0,0,0,0,0,0,0,0,0,0,0,0,0,0,0,0,0,0,0,0,0,0,0,0,0,0,0,0,0,0,0,0,0,0,0,0,0,0,0,0,0,0,0,0,0,0,0,0,0,0,0,0,0,0,0,0,0,0,0,0,
0,0,0,0,0,0,0,0,0,0,0,0,0,0,0,0,0,0,0,0,0,0,0,0,0,0,0,0,0,0,0,0,0,0,0,0,0,0,0,0,0,0,0,0,0,0,0,0,0,0,0,0,0,0,0,0,0,0,0,0,0,0,0,0,0,0,0,0,0,0,0,0,0,0,0,0,0,0,0,0,0,0,0,0,0,0,0,0,0,0,0,0,0,0,0,0,0,0,0,0,0,0,0,0,0,0,0,0,0,0,0,0,0,0,0,0,0,0,0,0,0,0,0,0,0,0,0,0,
0,0,0,0,0,0,0,0,0,0,0,0,0,0,0,0,0,0,0,0,0,0,0,0,0,0,0,0,0,0,0,0,0,0,0,0,0,0,0,0,0,0,0,0,0,0,0,0,0,0,0,0,0,0,0,0,0,0,0,0,0,0,0,0,0,0,0,0,0,0,0,0,0,0,0,0,0,0,0,0,0,0,0,0,0,0,0,0,0,0,0,0,0,0,0,0,0,0,0,0,0,0,0,0,0,0,0,0,0,0,0,0,0,0,0,0,0,0,0,0,0,0,0,0,0,0,0,0,
0,0,0,0,0,0,0,0,0,0,0,0,0,0,0,0,0,0,0,0,0,0,0,0,0,0,0,0,0,0,0,0,0,0,0,0,0,0,0,0,0,0,0,0,0,0,0,0,0,0,0,0,0,0,0,0,0,0,0,0,0,0,0,0,0,0,0,0,0,0,0,0,0,0,0,0,0,0,0,0,0,0,0,0,0,0,0,0,0,0,0,0,0,0,0,0,0,0,0,0,0,0,0,0,0,0,0,0,0,0,0,0,0,0,0,0,0,0,0,0,0,0,0,0,0,0,0,0,
0,0,0,0,0,0,0,0,0,0,0,0,0,0,0,0,0,0,0,0,0,0,0,0,0,0,0,0,0,0,0,0,0,0,0,0,0,0,0,0,0,0,0,0,0,0,0,0,0,0,0,0,0,0,0,0,0,0,0,0,0,0,0,0,0,0,0,0,0,0,0,0,0,0,0,0,0,0,0,0,0,0,0,0,0,0,0,0,0,0,0,0,0,0,0,0,0,0,0,0,0,0,0,0,0,0,0,0,0,0,0,0,0,0,0,0,0,0,0,0,0,0,0,0,0,0,0,0,
0,0,0,0,0,0,0,0,0,0,0,0,0,0,0,0,0,0,0,0,0,0,0,0,0,0,0,0,0,0,0,0,0,0,0,0,0,0,0,0,0,0,0,0,0,0,0,0,0,0,0,0,0,0,0,0,0,0,0,0,0,0,0,0,0,0,0,0,0,0,0,0,0,0,0,0,0,0,0,0,0,0,0,0,0,0,0,0,0,0,0,0,0,0,0,0,0,0,0,0,0,0,0,0,0,0,0,0,0,0,0,0,0,0,0,0,0,0,0,0,0,0,0,0,0,0,0,0,
0,0,0,0,0,0,0,0,0,0,0,0,0,0,0,0,0,0,0,0,0,0,0,0,0,0,0,0,0,0,0,0,0,0,0,0,0,0,0,0,0,0,0,0,0,0,0,0,0,0,0,0,0,0,0,0,0,0,0,0,0,0,0,0,0,0,0,0,0,0,0,0,0,0,0,0,0,0,0,0,0,0,0,0,0,0,0,0,0,0,0,0,0,0,0,0,0,0,0,0,0,0,0,0,0,0,0,0,0,0,0,0,0,0,0,0,0,0,0,0,0,0,0,0,0,0,0,0,
0,0,0,0,0,0,0,0,0,0,0,0,0,0,0,0,0,0,0,0,0,0,0,0,0,0,0,0,0,0,0,0,0,0,0,0,0,0,0,0,0,0,0,0,0,0,0,0,0,0,0,0,0,0,0,0,0,0,0,0,0,0,0,0,0,0,0,0,0,0,0,0,0,0,0,0,0,0,0,0,0,0,0,0,0,0,0,0,0,0,0,0,0,0,0,0,0,0,0,0,0,0,0,0,0,0,0,0,0,0,0,0,0,0,0,0,0,0,0,0,0,0,0,0,0,0,0,0,
0,0,0,0,0,0,0,0,0,0,0,0,0,0,0,0,0,0,0,0,0,0,0,0,0,0,0,0,0,0,0,0,0,0,0,0,0,0,0,0,0,0,0,0,0,0,0,0,0,0,0,0,0,0,0,0,0,0,0,0,0,0,0,0,0,0,0,0,0,0,0,0,0,0,0,0,0,0,0,0,0,0,0,0,0,0,0,0,0,0,0,0,0,0,0,0,0,0,0,0,0,0,0,0,0,0,0,0,0,0,0,0,0,0,0,0,0,0,0,0,0,0,0,0,0,0,0,0,
0,0,0,0,0,0,0,0,0,0,0,0,0,0,0,0,0,0,0,0,0,0,0,0,0,0,0,0,0,0,0,0,0,0,0,0,0,0,0,0,0,0,0,0,0,0,0,0,0,0,0,0,0,0,0,0,0,0,0,0,0,0,0,0,0,0,0,0,0,0,0,0,0,0,0,0,0,0,0,0,0,0,0,0,0,0,0,0,0,0,0,0,0,0,0,0,0,0,0,0,0,0,0,0,0,0,0,0,0,0,0,0,0,0,0,0,0,0,0,0,0,0,0,0,0,0,0,0,
0,0,0,0,0,0,0,0,0,0,0,0,0,0,0,0,0,0,0,0,0,0,0,0,0,0,0,0,0,0,0,0,0,0,0,0,0,0,0,0,0,0,0,0,0,0,0,0,0,0,0,0,0,0,0,0,0,0,0,0,0,0,0,0,0,0,0,0,0,0,0,0,0,0,0,0,0,0,0,0,0,0,0,0,0,0,0,0,0,0,0,0,0,0,0,0,0,0,0,0,0,0,0,0,0,0,0,0,0,0,0,0,0,0,0,0,0,0,0,0,0,0,0,0,0,0,0,0,
0,0,0,0,0,0,0,0,0,0,0,0,0,0,0,0,0,0,0,0,0,0,0,0,0,0,0,0,0,0,0,0,0,0,0,0,0,0,0,0,0,0,0,0,0,0,0,0,0,0,0,0,0,0,0,0,0,0,0,0,0,0,0,0,0,0,0,0,0,0,0,0,0,0,0,0,0,0,0,0,0,0,0,0,0,0,0,0,0,0,0,0,0,0,0,0,0,0,0,0,0,0,0,0,0,0,0,0,0,0,0,0,0,0,0,0,0,0,0,0,0,0,0,0,0,0,0,0,
0,0,0,0,0,0,0,0,0,0,0,0,0,0,0,0,0,0,0,0,0,0,0,0,0,0,0,0,0,0,0,0,0,0,0,0,0,0,0,0,0,0,0,0,0,0,0,0,0,0,0,0,0,0,0,0,0,0,0,0,0,0,0,0,0,0,0,0,0,0,0,0,0,0,0,0,0,0,0,0,0,0,0,0,0,0,0,0,0,0,0,0,0,0,0,0,0,0,0,0,0,0,0,0,0,0,0,0,0,0,0,0,0,0,0,0,0,0,0,0,0,0,0,0,0,0,0,0,
0,0,0,0,0,0,0,0,0,0,0,0,0,0,0,0,0,0,0,0,0,0,0,0,0,0,0,0,0,0,0,0,0,0,0,0,0,0,0,0,0,0,0,0,0,0,0,0,0,0,0,0,0,0,0,0,0,0,0,0,0,0,0,0,0,0,0,0,0,0,0,0,0,0,0,0,0,0,0,0,0,0,0,0,0,0,0,0,0,0,0,0,0,0,0,0,0,0,0,0,0,0,0,0,0,0,0,0,0,0,0,0,0,0,0,0,0,0,0,0,0,0,0,0,0,0,0,0,
0,0,0,0,0,0,0,0,0,0,0,0,0,0,0,0,0,0,0,0,0,0,0,0,0,0,0,0,0,0,0,0,0,0,0,0,0,0,0,0,0,0,0,0,0,0,0,0,0,0,0,0,0,0,0,0,0,0,0,0,0,0,0,0,0,0,0,0,0,0,0,0,0,0,0,0,0,0,0,0,0,0,0,0,0,0,0,0,0,0,0,0,0,0,0,0,0,0,0,0,0,0,0,0,0,0,0,0,0,0,0,0,0,0,0,0,0,0,0,0,0,0,0,0,0,0,0,0,
0,0,0,0,0,0,0,0,0,0,0,0,0,0,0,0,0,0,0,0,0,0,0,0,0,0,0,0,0,0,0,0,0,0,0,0,0,0,0,0,0,0,0,0,0,0,0,0,0,0,0,0,0,0,0,0,0,0,0,0,0,0,0,0,0,0,0,0,0,0,0,0,0,0,0,0,0,0,0,0,0,0,0,0,0,0,0,0,0,0,0,0,0,0,0,0,0,0,0,0,0,0,0,0,0,0,0,0,0,0,0,0,0,0,0,0,0,0,0,0,0,0,0,0,0,0,0,0,
0,0,0,0,0,0,0,0,0,0,0,0,0,0,0,0,0,0,0,0,0,0,0,0,0,0,0,0,0,0,0,0,0,0,0,0,0,0,0,0,0,0,0,0,0,0,0,0,0,0,0,0,0,0,0,0,0,0,0,0,0,0,0,0,0,0,0,0,0,0,0,0,0,0,0,0,0,0,0,0,0,0,0,0,0,0,0,0,0,0,0,0,0,0,0,0,0,0,0,0,0,0,0,0,0,0,0,0,0,0,0,0,0,0,0,0,0,0,0,0,0,0,0,0,0,0,0,0,
0,0,0,0,0,0,0,0,0,0,0,0,0,0,0,0,0,0,0,0,0,0,0,0,0,0,0,0,0,0,0,0,0,0,0,0,0,0,0,0,0,0,0,0,0,0,0,0,0,0,0,0,0,0,0,0,0,0,0,0,0,0,0,0,0,0,0,0,0,0,0,0,0,0,0,0,0,0,0,0,0,0,0,0,0,0,0,0,0,0,0,0,0,0,0,0,0,0,0,0,0,0,0,0,0,0,0,0,0,0,0,0,0,0,0,0,0,0,0,0,0,0,0,0,0,0,0,0,
0,0,0,0,0,0,0,0,0,0,0,0,0,0,0,0,0,0,0,0,0,0,0,0,0,0,0,0,0,0,0,0,0,0,0,0,0,0,0,0,0,0,0,0,0,0,0,0,0,0,0,0,0,0,0,0,0,0,0,0,0,0,0,0,0,0,0,0,0,0,0,0,0,0,0,0,0,0,0,0,0,0,0,0,0,0,0,0,0,0,0,0,0,0,0,0,0,0,0,0,0,0,0,0,0,0,0,0,0,0,0,0,0,0,0,0,0,0,0,0,0,0,0,0,0,0,0,0,
0,0,0,0,0,0,0,0,0,0,0,0,0,0,0,0,0,0,0,0,0,0,0,0,0,0,0,0,0,0,0,0,0,0,0,0,0,0,0,0,0,0,0,0,0,0,0,0,0,0,0,0,0,0,0,0,0,0,0,0,0,0,0,0,0,0,0,0,0,0,0,0,0,0,0,0,0,0,0,0,0,0,0,0,0,0,0,0,0,0,0,0,0,0,0,0,0,0,0,0,0,0,0,0,0,0,0,0,0,0,0,0,0,0,0,0,0,0,0,0,0,0,0,0,0,0,0,0,
0,0,0,0,0,0,0,0,0,0,0,0,0,0,0,0,0,0,0,0,0,0,0,0,0,0,0,0,0,0,0,0,0,0,0,0,0,0,0,0,0,0,0,0,0,0,0,0,0,0,0,0,0,0,0,0,0,0,0,0,0,0,0,0,0,0,0,0,0,0,0,0,0,0,0,0,0,0,0,0,0,0,0,0,0,0,0,0,0,0,0,0,0,0,0,0,0,0,0,0,0,0,0,0,0,0,0,0,0,0,0,0,0,0,0,0,0,0,0,0,0,0,0,0,0,0,0,0,
0,0,0,0,0,0,0,0,0,0,0,0,0,0,0,0,0,0,0,0,0,0,0,0,0,0,0,0,0,0,0,0,0,0,0,0,0,0,0,0,0,0,0,0,0,0,0,0,0,0,0,0,0,0,0,0,0,0,0,0,0,0,0,0,0,0,0,0,0,0,0,0,0,0,0,0,0,0,0,0,0,0,0,0,0,0,0,0,0,0,0,0,0,0,0,0,0,0,0,0,0,0,0,0,0,0,0,0,0,0,0,0,0,0,0,0,0,0,0,0,0,0,0,0,0,0,0,0,
0,0,0,0,0,0,0,0,0,0,0,0,0,0,0,0,0,0,0,0,0,0,0,0,0,0,0,0,0,0,0,0,0,0,0,0,0,0,0,0,0,0,0,0,0,0,0,0,0,0,0,0,0,0,0,0,0,0,0,0,0,0,0,0,0,0,0,0,0,0,0,0,0,0,0,0,0,0,0,0,0,0,0,0,0,0,0,0,0,0,0,0,0,0,0,0,0,0,0,0,0,0,0,0,0,0,0,0,0,0,0,0,0,0,0,0,0,0,0,0,0,0,0,0,0,0,0,0,
0,0,0,0,0,0,0,0,0,0,0,0,0,0,0,0,0,0,0,0,0,0,0,0,0,0,0,0,0,0,0,0,0,0,0,0,0,0,0,0,0,0,0,0,0,0,0,0,0,0,0,0,0,0,0,0,0,0,0,0,0,0,0,0,0,0,0,0,0,0,0,0,0,0,0,0,0,0,0,0,0,0,0,0,0,0,0,0,0,0,0,0,0,0,0,0,0,0,0,0,0,0,0,0,0,0,0,0,0,0,0,0,0,0,0,0,0,0,0,0,0,0,0,0,0,0,0,0,
0,0,0,0,0,0,0,0,0,0,0,0,0,0,0,0,0,0,0,0,0,0,0,0,0,0,0,0,0,0,0,0,0,0,0,0,0,0,0,0,0,0,0,0,0,0,0,0,0,0,0,0,0,0,0,0,0,0,0,0,0,0,0,0,0,0,0,0,0,0,0,0,0,0,0,0,0,0,0,0,0,0,0,0,0,0,0,0,0,0,0,0,0,0,0,0,0,0,0,0,0,0,0,0,0,0,0,0,0,0,0,0,0,0,0,0,0,0,0,0,0,0,0,0,0,0,0,0,
0,0,0,0,0,0,0,0,0,0,0,0,0,0,0,0,0,0,0,0,0,0,0,0,0,0,0,0,0,0,0,0,0,0,0,0,0,0,0,0,0,0,0,0,0,0,0,0,0,0,0,0,0,0,0,0,0,0,0,0,0,0,0,0,0,0,0,0,0,0,0,0,0,0,0,0,0,0,0,0,0,0,0,0,0,0,0,0,0,0,0,0,0,0,0,0,0,0,0,0,0,0,0,0,0,0,0,0,0,0,0,0,0,0,0,0,0,0,0,0,0,0,0,0,0,0,0,0,
0,0,0,0,0,0,0,0,0,0,0,0,0,0,0,0,0,0,0,0,0,0,0,0,0,0,0,0,0,0,0,0,0,0,0,0,0,0,0,0,0,0,0,0,0,0,0,0,0,0,0,0,0,0,0,0,0,0,0,0,0,0,0,0,0,0,0,0,0,0,0,0,0,0,0,0,0,0,0,0,0,0,0,0,0,0,0,0,0,0,0,0,0,0,0,0,0,0,0,0,0,0,0,0,0,0,0,0,0,0,0,0,0,0,0,0,0,0,0,0,0,0,0,0,0,0,0,0,
0,0,0,0,0,0,0,0,0,0,0,0,0,0,0,0,0,0,0,0,0,0,0,0,0,0,0,0,0,0,0,0,0,0,0,0,0,0,0,0,0,0,0,0,0,0,0,0,0,0,0,0,0,0,0,0,0,0,0,0,0,0,0,0,0,0,0,0,0,0,0,0,0,0,0,0,0,0,0,0,0,0,0,0,0,0,0,0,0,0,0,0,0,0,0,0,0,0,0,0,0,0,0,0,0,0,0,0,0,0,0,0,0,0,0,0,0,0,0,0,0,0,0,0,0,0,0,0,
0,0,0,0,0,0,0,0,0,0,0,0,0,0,0,0,0,0,0,0,0,0,0,0,0,0,0,0,0,0,0,0,0,0,0,0,0,0,0,0,0,0,0,0,0,0,0,0,0,0,0,0,0,0,0,0,0,0,0,0,0,0,0,0,0,0,0,0,0,0,0,0,0,0,0,0,0,0,0,0,0,0,0,0,0,0,0,0,0,0,0,0,0,0,0,0,0,0,0,0,0,0,0,0,0,0,0,0,0,0,0,0,0,0,0,0,0,0,0,0,0,0,0,0,0,0,0,0,
0,0,0,0,0,0,0,0,0,0,0,0,0,0,0,0,0,0,0,0,0,0,0,0,0,0,0,0,0,0,0,0,0,0,0,0,0,0,0,0,0,0,0,0,0,0,0,0,0,0,0,0,0,0,0,0,0,0,0,0,0,0,0,0,0,0,0,0,0,0,0,0,0,0,0,0,0,0,0,0,0,0,0,0,0,0,0,0,0,0,0,0,0,0,0,0,0,0,0,0,0,0,0,0,0,0,0,0,0,0,0,0,0,0,0,0,0,0,0,0,0,0,0,0,0,0,0,0,
0,0,0,0,0,0,0,0,0,0,0,0,0,0,0,0,0,0,0,0,0,0,0,0,0,0,0,0,0,0,0,0,0,0,0,0,0,0,0,0,0,0,0,0,0,0,0,0,0,0,0,0,0,0,0,0,0,0,0,0,0,0,0,0,0,0,0,0,0,0,0,0,0,0,0,0,0,0,0,0,0,0,0,0,0,0,0,0,0,0,0,0,0,0,0,0,0,0,0,0,0,0,0,0,0,0,0,0,0,0,0,0,0,0,0,0,0,0,0,0,0,0,0,0,0,0,0,0,
0,0,0,0,0,0,0,0,0,0,0,0,0,0,0,0,0,0,0,0,0,0,0,0,0,0,0,0,0,0,0,0,0,0,0,0,0,0,0,0,0,0,0,0,0,0,0,0,0,0,0,0,0,0,0,0,0,0,0,0,0,0,0,0,0,0,0,0,0,0,0,0,0,0,0,0,0,0,0,0,0,0,0,0,0,0,0,0,0,0,0,0,0,0,0,0,0,0,0,0,0,0,0,0,0,0,0,0,0,0,0,0,0,0,0,0,0,0,0,0,0,0,0,0,0,0,0,0,
0,0,0,0,0,0,0,0,0,0,0,0,0,0,0,0,0,0,0,0,0,0,0,0,0,0,0,0,0,0,0,0,0,0,0,0,0,0,0,0,0,0,0,0,0,0,0,0,0,0,0,0,0,0,0,0,0,0,0,0,0,0,0,0,0,0,0,0,0,0,0,0,0,0,0,0,0,0,0,0,0,0,0,0,0,0,0,0,0,0,0,0,0,0,0,0,0,0,0,0,0,0,0,0,0,0,0,0,0,0,0,0,0,0,0,0,0,0,0,0,0,0,0,0,0,0,0,0,
0,0,0,0,0,0,0,0,0,0,0,0,0,0,0,0,0,0,0,0,0,0,0,0,0,0,0,0,0,0,0,0,0,0,0,0,0,0,0,0,0,0,0,0,0,0,0,0,0,0,0,0,0,0,0,0,0,0,0,0,0,0,0,0,0,0,0,0,0,0,0,0,0,0,0,0,0,0,0,0,0,0,0,0,0,0,0,0,0,0,0,0,0,0,0,0,0,0,0,0,0,0,0,0,0,0,0,0,0,0,0,0,0,0,0,0,0,0,0,0,0,0,0,0,0,0,0,0,
0,0,0,0,0,0,0,0,0,0,0,0,0,0,0,0,0,0,0,0,0,0,0,0,0,0,0,0,0,0,0,0,0,0,0,0,0,0,0,0,0,0,0,0,0,0,0,0,0,0,0,0,0,0,0,0,0,0,0,0,0,0,0,0,0,0,0,0,0,0,0,0,0,0,0,0,0,0,0,0,0,0,0,0,0,0,0,0,0,0,0,0,0,0,0,0,0,0,0,0,0,0,0,0,0,0,0,0,0,0,0,0,0,0,0,0,0,0,0,0,0,0,0,0,0,0,0,0,
0,0,0,0,0,0,0,0,0,0,0,0,0,0,0,0,0,0,0,0,0,0,0,0,0,0,0,0,0,0,0,0,0,0,0,0,0,0,0,0,0,0,0,0,0,0,0,0,0,0,0,0,0,0,0,0,0,0,0,0,0,0,0,0,0,0,0,0,0,0,0,0,0,0,0,0,0,0,0,0,0,0,0,0,0,0,0,0,0,0,0,0,0,0,0,0,0,0,0,0,0,0,0,0,0,0,0,0,0,0,0,0,0,0,0,0,0,0,0,0,0,0,0,0,0,0,0,0,
0,0,0,0,0,0,0,0,0,0,0,0,0,0,0,0,0,0,0,0,0,0,0,0,0,0,0,0,0,0,0,0,0,0,0,0,0,0,0,0,0,0,0,0,0,0,0,0,0,0,0,0,0,0,0,0,0,0,0,0,0,0,0,0,0,0,0,0,0,0,0,0,0,0,0,0,0,0,0,0,0,0,0,0,0,0,0,0,0,0,0,0,0,0,0,0,0,0,0,0,0,0,0,0,0,0,0,0,0,0,0,0,0,0,0,0,0,0,0,0,0,0,0,0,0,0,0,0,
0,0,0,0,0,0,0,0,0,0,0,0,0,0,0,0,0,0,0,0,0,0,0,0,0,0,0,0,0,0,0,0,0,0,0,0,0,0,0,0,0,0,0,0,0,0,0,0,0,0,0,0,0,0,0,0,0,0,0,0,0,0,0,0,0,0,0,0,0,0,0,0,0,0,0,0,0,0,0,0,0,0,0,0,0,0,0,0,0,0,0,0,0,0,0,0,0,0,0,0,0,0,0,0,0,0,0,0,0,0,0,0,0,0,0,0,0,0,0,0,0,0,0,0,0,0,0,0,
0,0,0,0,0,0,0,0,0,0,0,0,0,0,0,0,0,0,0,0,0,0,0,0,0,0,0,0,0,0,0,0,0,0,0,0,0,0,0,0,0,0,0,0,0,0,0,0,0,0,0,0,0,0,0,0,0,0,0,0,0,0,0,0,0,0,0,0,0,0,0,0,0,0,0,0,0,0,0,0,0,0,0,0,0,0,0,0,0,0,0,0,0,0,0,0,0,0,0,0,0,0,0,0,0,0,0,0,0,0,0,0,0,0,0,0,0,0,0,0,0,0,0,0,0,0,0,0,
0,0,0,0,0,0,0,0,0,0,0,0,0,0,0,0,0,0,0,0,0,0,0,0,0,0,0,0,0,0,0,0,0,0,0,0,0,0,0,0,0,0,0,0,0,0,0,0,0,0,0,0,0,0,0,0,0,0,0,0,0,0,0,0,0,0,0,0,0,0,0,0,0,0,0,0,0,0,0,0,0,0,0,0,0,0,0,0,0,0,0,0,0,0,0,0,0,0,0,0,0,0,0,0,0,0,0,0,0,0,0,0,0,0,0,0,0,0,0,0,0,0,0,0,0,0,0,0,
0,0,0,0,0,0,0,0,0,0,0,0,0,0,0,0,0,0,0,0,0,0,0,0,0,0,0,0,0,0,0,0,0,0,0,0,0,0,0,0,0,0,0,0,0,0,0,0,0,0,0,0,0,0,0,0,0,0,0,0,0,0,0,0,0,0,0,0,0,0,0,0,0,0,0,0,0,0,0,0,0,0,0,0,0,0,0,0,0,0,0,0,0,0,0,0,0,0,0,0,0,0,0,0,0,0,0,0,0,0,0,0,0,0,0,0,0,0,0,0,0,0,0,0,0,0,0,0,
0,0,0,0,0,0,0,0,0,0,0,0,0,0,0,0,0,0,0,0,0,0,0,0,0,0,0,0,0,0,0,0,0,0,0,0,0,0,0,0,0,0,0,0,0,0,0,0,0,0,0,0,0,0,0,0,0,0,0,0,0,0,0,0,0,0,0,0,0,0,0,0,0,0,0,0,0,0,0,0,0,0,0,0,0,0,0,0,0,0,0,0,0,0,0,0,0,0,0,0,0,0,0,0,0,0,0,0,0,0,0,0,0,0,0,0,0,0,0,0,0,0,0,0,0,0,0,0,
0,0,0,0,0,0,0,0,0,0,0,0,0,0,0,0,0,0,0,0,0,0,0,0,0,0,0,0,0,0,0,0,0,0,0,0,0,0,0,0,0,0,0,0,0,0,0,0,0,0,0,0,0,0,0,0,0,0,0,0,0,0,0,0,0,0,0,0,0,0,0,0,0,0,0,0,0,0,0,0,0,0,0,0,0,0,0,0,0,0,0,0,0,0,0,0,0,0,0,0,0,0,0,0,0,0,0,0,0,0,0,0,0,0,0,0,0,0,0,0,0,0,0,0,0,0,0,0,
0,0,0,0,0,0,0,0,0,0,0,0,0,0,0,0,0,0,0,0,0,0,0,0,0,0,0,0,0,0,0,0,0,0,0,0,0,0,0,0,0,0,0,0,0,0,0,0,0,0,0,0,0,0,0,0,0,0,0,0,0,0,0,0,0,0,0,0,0,0,0,0,0,0,0,0,0,0,0,0,0,0,0,0,0,0,0,0,0,0,0,0,0,0,0,0,0,0,0,0,0,0,0,0,0,0,0,0,0,0,0,0,0,0,0,0,0,0,0,0,0,0,0,0,0,0,0,0,
0,0,0,0,0,0,0,0,0,0,0,0,0,0,0,0,0,0,0,0,0,0,0,0,0,0,0,0,0,0,0,0,0,0,0,0,0,0,0,0,0,0,0,0,0,0,0,0,0,0,0,0,0,0,0,0,0,0,0,0,0,0,0,0,0,0,0,0,0,0,0,0,0,0,0,0,0,0,0,0,0,0,0,0,0,0,0,0,0,0,0,0,0,0,0,0,0,0,0,0,0,0,0,0,0,0,0,0,0,0,0,0,0,0,0,0,0,0,0,0,0,0,0,0,0,0,0,0,
0,0,0,0,0,0,0,0,0,0,0,0,0,0,0,0,0,0,0,0,0,0,0,0,0,0,0,0,0,0,0,0,0,0,0,0,0,0,0,0,0,0,0,0,0,0,0,0,0,0,0,0,0,0,0,0,0,0,0,0,0,0,0,0,0,0,0,0,0,0,0,0,0,0,0,0,0,0,0,0,0,0,0,0,0,0,0,0,0,0,0,0,0,0,0,0,0,0,0,0,0,0,0,0,0,0,0,0,0,0,0,0,0,0,0,0,0,0,0,0,0,0,0,0,0,0,0,0,
0,0,0,0,0,0,0,0,0,0,0,0,0,0,0,0,0,0,0,0,0,0,0,0,0,0,0,0,0,0,0,0,0,0,0,0,0,0,0,0,0,0,0,0,0,0,0,0,0,0,0,0,0,0,0,0,0,0,0,0,0,0,0,0,0,0,0,0,0,0,0,0,0,0,0,0,0,0,0,0,0,0,0,0,0,0,0,0,0,0,0,0,0,0,0,0,0,0,0,0,0,0,0,0,0,0,0,0,0,0,0,0,0,0,0,0,0,0,0,0,0,0,0,0,0,0,0,0,
0,0,0,0,0,0,0,0,0,0,0,0,0,0,0,0,0,0,0,0,0,0,0,0,0,0,0,0,0,0,0,0,0,0,0,0,0,0,0,0,0,0,0,0,0,0,0,0,0,0,0,0,0,0,0,0,0,0,0,0,0,0,0,0,0,0,0,0,0,0,0,0,0,0,0,0,0,0,0,0,0,0,0,0,0,0,0,0,0,0,0,0,0,0,0,0,0,0,0,0,0,0,0,0,0,0,0,0,0,0,0,0,0,0,0,0,0,0,0,0,0,0,0,0,0,0,0,0,
0,0,0,0,0,0,0,0,0,0,0,0,0,0,0,0,0,0,0,0,0,0,0,0,0,0,0,0,0,0,0,0,0,0,0,0,0,0,0,0,0,0,0,0,0,0,0,0,0,0,0,0,0,0,0,0,0,0,0,0,0,0,0,0,0,0,0,0,0,0,0,0,0,0,0,0,0,0,0,0,0,0,0,0,0,0,0,0,0,0,0,0,0,0,0,0,0,0,0,0,0,0,0,0,0,0,0,0,0,0,0,0,0,0,0,0,0,0,0,0,0,0,0,0,0,0,0,0,
0,0,0,0,0,0,0,0,0,0,0,0,0,0,0,0,0,0,0,0,0,0,0,0,0,0,0,0,0,0,0,0,0,0,0,0,0,0,0,0,0,0,0,0,0,0,0,0,0,0,0,0,0,0,0,0,0,0,0,0,0,0,0,0,0,0,0,0,0,0,0,0,0,0,0,0,0,0,0,0,0,0,0,0,0,0,0,0,0,0,0,0,0,0,0,0,0,0,0,0,0,0,0,0,0,0,0,0,0,0,0,0,0,0,0,0,0,0,0,0,0,0,0,0,0,0,0,0,
0,0,0,0,0,0,0,0,0,0,0,0,0,0,0,0,0,0,0,0,0,0,0,0,0,0,0,0,0,0,0,0,0,0,0,0,0,0,0,0,0,0,0,0,0,0,0,0,0,0,0,0,0,0,0,0,0,0,0,0,0,0,0,0,0,0,0,0,0,0,0,0,0,0,0,0,0,0,0,0,0,0,0,0,0,0,0,0,0,0,0,0,0,0,0,0,0,0,0,0,0,0,0,0,0,0,0,0,0,0,0,0,0,0,0,0,0,0,0,0,0,0,0,0,0,0,0,0,
0,0,0,0,0,0,0,0,0,0,0,0,0,0,0,0,0,0,0,0,0,0,0,0,0,0,0,0,0,0,0,0,0,0,0,0,0,0,0,0,0,0,0,0,0,0,0,0,0,0,0,0,0,0,0,0,0,0,0,0,0,0,0,0,0,0,0,0,0,0,0,0,0,0,0,0,0,0,0,0,0,0,0,0,0,0,0,0,0,0,0,0,0,0,0,0,0,0,0,0,0,0,0,0,0,0,0,0,0,0,0,0,0,0,0,0,0,0,0,0,0,0,0,0,0,0,0,0,
0,0,0,0,0,0,0,0,0,0,0,0,0,0,0,0,0,0,0,0,0,0,0,0,0,0,0,0,0,0,0,0,0,0,0,0,0,0,0,0,0,0,0,0,0,0,0,0,0,0,0,0,0,0,0,0,0,0,0,0,0,0,0,0,0,0,0,0,0,0,0,0,0,0,0,0,0,0,0,0,0,0,0,0,0,0,0,0,0,0,0,0,0,0,0,0,0,0,0,0,0,0,0,0,0,0,0,0,0,0,0,0,0,0,0,0,0,0,0,0,0,0,0,0,0,0,0,0,
0,0,0,0,0,0,0,0,0,0,0,0,0,0,0,0,0,0,0,0,0,0,0,0,0,0,0,0,0,0,0,0,0,0,0,0,0,0,0,0,0,0,0,0,0,0,0,0,0,0,0,0,0,0,0,0,0,0,0,0,0,0,0,0,0,0,0,0,0,0,0,0,0,0,0,0,0,0,0,0,0,0,0,0,0,0,0,0,0,0,0,0,0,0,0,0,0,0,0,0,0,0,0,0,0,0,0,0,0,0,0,0,0,0,0,0,0,0,0,0,0,0,0,0,0,0,0,0,
0,0,0,0,0,0,0,0,0,0,0,0,0,0,0,0,0,0,0,0,0,0,0,0,0,0,0,0,0,0,0,0,0,0,0,0,0,0,0,0,0,0,0,0,0,0,0,0,0,0,0,0,0,0,0,0,0,0,0,0,0,0,0,0,0,0,0,0,0,0,0,0,0,0,0,0,0,0,0,0,0,0,0,0,0,0,0,0,0,0,0,0,0,0,0,0,0,0,0,0,0,0,0,0,0,0,0,0,0,0,0,0,0,0,0,0,0,0,0,0,0,0,0,0,0,0,0,0,
0,0,0,0,0,0,0,0,0,0,0,0,0,0,0,0,0,0,0,0,0,0,0,0,0,0,0,0,0,0,0,0,0,0,0,0,0,0,0,0,0,0,0,0,0,0,0,0,0,0,0,0,0,0,0,0,0,0,0,0,0,0,0,0,0,0,0,0,0,0,0,0,0,0,0,0,0,0,0,0,0,0,0,0,0,0,0,0,0,0,0,0,0,0,0,0,0,0,0,0,0,0,0,0,0,0,0,0,0,0,0,0,0,0,0,0,0,0,0,0,0,0,0,0,0,0,0,0,
0,0,0,0,0,0,0,0,0,0,0,0,0,0,0,0,0,0,0,0,0,0,0,0,0,0,0,0,0,0,0,0,0,0,0,0,0,0,0,0,0,0,0,0,0,0,0,0,0,0,0,0,0,0,0,0,0,0,0,0,0,0,0,0,0,0,0,0,0,0,0,0,0,0,0,0,0,0,0,0,0,0,0,0,0,0,0,0,0,0,0,0,0,0,0,0,0,0,0,0,0,0,0,0,0,0,0,0,0,0,0,0,0,0,0,0,0,0,0,0,0,0,0,0,0,0,0,0,
0,0,0,0,0,0,0,0,0,0,0,0,0,0,0,0,0,0,0,0,0,0,0,0,0,0,0,0,0,0,0,0,0,0,0,0,0,0,0,0,0,0,0,0,0,0,0,0,0,0,0,0,0,0,0,0,0,0,0,0,0,0,0,0,0,0,0,0,0,0,0,0,0,0,0,0,0,0,0,0,0,0,0,0,0,0,0,0,0,0,0,0,0,0,0,0,0,0,0,0,0,0,0,0,0,0,0,0,0,0,0,0,0,0,0,0,0,0,0,0,0,0,0,0,0,0,0,0,
0,0,0,0,0,0,0,0,0,0,0,0,0,0,0,0,0,0,0,0,0,0,0,0,0,0,0,0,0,0,0,0,0,0,0,0,0,0,0,0,0,0,0,0,0,0,0,0,0,0,0,0,0,0,0,0,0,0,0,0,0,0,0,0,0,0,0,0,0,0,0,0,0,0,0,0,0,0,0,0,0,0,0,0,0,0,0,0,0,0,0,0,0,0,0,0,0,0,0,0,0,0,0,0,0,0,0,0,0,0,0,0,0,0,0,0,0,0,0,0,0,0,0,0,0,0,0,0,
0,0,0,0,0,0,0,0,0,0,0,0,0,0,0,0,0,0,0,0,0,0,0,0,0,0,0,0,0,0,0,0,0,0,0,0,0,0,0,0,0,0,0,0,0,0,0,0,0,0,0,0,0,0,0,0,0,0,0,0,0,0,0,0,0,0,0,0,0,0,0,0,0,0,0,0,0,0,0,0,0,0,0,0,0,0,0,0,0,0,0,0,0,0,0,0,0,0,0,0,0,0,0,0,0,0,0,0,0,0,0,0,0,0,0,0,0,0,0,0,0,0,0,0,0,0,0,0,
0,0,0,0,0,0,0,0,0,0,0,0,0,0,0,0,0,0,0,0,0,0,0,0,0,0,0,0,0,0,0,0,0,0,0,0,0,0,0,0,0,0,0,0,0,0,0,0,0,0,0,0,0,0,0,0,0,0,0,0,0,0,0,0,0,0,0,0,0,0,0,0,0,0,0,0,0,0,0,0,0,0,0,0,0,0,0,0,0,0,0,0,0,0,0,0,0,0,0,0,0,0,0,0,0,0,0,0,0,0,0,0,0,0,0,0,0,0,0,0,0,0,0,0,0,0,0,0,
0,0,0,0,0,0,0,0,0,0,0,0,0,0,0,0,0,0,0,0,0,0,0,0,0,0,0,0,0,0,0,0,0,0,0,0,0,0,0,0,0,0,0,0,0,0,0,0,0,0,0,0,0,0,0,0,0,0,0,0,0,0,0,0,0,0,0,0,0,0,0,0,0,0,0,0,0,0,0,0,0,0,0,0,0,0,0,0,0,0,0,0,0,0,0,0,0,0,0,0,0,0,0,0,0,0,0,0,0,0,0,0,0,0,0,0,0,0,0,0,0,0,0,0,0,0,0,0,
0,0,0,0,0,0,0,0,0,0,0,0,0,0,0,0,0,0,0,0,0,0,0,0,0,0,0,0,0,0,0,0,0,0,0,0,0,0,0,0,0,0,0,0,0,0,0,0,0,0,0,0,0,0,0,0,0,0,0,0,0,0,0,0,0,0,0,0,0,0,0,0,0,0,0,0,0,0,0,0,0,0,0,0,0,0,0,0,0,0,0,0,0,0,0,0,0,0,0,0,0,0,0,0,0,0,0,0,0,0,0,0,0,0,0,0,0,0,0,0,0,0,0,0,0,0,0,0,
0,0,0,0,0,0,0,0,0,0,0,0,0,0,0,0,0,0,0,0,0,0,0,0,0,0,0,0,0,0,0,0,0,0,0,0,0,0,0,0,0,0,0,0,0,0,0,0,0,0,0,0,0,0,0,0,0,0,0,0,0,0,0,0,0,0,0,0,0,0,0,0,0,0,0,0,0,0,0,0,0,0,0,0,0,0,0,0,0,0,0,0,0,0,0,0,0,0,0,0,0,0,0,0,0,0,0,0,0,0,0,0,0,0,0,0,0,0,0,0,0,0,0,0,0,0,0,0,
0,0,0,0,0,0,0,0,0,0,0,0,0,0,0,0,0,0,0,0,0,0,0,0,0,0,0,0,0,0,0,0,0,0,0,0,0,0,0,0,0,0,0,0,0,0,0,0,0,0,0,0,0,0,0,0,0,0,0,0,0,0,0,0,0,0,0,0,0,0,0,0,0,0,0,0,0,0,0,0,0,0,0,0,0,0,0,0,0,0,0,0,0,0,0,0,0,0,0,0,0,0,0,0,0,0,0,0,0,0,0,0,0,0,0,0,0,0,0,0,0,0,0,0,0,0,0,0,
0,0,0,0,0,0,0,0,0,0,0,0,0,0,0,0,0,0,0,0,0,0,0,0,0,0,0,0,0,0,0,0,0,0,0,0,0,0,0,0,0,0,0,0,0,0,0,0,0,0,0,0,0,0,0,0,0,0,0,0,0,0,0,0,0,0,0,0,0,0,0,0,0,0,0,0,0,0,0,0,0,0,0,0,0,0,0,0,0,0,0,0,0,0,0,0,0,0,0,0,0,0,0,0,0,0,0,0,0,0,0,0,0,0,0,0,0,0,0,0,0,0,0,0,0,0,0,0,
0,0,0,0,0,0,0,0,0,0,0,0,0,0,0,0,0,0,0,0,0,0,0,0,0,0,0,0,0,0,0,0,0,0,0,0,0,0,0,0,0,0,0,0,0,0,0,0,0,0,0,0,0,0,0,0,0,0,0,0,0,0,0,0,0,0,0,0,0,0,0,0,0,0,0,0,0,0,0,0,0,0,0,0,0,0,0,0,0,0,0,0,0,0,0,0,0,0,0,0,0,0,0,0,0,0,0,0,0,0,0,0,0,0,0,0,0,0,0,0,0,0,0,0,0,0,0,0,
0,0,0,0,0,0,0,0,0,0,0,0,0,0,0,0,0,0,0,0,0,0,0,0,0,0,0,0,0,0,0,0,0,0,0,0,0,0,0,0,0,0,0,0,0,0,0,0,0,0,0,0,0,0,0,0,0,0,0,0,0,0,0,0,0,0,0,0,0,0,0,0,0,0,0,0,0,0,0,0,0,0,0,0,0,0,0,0,0,0,0,0,0,0,0,0,0,0,0,0,0,0,0,0,0,0,0,0,0,0,0,0,0,0,0,0,0,0,0,0,0,0,0,0,0,0,0,0,
0,0,0,0,0,0,0,0,0,0,0,0,0,0,0,0,0,0,0,0,0,0,0,0,0,0,0,0,0,0,0,0,0,0,0,0,0,0,0,0,0,0,0,0,0,0,0,0,0,0,0,0,0,0,0,0,0,0,0,0,0,0,0,0,0,0,0,0,0,0,0,0,0,0,0,0,0,0,0,0,0,0,0,0,0,0,0,0,0,0,0,0,0,0,0,0,0,0,0,0,0,0,0,0,0,0,0,0,0,0,0,0,0,0,0,0,0,0,0,0,0,0,0,0,0,0,0,0,
0,0,0,0,0,0,0,0,0,0,0,0,0,0,0,0,0,0,0,0,0,0,0,0,0,0,0,0,0,0,0,0,0,0,0,0,0,0,0,0,0,0,0,0,0,0,0,0,0,0,0,0,0,0,0,0,0,0,0,0,0,0,0,0,0,0,0,0,0,0,0,0,0,0,0,0,0,0,0,0,0,0,0,0,0,0,0,0,0,0,0,0,0,0,0,0,0,0,0,0,0,0,0,0,0,0,0,0,0,0,0,0,0,0,0,0,0,0,0,0,0,0,0,0,0,0,0,0,
0,0,0,0,0,0,0,0,0,0,0,0,0,0,0,0,0,0,0,0,0,0,0,0,0,0,0,0,0,0,0,0,0,0,0,0,0,0,0,0,0,0,0,0,0,0,0,0,0,0,0,0,0,0,0,0,0,0,0,0,0,0,0,0,0,0,0,0,0,0,0,0,0,0,0,0,0,0,0,0,0,0,0,0,0,0,0,0,0,0,0,0,0,0,0,0,0,0,0,0,0,0,0,0,0,0,0,0,0,0,0,0,0,0,0,0,0,0,0,0,0,0,0,0,0,0,0,0,
0,0,0,0,0,0,0,0,0,0,0,0,0,0,0,0,0,0,0,0,0,0,0,0,0,0,0,0,0,0,0,0,0,0,0,0,0,0,0,0,0,0,0,0,0,0,0,0,0,0,0,0,0,0,0,0,0,0,0,0,0,0,0,0,0,0,0,0,0,0,0,0,0,0,0,0,0,0,0,0,0,0,0,0,0,0,0,0,0,0,0,0,0,0,0,0,0,0,0,0,0,0,0,0,0,0,0,0,0,0,0,0,0,0,0,0,0,0,0,0,0,0,0,0,0,0,0,0,
0,0,0,0,0,0,0,0,0,0,0,0,0,0,0,0,0,0,0,0,0,0,0,0,0,0,0,0,0,0,0,0,0,0,0,0,0,0,0,0,0,0,0,0,0,0,0,0,0,0,0,0,0,0,0,0,0,0,0,0,0,0,0,0,0,0,0,0,0,0,0,0,0,0,0,0,0,0,0,0,0,0,0,0,0,0,0,0,0,0,0,0,0,0,0,0,0,0,0,0,0,0,0,0,0,0,0,0,0,0,0,0,0,0,0,0,0,0,0,0,0,0,0,0,0,0,0,0,
0,0,0,0,0,0,0,0,0,0,0,0,0,0,0,0,0,0,0,0,0,0,0,0,0,0,0,0,0,0,0,0,0,0,0,0,0,0,0,0,0,0,0,0,0,0,0,0,0,0,0,0,0,0,0,0,0,0,0,0,0,0,0,0,0,0,0,0,0,0,0,0,0,0,0,0,0,0,0,0,0,0,0,0,0,0,0,0,0,0,0,0,0,0,0,0,0,0,0,0,0,0,0,0,0,0,0,0,0,0,0,0,0,0,0,0,0,0,0,0,0,0,0,0,0,0,0,0,
0,0,0,0,0,0,0,0,0,0,0,0,0,0,0,0,0,0,0,0,0,0,0,0,0,0,0,0,0,0,0,0,0,0,0,0,0,0,0,0,0,0,0,0,0,0,0,0,0,0,0,0,0,0,0,0,0,0,0,0,0,0,0,0,0,0,0,0,0,0,0,0,0,0,0,0,0,0,0,0,0,0,0,0,0,0,0,0,0,0,0,0,0,0,0,0,0,0,0,0,0,0,0,0,0,0,0,0,0,0,0,0,0,0,0,0,0,0,0,0,0,0,0,0,0,0,0,0,
0,0,0,0,0,0,0,0,0,0,0,0,0,0,0,0,0,0,0,0,0,0,0,0,0,0,0,0,0,0,0,0,0,0,0,0,0,0,0,0,0,0,0,0,0,0,0,0,0,0,0,0,0,0,0,0,0,0,0,0,0,0,0,0,0,0,0,0,0,0,0,0,0,0,0,0,0,0,0,0,0,0,0,0,0,0,0,0,0,0,0,0,0,0,0,0,0,0,0,0,0,0,0,0,0,0,0,0,0,0,0,0,0,0,0,0,0,0,0,0,0,0,0,0,0,0,0,0,
0,0,0,0,0,0,0,0,0,0,0,0,0,0,0,0,0,0,0,0,0,0,0,0,0,0,0,0,0,0,0,0,0,0,0,0,0,0,0,0,0,0,0,0,0,0,0,0,0,0,0,0,0,0,0,0,0,0,0,0,0,0,0,0,0,0,0,0,0,0,0,0,0,0,0,0,0,0,0,0,0,0,0,0,0,0,0,0,0,0,0,0,0,0,0,0,0,0,0,0,0,0,0,0,0,0,0,0,0,0,0,0,0,0,0,0,0,0,0,0,0,0,0,0,0,0,0,0,
0,0,0,0,0,0,0,0,0,0,0,0,0,0,0,0,0,0,0,0,0,0,0,0,0,0,0,0,0,0,0,0,0,0,0,0,0,0,0,0,0,0,0,0,0,0,0,0,0,0,0,0,0,0,0,0,0,0,0,0,0,0,0,0,0,0,0,0,0,0,0,0,0,0,0,0,0,0,0,0,0,0,0,0,0,0,0,0,0,0,0,0,0,0,0,0,0,0,0,0,0,0,0,0,0,0,0,0,0,0,0,0,0,0,0,0,0,0,0,0,0,0,0,0,0,0,0,0,
0,0,0,0,0,0,0,0,0,0,0,0,0,0,0,0,0,0,0,0,0,0,0,0,0,0,0,0,0,0,0,0,0,0,0,0,0,0,0,0,0,0,0,0,0,0,0,0,0,0,0,0,0,0,0,0,0,0,0,0,0,0,0,0,0,0,0,0,0,0,0,0,0,0,0,0,0,0,0,0,0,0,0,0,0,0,0,0,0,0,0,0,0,0,0,0,0,0,0,0,0,0,0,0,0,0,0,0,0,0,0,0,0,0,0,0,0,0,0,0,0,0,0,0,0,0,0,0,
0,0,0,0,0,0,0,0,0,0,0,0,0,0,0,0,0,0,0,0,0,0,0,0,0,0,0,0,0,0,0,0,0,0,0,0,0,0,0,0,0,0,0,0,0,0,0,0,0,0,0,0,0,0,0,0,0,0,0,0,0,0,0,0,0,0,0,0,0,0,0,0,0,0,0,0,0,0,0,0,0,0,0,0,0,0,0,0,0,0,0,0,0,0,0,0,0,0,0,0,0,0,0,0,0,0,0,0,0,0,0,0,0,0,0,0,0,0,0,0,0,0,0,0,0,0,0,0,
0,0,0,0,0,0,0,0,0,0,0,0,0,0,0,0,0,0,0,0,0,0,0,0,0,0,0,0,0,0,0,0,0,0,0,0,0,0,0,0,0,0,0,0,0,0,0,0,0,0,0,0,0,0,0,0,0,0,0,0,0,0,0,0,0,0,0,0,0,0,0,0,0,0,0,0,0,0,0,0,0,0,0,0,0,0,0,0,0,0,0,0,0,0,0,0,0,0,0,0,0,0,0,0,0,0,0,0,0,0,0,0,0,0,0,0,0,0,0,0,0,0,0,0,0,0,0,0
</data>
 </layer>
 <objectgroup id="11" name="Object Layer 2" locked="1">
  <object id="1551" gid="1373" x="919.909" y="1330.78" width="16" height="16"/>
  <object id="1552" gid="1374" x="935.818" y="1330.75" width="16" height="16"/>
  <object id="1553" gid="1405" x="920.091" y="1346.56" width="16" height="16"/>
  <object id="1554" gid="1406" x="936.091" y="1346.56" width="16" height="16"/>
  <object id="1555" gid="1437" x="920.091" y="1362.38" width="16" height="16"/>
  <object id="1556" gid="1438" x="935.909" y="1362.02" width="16" height="16"/>
  <object id="1557" gid="1469" x="919.996" y="1378.24" width="16" height="16"/>
  <object id="1558" gid="1470" x="935.996" y="1378.02" width="16" height="16"/>
  <object id="1559" gid="1373" x="940.909" y="1387.79" width="16" height="16"/>
  <object id="1560" gid="1374" x="956.841" y="1387.76" width="16" height="16"/>
  <object id="1561" gid="1405" x="941.091" y="1403.57" width="16" height="16"/>
  <object id="1562" gid="1406" x="957.091" y="1403.57" width="16" height="16"/>
  <object id="1563" gid="1437" x="941.091" y="1419.39" width="16" height="16"/>
  <object id="1564" gid="1438" x="956.909" y="1419.03" width="16" height="16"/>
  <object id="1565" gid="1469" x="940.996" y="1435.25" width="16" height="16"/>
  <object id="1566" gid="1470" x="956.996" y="1435.03" width="16" height="16"/>
  <object id="1567" gid="1373" x="1031.41" y="1474.47" width="16" height="16"/>
  <object id="1568" gid="1374" x="1046.86" y="1474.62" width="16" height="16"/>
  <object id="1569" gid="1405" x="1031.59" y="1490.25" width="16" height="16"/>
  <object id="1570" gid="1406" x="1047.59" y="1490.25" width="16" height="16"/>
  <object id="1571" gid="1437" x="1031.59" y="1506.07" width="16" height="16"/>
  <object id="1572" gid="1438" x="1047.41" y="1505.71" width="16" height="16"/>
  <object id="1573" gid="1469" x="1031.5" y="1521.93" width="16" height="16"/>
  <object id="1574" gid="1470" x="1047.5" y="1521.71" width="16" height="16"/>
  <object id="1575" gid="1373" x="979.909" y="1454.29" width="16" height="16"/>
  <object id="1576" gid="1374" x="995.852" y="1454.38" width="16" height="16"/>
  <object id="1577" gid="1405" x="980.091" y="1470.07" width="16" height="16"/>
  <object id="1578" gid="1406" x="996.091" y="1470.07" width="16" height="16"/>
  <object id="1579" gid="1437" x="980.091" y="1485.89" width="16" height="16"/>
  <object id="1580" gid="1438" x="995.909" y="1485.53" width="16" height="16"/>
  <object id="1581" gid="1469" x="979.996" y="1501.75" width="16" height="16"/>
  <object id="1582" gid="1470" x="995.996" y="1501.53" width="16" height="16"/>
  <object id="1583" gid="1373" x="1225.24" y="1343.54" width="25.2403" height="25.2403"/>
  <object id="1584" gid="1374" x="1250.41" y="1343.5" width="25.2403" height="25.2403"/>
  <object id="1585" gid="1405" x="1225.53" y="1368.44" width="25.2403" height="25.2403"/>
  <object id="1586" gid="1406" x="1250.77" y="1368.44" width="25.2403" height="25.2403"/>
  <object id="1587" gid="1437" x="1225.53" y="1393.39" width="25.2403" height="25.2403"/>
  <object id="1588" gid="1438" x="1250.48" y="1392.82" width="25.2403" height="25.2403"/>
  <object id="1589" gid="1469" x="1225.38" y="1418.41" width="25.2403" height="25.2403"/>
  <object id="1590" gid="1470" x="1250.23" y="1417.8" width="25.2403" height="25.2403"/>
  <object id="1591" gid="1373" x="1350.95" y="1407.3" width="25.2403" height="25.2403"/>
  <object id="1592" gid="1374" x="1375.85" y="1407.38" width="25.2403" height="25.2403"/>
  <object id="1593" gid="1405" x="1351.24" y="1432.2" width="25.2403" height="25.2403"/>
  <object id="1594" gid="1406" x="1376.04" y="1432.2" width="25.2403" height="25.2403"/>
  <object id="1595" gid="1437" x="1351.24" y="1457.15" width="25.2403" height="25.2403"/>
  <object id="1596" gid="1438" x="1375.63" y="1456.58" width="25.2403" height="25.2403"/>
  <object id="1597" gid="1469" x="1351.59" y="1481.17" width="25.2403" height="25.2403"/>
  <object id="1598" gid="1470" x="1376.08" y="1481.07" width="25.2403" height="25.2403"/>
  <object id="1599" gid="1373" x="1447.28" y="1413.63" width="25.2403" height="25.2403"/>
  <object id="1600" gid="1374" x="1472.45" y="1413.59" width="25.2403" height="25.2403"/>
  <object id="1601" gid="1405" x="1447.57" y="1438.53" width="25.2403" height="25.2403"/>
  <object id="1602" gid="1406" x="1472.81" y="1438.53" width="25.2403" height="25.2403"/>
  <object id="1603" gid="1437" x="1447.57" y="1463.48" width="25.2403" height="25.2403"/>
  <object id="1604" gid="1438" x="1472.52" y="1462.91" width="25.2403" height="25.2403"/>
  <object id="1605" gid="1469" x="1447.79" y="1488.32" width="25.2403" height="25.2403"/>
  <object id="1606" gid="1470" x="1472.27" y="1487.89" width="25.2403" height="25.2403"/>
  <object id="1615" gid="1373" x="1389.78" y="1544.46" width="25.2403" height="25.2403"/>
  <object id="1616" gid="1374" x="1414.95" y="1544.42" width="25.2403" height="25.2403"/>
  <object id="1617" gid="1405" x="1390.07" y="1569.36" width="25.2403" height="25.2403"/>
  <object id="1618" gid="1406" x="1415.31" y="1569.36" width="25.2403" height="25.2403"/>
  <object id="1619" gid="1437" x="1390.07" y="1594.31" width="25.2403" height="25.2403"/>
  <object id="1620" gid="1438" x="1415.02" y="1593.74" width="25.2403" height="25.2403"/>
  <object id="1621" gid="1469" x="1389.92" y="1619.33" width="25.2403" height="25.2403"/>
  <object id="1622" gid="1470" x="1414.77" y="1618.72" width="25.2403" height="25.2403"/>
  <object id="1639" gid="1373" x="712.115" y="1196.46" width="25.2403" height="25.2403"/>
  <object id="1640" gid="1374" x="737.285" y="1196.42" width="25.2403" height="25.2403"/>
  <object id="1641" gid="1405" x="712.405" y="1221.36" width="25.2403" height="25.2403"/>
  <object id="1642" gid="1406" x="737.145" y="1221.36" width="25.2403" height="25.2403"/>
  <object id="1643" gid="1437" x="712.405" y="1246.31" width="25.2403" height="25.2403"/>
  <object id="1644" gid="1438" x="736.73" y="1245.87" width="25.2403" height="25.2403"/>
  <object id="1645" gid="1469" x="712.255" y="1271.33" width="25.2403" height="25.2403"/>
  <object id="1646" gid="1470" x="737.105" y="1270.72" width="25.2403" height="25.2403"/>
  <object id="1647" gid="1373" x="793.865" y="1125.21" width="25.2403" height="25.2403"/>
  <object id="1648" gid="1374" x="818.785" y="1125.17" width="25.2403" height="25.2403"/>
  <object id="1649" gid="1405" x="794.155" y="1150.11" width="25.2403" height="25.2403"/>
  <object id="1650" gid="1406" x="818.997" y="1150.11" width="25.2403" height="25.2403"/>
  <object id="1651" gid="1437" x="794.155" y="1175.06" width="25.2403" height="25.2403"/>
  <object id="1652" gid="1438" x="818.832" y="1174.49" width="25.2403" height="25.2403"/>
  <object id="1653" gid="1469" x="794.005" y="1200.08" width="25.2403" height="25.2403"/>
  <object id="1654" gid="1470" x="818.855" y="1199.47" width="25.2403" height="25.2403"/>
  <object id="1655" gid="1373" x="877.115" y="1145.46" width="25.2403" height="25.2403"/>
  <object id="1656" gid="1374" x="902.285" y="1145.42" width="25.2403" height="25.2403"/>
  <object id="1657" gid="1405" x="877.405" y="1170.36" width="25.2403" height="25.2403"/>
  <object id="1658" gid="1406" x="902.395" y="1170.36" width="25.2403" height="25.2403"/>
  <object id="1659" gid="1437" x="877.405" y="1195.31" width="25.2403" height="25.2403"/>
  <object id="1660" gid="1438" x="902.105" y="1194.74" width="25.2403" height="25.2403"/>
  <object id="1661" gid="1469" x="877.255" y="1220.33" width="25.2403" height="25.2403"/>
  <object id="1662" gid="1470" x="902.105" y="1219.72" width="25.2403" height="25.2403"/>
  <object id="1663" gid="1373" x="952.115" y="1182.46" width="25.2403" height="25.2403"/>
  <object id="1664" gid="1374" x="977.285" y="1182.42" width="25.2403" height="25.2403"/>
  <object id="1665" gid="1405" x="952.405" y="1207.36" width="25.2403" height="25.2403"/>
  <object id="1666" gid="1406" x="977.27" y="1207.36" width="25.2403" height="25.2403"/>
  <object id="1667" gid="1437" x="952.405" y="1232.31" width="25.2403" height="25.2403"/>
  <object id="1668" gid="1438" x="977.105" y="1231.74" width="25.2403" height="25.2403"/>
  <object id="1669" gid="1469" x="952.255" y="1257.33" width="25.2403" height="25.2403"/>
  <object id="1670" gid="1470" x="977.105" y="1256.72" width="25.2403" height="25.2403"/>
  <object id="1671" gid="1373" x="1087.96" y="1132.46" width="25.2403" height="25.2403"/>
  <object id="1672" gid="1374" x="1112.88" y="1132.42" width="25.2403" height="25.2403"/>
  <object id="1673" gid="1405" x="1088.25" y="1157.36" width="25.2403" height="25.2403"/>
  <object id="1674" gid="1406" x="1112.87" y="1157.36" width="25.2403" height="25.2403"/>
  <object id="1675" gid="1437" x="1088.25" y="1182.31" width="25.2403" height="25.2403"/>
  <object id="1676" gid="1438" x="1112.2" y="1181.49" width="25.2403" height="25.2403"/>
  <object id="1677" gid="1469" x="1088.1" y="1207.33" width="25.2403" height="25.2403"/>
  <object id="1678" gid="1470" x="1112.95" y="1206.72" width="25.2403" height="25.2403"/>
  <object id="1679" gid="1373" x="1507.79" y="1102.96" width="25.2403" height="25.2403"/>
  <object id="1680" gid="1374" x="1532.96" y="1102.92" width="25.2403" height="25.2403"/>
  <object id="1681" gid="1405" x="1508.08" y="1127.86" width="25.2403" height="25.2403"/>
  <object id="1682" gid="1406" x="1532.95" y="1127.86" width="25.2403" height="25.2403"/>
  <object id="1683" gid="1437" x="1508.08" y="1152.81" width="25.2403" height="25.2403"/>
  <object id="1684" gid="1438" x="1532.78" y="1152.24" width="25.2403" height="25.2403"/>
  <object id="1685" gid="1469" x="1507.93" y="1177.83" width="25.2403" height="25.2403"/>
  <object id="1686" gid="1470" x="1532.78" y="1177.22" width="25.2403" height="25.2403"/>
  <object id="1687" gid="1373" x="1919.46" y="1503.3" width="25.2403" height="25.2403"/>
  <object id="1688" gid="1374" x="1944.45" y="1503.26" width="25.2403" height="25.2403"/>
  <object id="1689" gid="1405" x="1919.75" y="1528.2" width="25.2403" height="25.2403"/>
  <object id="1690" gid="1406" x="1944.25" y="1528.02" width="25.2403" height="25.2403"/>
  <object id="1691" gid="1437" x="1919.75" y="1553.15" width="25.2403" height="25.2403"/>
  <object id="1692" gid="1438" x="1943.36" y="1552.58" width="25.2403" height="25.2403"/>
  <object id="1693" gid="1469" x="1919.6" y="1578.17" width="25.2403" height="25.2403"/>
  <object id="1694" gid="1470" x="1944.45" y="1577.56" width="25.2403" height="25.2403"/>
  <object id="1703" gid="1373" x="1665.46" y="1195.96" width="25.2403" height="25.2403"/>
  <object id="1704" gid="1374" x="1690.36" y="1195.92" width="25.2403" height="25.2403"/>
  <object id="1705" gid="1405" x="1665.75" y="1220.86" width="25.2403" height="25.2403"/>
  <object id="1706" gid="1406" x="1690.43" y="1220.86" width="25.2403" height="25.2403"/>
  <object id="1707" gid="1437" x="1665.75" y="1245.81" width="25.2403" height="25.2403"/>
  <object id="1708" gid="1438" x="1690.18" y="1245.24" width="25.2403" height="25.2403"/>
  <object id="1709" gid="1469" x="1665.6" y="1270.83" width="25.2403" height="25.2403"/>
  <object id="1710" gid="1470" x="1690.45" y="1270.22" width="25.2403" height="25.2403"/>
  <object id="1711" gid="1373" x="1907.63" y="1280.46" width="25.2403" height="25.2403"/>
  <object id="1712" gid="1374" x="1932.8" y="1280.42" width="25.2403" height="25.2403"/>
  <object id="1713" gid="1405" x="1907.92" y="1305.36" width="25.2403" height="25.2403"/>
  <object id="1714" gid="1406" x="1932.78" y="1305.36" width="25.2403" height="25.2403"/>
  <object id="1715" gid="1437" x="1907.92" y="1330.31" width="25.2403" height="25.2403"/>
  <object id="1716" gid="1438" x="1932.62" y="1329.74" width="25.2403" height="25.2403"/>
  <object id="1717" gid="1469" x="1907.77" y="1355.02" width="25.2403" height="25.2403"/>
  <object id="1718" gid="1470" x="1932.62" y="1354.72" width="25.2403" height="25.2403"/>
  <object id="1719" gid="1373" x="1714.79" y="955.965" width="25.2403" height="25.2403"/>
  <object id="1720" gid="1374" x="1739.96" y="955.925" width="25.2403" height="25.2403"/>
  <object id="1721" gid="1405" x="1715.08" y="980.865" width="25.2403" height="25.2403"/>
  <object id="1722" gid="1406" x="1739.95" y="980.865" width="25.2403" height="25.2403"/>
  <object id="1723" gid="1437" x="1715.08" y="1005.81" width="25.2403" height="25.2403"/>
  <object id="1724" gid="1438" x="1739.78" y="1005.24" width="25.2403" height="25.2403"/>
  <object id="1725" gid="1469" x="1714.93" y="1030.83" width="25.2403" height="25.2403"/>
  <object id="1726" gid="1470" x="1739.78" y="1030.22" width="25.2403" height="25.2403"/>
  <object id="1727" gid="1373" x="1857.13" y="785.965" width="25.2403" height="25.2403"/>
  <object id="1728" gid="1374" x="1882.3" y="785.925" width="25.2403" height="25.2403"/>
  <object id="1729" gid="1405" x="1857.42" y="810.865" width="25.2403" height="25.2403"/>
  <object id="1730" gid="1406" x="1882.28" y="810.865" width="25.2403" height="25.2403"/>
  <object id="1731" gid="1437" x="1857.42" y="835.815" width="25.2403" height="25.2403"/>
  <object id="1732" gid="1438" x="1882.12" y="835.245" width="25.2403" height="25.2403"/>
  <object id="1733" gid="1469" x="1857.27" y="860.835" width="25.2403" height="25.2403"/>
  <object id="1734" gid="1470" x="1882.12" y="860.225" width="25.2403" height="25.2403"/>
  <object id="1743" gid="1373" x="1556.13" y="812.634" width="25.2403" height="25.2403"/>
  <object id="1744" gid="1374" x="1581.3" y="812.594" width="25.2403" height="25.2403"/>
  <object id="1745" gid="1405" x="1556.42" y="837.534" width="25.2403" height="25.2403"/>
  <object id="1746" gid="1406" x="1581.29" y="837.534" width="25.2403" height="25.2403"/>
  <object id="1747" gid="1437" x="1556.42" y="862.479" width="25.2403" height="25.2403"/>
  <object id="1748" gid="1438" x="1581.12" y="861.909" width="25.2403" height="25.2403"/>
  <object id="1749" gid="1469" x="1556.27" y="887.124" width="25.2403" height="25.2403"/>
  <object id="1750" gid="1470" x="1581.12" y="886.889" width="25.2403" height="25.2403"/>
  <object id="1751" gid="1373" x="1326.79" y="1143.48" width="25.2403" height="25.2403"/>
  <object id="1752" gid="1374" x="1351.96" y="1143.44" width="25.2403" height="25.2403"/>
  <object id="1753" gid="1405" x="1327.08" y="1168.38" width="25.2403" height="25.2403"/>
  <object id="1754" gid="1406" x="1351.95" y="1168.38" width="25.2403" height="25.2403"/>
  <object id="1755" gid="1437" x="1327.08" y="1193.33" width="25.2403" height="25.2403"/>
  <object id="1756" gid="1438" x="1351.78" y="1192.76" width="25.2403" height="25.2403"/>
  <object id="1757" gid="1469" x="1326.93" y="1218.35" width="25.2403" height="25.2403"/>
  <object id="1758" gid="1470" x="1351.78" y="1217.74" width="25.2403" height="25.2403"/>
  <object id="1767" gid="1373" x="730.795" y="887.801" width="25.2403" height="25.2403"/>
  <object id="1768" gid="1374" x="755.965" y="887.761" width="25.2403" height="25.2403"/>
  <object id="1769" gid="1405" x="731.085" y="912.701" width="25.2403" height="25.2403"/>
  <object id="1770" gid="1406" x="755.955" y="912.701" width="25.2403" height="25.2403"/>
  <object id="1771" gid="1437" x="731.085" y="937.646" width="25.2403" height="25.2403"/>
  <object id="1772" gid="1438" x="755.785" y="937.076" width="25.2403" height="25.2403"/>
  <object id="1773" gid="1469" x="730.935" y="962.166" width="25.2403" height="25.2403"/>
  <object id="1774" gid="1470" x="755.785" y="962.056" width="25.2403" height="25.2403"/>
  <object id="1775" gid="1373" x="792.378" y="847.884" width="25.2403" height="25.2403"/>
  <object id="1776" gid="1374" x="817.173" y="847.969" width="25.2403" height="25.2403"/>
  <object id="1777" gid="1405" x="792.668" y="872.784" width="25.2403" height="25.2403"/>
  <object id="1778" gid="1406" x="817.163" y="872.784" width="25.2403" height="25.2403"/>
  <object id="1779" gid="1437" x="792.668" y="897.729" width="25.2403" height="25.2403"/>
  <object id="1780" gid="1438" x="817.118" y="897.659" width="25.2403" height="25.2403"/>
  <object id="1781" gid="1469" x="792.518" y="922.749" width="25.2403" height="25.2403"/>
  <object id="1782" gid="1470" x="817.368" y="922.139" width="25.2403" height="25.2403"/>
  <object id="1791" gid="1373" x="212.795" y="1004.63" width="25.2403" height="25.2403"/>
  <object id="1792" gid="1374" x="237.965" y="1004.59" width="25.2403" height="25.2403"/>
  <object id="1793" gid="1405" x="213.085" y="1029.53" width="25.2403" height="25.2403"/>
  <object id="1794" gid="1406" x="237.955" y="1029.53" width="25.2403" height="25.2403"/>
  <object id="1795" gid="1437" x="213.085" y="1054.48" width="25.2403" height="25.2403"/>
  <object id="1796" gid="1438" x="237.785" y="1053.91" width="25.2403" height="25.2403"/>
  <object id="1797" gid="1469" x="212.935" y="1079.25" width="25.2403" height="25.2403"/>
  <object id="1798" gid="1470" x="237.785" y="1078.89" width="25.2403" height="25.2403"/>
  <object id="1799" gid="1373" x="217.295" y="904.967" width="25.2403" height="25.2403"/>
  <object id="1800" gid="1374" x="242.465" y="904.927" width="25.2403" height="25.2403"/>
  <object id="1801" gid="1405" x="217.585" y="929.867" width="25.2403" height="25.2403"/>
  <object id="1802" gid="1406" x="242.455" y="929.867" width="25.2403" height="25.2403"/>
  <object id="1803" gid="1437" x="217.585" y="954.812" width="25.2403" height="25.2403"/>
  <object id="1804" gid="1438" x="242.285" y="954.242" width="25.2403" height="25.2403"/>
  <object id="1805" gid="1469" x="217.435" y="979.832" width="25.2403" height="25.2403"/>
  <object id="1806" gid="1470" x="242.285" y="979.222" width="25.2403" height="25.2403"/>
  <object id="1807" gid="1373" x="41.2948" y="725.467" width="25.2403" height="25.2403"/>
  <object id="1808" gid="1374" x="66.4649" y="725.427" width="25.2403" height="25.2403"/>
  <object id="1809" gid="1405" x="41.5848" y="750.367" width="25.2403" height="25.2403"/>
  <object id="1810" gid="1406" x="66.4549" y="750.367" width="25.2403" height="25.2403"/>
  <object id="1811" gid="1437" x="41.5848" y="775.312" width="25.2403" height="25.2403"/>
  <object id="1812" gid="1438" x="66.2849" y="774.742" width="25.2403" height="25.2403"/>
  <object id="1813" gid="1469" x="41.4349" y="800.332" width="25.2403" height="25.2403"/>
  <object id="1814" gid="1470" x="66.2849" y="799.722" width="25.2403" height="25.2403"/>
  <object id="1815" gid="1373" x="1467.29" y="808.467" width="25.2403" height="25.2403"/>
  <object id="1816" gid="1374" x="1492.46" y="808.427" width="25.2403" height="25.2403"/>
  <object id="1817" gid="1405" x="1467.58" y="833.367" width="25.2403" height="25.2403"/>
  <object id="1818" gid="1406" x="1492.45" y="833.367" width="25.2403" height="25.2403"/>
  <object id="1819" gid="1437" x="1467.58" y="858.312" width="25.2403" height="25.2403"/>
  <object id="1820" gid="1438" x="1492.28" y="857.742" width="25.2403" height="25.2403"/>
  <object id="1821" gid="1469" x="1467.43" y="883.332" width="25.2403" height="25.2403"/>
  <object id="1822" gid="1470" x="1492.28" y="882.722" width="25.2403" height="25.2403"/>
  <object id="1823" gid="1373" x="810.295" y="1504.47" width="25.2403" height="25.2403"/>
  <object id="1824" gid="1374" x="835.465" y="1504.43" width="25.2403" height="25.2403"/>
  <object id="1825" gid="1405" x="810.585" y="1529.37" width="25.2403" height="25.2403"/>
  <object id="1826" gid="1406" x="835.455" y="1529.37" width="25.2403" height="25.2403"/>
  <object id="1827" gid="1437" x="810.585" y="1554.31" width="25.2403" height="25.2403"/>
  <object id="1828" gid="1438" x="835.285" y="1553.74" width="25.2403" height="25.2403"/>
  <object id="1829" gid="1469" x="810.435" y="1579.33" width="25.2403" height="25.2403"/>
  <object id="1830" gid="1470" x="835.285" y="1578.72" width="25.2403" height="25.2403"/>
  <object id="1831" gid="1373" x="681.795" y="1508.97" width="25.2403" height="25.2403"/>
  <object id="1832" gid="1374" x="706.965" y="1508.93" width="25.2403" height="25.2403"/>
  <object id="1833" gid="1405" x="682.085" y="1533.87" width="25.2403" height="25.2403"/>
  <object id="1834" gid="1406" x="706.955" y="1533.87" width="25.2403" height="25.2403"/>
  <object id="1835" gid="1437" x="682.085" y="1558.81" width="25.2403" height="25.2403"/>
  <object id="1836" gid="1438" x="706.785" y="1558.24" width="25.2403" height="25.2403"/>
  <object id="1837" gid="1469" x="681.935" y="1583.83" width="25.2403" height="25.2403"/>
  <object id="1838" gid="1470" x="706.785" y="1583.22" width="25.2403" height="25.2403"/>
  <object id="1839" gid="1373" x="603.795" y="1504.97" width="25.2403" height="25.2403"/>
  <object id="1840" gid="1374" x="628.965" y="1504.93" width="25.2403" height="25.2403"/>
  <object id="1841" gid="1405" x="604.085" y="1529.87" width="25.2403" height="25.2403"/>
  <object id="1842" gid="1406" x="628.955" y="1529.87" width="25.2403" height="25.2403"/>
  <object id="1843" gid="1437" x="604.085" y="1554.81" width="25.2403" height="25.2403"/>
  <object id="1844" gid="1438" x="628.785" y="1554.24" width="25.2403" height="25.2403"/>
  <object id="1845" gid="1469" x="603.935" y="1579.83" width="25.2403" height="25.2403"/>
  <object id="1846" gid="1470" x="628.785" y="1579.22" width="25.2403" height="25.2403"/>
  <object id="1847" gid="1373" x="368.295" y="1343.97" width="25.2403" height="25.2403"/>
  <object id="1848" gid="1374" x="393.465" y="1343.93" width="25.2403" height="25.2403"/>
  <object id="1849" gid="1405" x="368.585" y="1368.87" width="25.2403" height="25.2403"/>
  <object id="1850" gid="1406" x="393.455" y="1368.87" width="25.2403" height="25.2403"/>
  <object id="1851" gid="1437" x="368.585" y="1393.81" width="25.2403" height="25.2403"/>
  <object id="1852" gid="1438" x="393.285" y="1393.24" width="25.2403" height="25.2403"/>
  <object id="1853" gid="1469" x="368.435" y="1418.83" width="25.2403" height="25.2403"/>
  <object id="1854" gid="1470" x="393.285" y="1418.22" width="25.2403" height="25.2403"/>
  <object id="1863" gid="1373" x="8.29485" y="1441.47" width="25.2403" height="25.2403"/>
  <object id="1864" gid="1374" x="33.4649" y="1441.43" width="25.2403" height="25.2403"/>
  <object id="1865" gid="1405" x="8.58485" y="1466.37" width="25.2403" height="25.2403"/>
  <object id="1866" gid="1406" x="33.4549" y="1466.37" width="25.2403" height="25.2403"/>
  <object id="1867" gid="1437" x="8.58485" y="1491.31" width="25.2403" height="25.2403"/>
  <object id="1868" gid="1438" x="33.2849" y="1490.74" width="25.2403" height="25.2403"/>
  <object id="1869" gid="1469" x="8.43485" y="1516.33" width="25.2403" height="25.2403"/>
  <object id="1870" gid="1470" x="33.2849" y="1515.72" width="25.2403" height="25.2403"/>
  <object id="1879" gid="1373" x="312.795" y="1529.97" width="25.2403" height="25.2403"/>
  <object id="1880" gid="1374" x="337.965" y="1529.93" width="25.2403" height="25.2403"/>
  <object id="1881" gid="1405" x="313.085" y="1554.87" width="25.2403" height="25.2403"/>
  <object id="1882" gid="1406" x="337.955" y="1554.87" width="25.2403" height="25.2403"/>
  <object id="1883" gid="1437" x="313.085" y="1579.81" width="25.2403" height="25.2403"/>
  <object id="1884" gid="1438" x="337.785" y="1579.24" width="25.2403" height="25.2403"/>
  <object id="1885" gid="1469" x="312.935" y="1604.83" width="25.2403" height="25.2403"/>
  <object id="1886" gid="1470" x="337.785" y="1604.22" width="25.2403" height="25.2403"/>
  <object id="1887" gid="1373" x="840.577" y="1433.6" width="16" height="16"/>
  <object id="1888" gid="1374" x="856.027" y="1433.75" width="16" height="16"/>
  <object id="1889" gid="1405" x="840.757" y="1449.38" width="16" height="16"/>
  <object id="1890" gid="1406" x="856.757" y="1449.38" width="16" height="16"/>
  <object id="1891" gid="1437" x="840.757" y="1465.2" width="16" height="16"/>
  <object id="1892" gid="1438" x="856.577" y="1464.84" width="16" height="16"/>
  <object id="1893" gid="1469" x="840.667" y="1481.06" width="16" height="16"/>
  <object id="1894" gid="1470" x="856.667" y="1480.84" width="16" height="16"/>
  <object id="1895" gid="1373" x="549.577" y="1364.6" width="16" height="16"/>
  <object id="1896" gid="1374" x="565.027" y="1364.75" width="16" height="16"/>
  <object id="1897" gid="1405" x="549.757" y="1380.38" width="16" height="16"/>
  <object id="1898" gid="1406" x="565.757" y="1380.38" width="16" height="16"/>
  <object id="1899" gid="1437" x="549.757" y="1396.2" width="16" height="16"/>
  <object id="1900" gid="1438" x="565.577" y="1395.84" width="16" height="16"/>
  <object id="1901" gid="1469" x="549.667" y="1412.06" width="16" height="16"/>
  <object id="1902" gid="1470" x="565.667" y="1411.84" width="16" height="16"/>
  <object id="1903" gid="1373" x="471.577" y="1321.27" width="16" height="16"/>
  <object id="1904" gid="1374" x="487.027" y="1321.42" width="16" height="16"/>
  <object id="1905" gid="1405" x="471.757" y="1337.05" width="16" height="16"/>
  <object id="1906" gid="1406" x="487.757" y="1337.05" width="16" height="16"/>
  <object id="1907" gid="1437" x="471.757" y="1352.87" width="16" height="16"/>
  <object id="1908" gid="1438" x="487.577" y="1352.51" width="16" height="16"/>
  <object id="1909" gid="1469" x="471.667" y="1368.73" width="16" height="16"/>
  <object id="1910" gid="1470" x="487.667" y="1368.51" width="16" height="16"/>
  <object id="1911" gid="1373" x="326.577" y="1299.6" width="16" height="16"/>
  <object id="1912" gid="1374" x="342.027" y="1299.75" width="16" height="16"/>
  <object id="1913" gid="1405" x="326.757" y="1315.38" width="16" height="16"/>
  <object id="1914" gid="1406" x="342.757" y="1315.38" width="16" height="16"/>
  <object id="1915" gid="1437" x="326.757" y="1331.2" width="16" height="16"/>
  <object id="1916" gid="1438" x="342.577" y="1330.84" width="16" height="16"/>
  <object id="1917" gid="1469" x="326.667" y="1347.06" width="16" height="16"/>
  <object id="1918" gid="1470" x="342.667" y="1346.84" width="16" height="16"/>
  <object id="1919" gid="1373" x="307.243" y="1032.6" width="16" height="16"/>
  <object id="1920" gid="1374" x="322.693" y="1032.75" width="16" height="16"/>
  <object id="1921" gid="1405" x="307.423" y="1048.38" width="16" height="16"/>
  <object id="1922" gid="1406" x="323.423" y="1048.38" width="16" height="16"/>
  <object id="1923" gid="1437" x="307.423" y="1064.2" width="16" height="16"/>
  <object id="1924" gid="1438" x="323.243" y="1063.84" width="16" height="16"/>
  <object id="1925" gid="1469" x="307.333" y="1080.06" width="16" height="16"/>
  <object id="1926" gid="1470" x="323.333" y="1079.84" width="16" height="16"/>
  <object id="1927" gid="1373" x="378.577" y="1031.27" width="16" height="16"/>
  <object id="1928" gid="1374" x="394.027" y="1031.42" width="16" height="16"/>
  <object id="1929" gid="1405" x="378.757" y="1047.05" width="16" height="16"/>
  <object id="1930" gid="1406" x="394.757" y="1047.05" width="16" height="16"/>
  <object id="1931" gid="1437" x="378.757" y="1062.87" width="16" height="16"/>
  <object id="1932" gid="1438" x="394.577" y="1062.51" width="16" height="16"/>
  <object id="1933" gid="1469" x="378.667" y="1078.73" width="16" height="16"/>
  <object id="1934" gid="1470" x="394.667" y="1078.51" width="16" height="16"/>
  <object id="1935" gid="1373" x="582.577" y="1080.27" width="16" height="16"/>
  <object id="1936" gid="1374" x="598.027" y="1080.42" width="16" height="16"/>
  <object id="1937" gid="1405" x="582.757" y="1096.05" width="16" height="16"/>
  <object id="1938" gid="1406" x="598.757" y="1096.05" width="16" height="16"/>
  <object id="1939" gid="1437" x="582.757" y="1111.87" width="16" height="16"/>
  <object id="1940" gid="1438" x="598.577" y="1111.51" width="16" height="16"/>
  <object id="1941" gid="1469" x="582.667" y="1127.73" width="16" height="16"/>
  <object id="1942" gid="1470" x="598.667" y="1127.51" width="16" height="16"/>
  <object id="1943" gid="1373" x="657.41" y="1127.02" width="16" height="16"/>
  <object id="1944" gid="1374" x="672.86" y="1127.17" width="16" height="16"/>
  <object id="1945" gid="1405" x="657.59" y="1142.8" width="16" height="16"/>
  <object id="1946" gid="1406" x="673.59" y="1142.8" width="16" height="16"/>
  <object id="1947" gid="1437" x="657.59" y="1158.62" width="16" height="16"/>
  <object id="1948" gid="1438" x="673.41" y="1158.26" width="16" height="16"/>
  <object id="1949" gid="1469" x="657.5" y="1174.48" width="16" height="16"/>
  <object id="1950" gid="1470" x="673.5" y="1174.26" width="16" height="16"/>
  <object id="1951" gid="1373" x="737.41" y="1129.27" width="16" height="16"/>
  <object id="1952" gid="1374" x="752.86" y="1129.42" width="16" height="16"/>
  <object id="1953" gid="1405" x="737.59" y="1145.05" width="16" height="16"/>
  <object id="1954" gid="1406" x="753.59" y="1145.05" width="16" height="16"/>
  <object id="1955" gid="1437" x="737.59" y="1160.87" width="16" height="16"/>
  <object id="1956" gid="1438" x="753.41" y="1160.51" width="16" height="16"/>
  <object id="1957" gid="1469" x="737.5" y="1176.73" width="16" height="16"/>
  <object id="1958" gid="1470" x="753.5" y="1176.51" width="16" height="16"/>
  <object id="1959" gid="1373" x="623.577" y="961.603" width="16" height="16"/>
  <object id="1960" gid="1374" x="639.027" y="961.753" width="16" height="16"/>
  <object id="1961" gid="1405" x="623.757" y="977.383" width="16" height="16"/>
  <object id="1962" gid="1406" x="639.757" y="977.383" width="16" height="16"/>
  <object id="1963" gid="1437" x="623.757" y="993.203" width="16" height="16"/>
  <object id="1964" gid="1438" x="639.577" y="992.843" width="16" height="16"/>
  <object id="1965" gid="1469" x="623.667" y="1009.06" width="16" height="16"/>
  <object id="1966" gid="1470" x="639.667" y="1008.84" width="16" height="16"/>
  <object id="1967" gid="1373" x="462.243" y="941.937" width="16" height="16"/>
  <object id="1968" gid="1374" x="477.693" y="942.087" width="16" height="16"/>
  <object id="1969" gid="1405" x="462.423" y="957.717" width="16" height="16"/>
  <object id="1970" gid="1406" x="478.423" y="957.717" width="16" height="16"/>
  <object id="1971" gid="1437" x="462.423" y="973.537" width="16" height="16"/>
  <object id="1972" gid="1438" x="478.243" y="973.177" width="16" height="16"/>
  <object id="1973" gid="1469" x="462.333" y="989.397" width="16" height="16"/>
  <object id="1974" gid="1470" x="478.333" y="989.177" width="16" height="16"/>
  <object id="1975" gid="1373" x="379.577" y="952.603" width="16" height="16"/>
  <object id="1976" gid="1374" x="395.027" y="952.753" width="16" height="16"/>
  <object id="1977" gid="1405" x="379.757" y="968.383" width="16" height="16"/>
  <object id="1978" gid="1406" x="395.757" y="968.383" width="16" height="16"/>
  <object id="1979" gid="1437" x="379.757" y="984.203" width="16" height="16"/>
  <object id="1980" gid="1438" x="395.577" y="983.843" width="16" height="16"/>
  <object id="1981" gid="1469" x="379.667" y="1000.06" width="16" height="16"/>
  <object id="1982" gid="1470" x="395.667" y="999.843" width="16" height="16"/>
  <object id="1991" gid="1373" x="444.577" y="1554.94" width="16" height="16"/>
  <object id="1992" gid="1374" x="460.027" y="1555.09" width="16" height="16"/>
  <object id="1993" gid="1405" x="444.757" y="1570.72" width="16" height="16"/>
  <object id="1994" gid="1406" x="460.757" y="1570.72" width="16" height="16"/>
  <object id="1995" gid="1437" x="444.757" y="1586.54" width="16" height="16"/>
  <object id="1996" gid="1438" x="460.577" y="1586.18" width="16" height="16"/>
  <object id="1997" gid="1469" x="444.667" y="1602.4" width="16" height="16"/>
  <object id="1998" gid="1470" x="460.667" y="1602.18" width="16" height="16"/>
  <object id="2015" gid="1373" x="1072.41" y="1331.02" width="16" height="16"/>
  <object id="2016" gid="1374" x="1087.86" y="1331.17" width="16" height="16"/>
  <object id="2017" gid="1405" x="1072.59" y="1346.8" width="16" height="16"/>
  <object id="2018" gid="1406" x="1088.59" y="1346.8" width="16" height="16"/>
  <object id="2019" gid="1437" x="1072.59" y="1362.62" width="16" height="16"/>
  <object id="2020" gid="1438" x="1088.41" y="1362.26" width="16" height="16"/>
  <object id="2021" gid="1469" x="1072.5" y="1378.48" width="16" height="16"/>
  <object id="2022" gid="1470" x="1088.5" y="1378.26" width="16" height="16"/>
  <object id="2023" gid="1373" x="1176.91" y="1160.27" width="16" height="16"/>
  <object id="2024" gid="1374" x="1192.36" y="1160.42" width="16" height="16"/>
  <object id="2025" gid="1405" x="1177.09" y="1176.05" width="16" height="16"/>
  <object id="2026" gid="1406" x="1193.09" y="1176.05" width="16" height="16"/>
  <object id="2027" gid="1437" x="1177.09" y="1191.87" width="16" height="16"/>
  <object id="2028" gid="1438" x="1192.91" y="1191.51" width="16" height="16"/>
  <object id="2029" gid="1469" x="1177" y="1207.73" width="16" height="16"/>
  <object id="2030" gid="1470" x="1193" y="1207.51" width="16" height="16"/>
  <object id="2031" gid="1373" x="1259.41" y="1159.27" width="16" height="16"/>
  <object id="2032" gid="1374" x="1274.86" y="1159.42" width="16" height="16"/>
  <object id="2033" gid="1405" x="1259.59" y="1175.05" width="16" height="16"/>
  <object id="2034" gid="1406" x="1275.59" y="1175.05" width="16" height="16"/>
  <object id="2035" gid="1437" x="1259.59" y="1190.87" width="16" height="16"/>
  <object id="2036" gid="1438" x="1275.41" y="1190.51" width="16" height="16"/>
  <object id="2037" gid="1469" x="1259.5" y="1206.73" width="16" height="16"/>
  <object id="2038" gid="1470" x="1275.5" y="1206.51" width="16" height="16"/>
  <object id="2039" gid="1373" x="1762.41" y="1172.77" width="16" height="16"/>
  <object id="2040" gid="1374" x="1777.86" y="1172.92" width="16" height="16"/>
  <object id="2041" gid="1405" x="1762.59" y="1188.55" width="16" height="16"/>
  <object id="2042" gid="1406" x="1778.59" y="1188.55" width="16" height="16"/>
  <object id="2043" gid="1437" x="1762.59" y="1204.37" width="16" height="16"/>
  <object id="2044" gid="1438" x="1778.41" y="1204.01" width="16" height="16"/>
  <object id="2045" gid="1469" x="1762.5" y="1220.23" width="16" height="16"/>
  <object id="2046" gid="1470" x="1778.5" y="1220.01" width="16" height="16"/>
  <object id="2047" gid="1373" x="1838.91" y="1557.27" width="16" height="16"/>
  <object id="2048" gid="1374" x="1854.36" y="1557.42" width="16" height="16"/>
  <object id="2049" gid="1405" x="1839.09" y="1573.05" width="16" height="16"/>
  <object id="2050" gid="1406" x="1855.09" y="1573.05" width="16" height="16"/>
  <object id="2051" gid="1437" x="1839.09" y="1588.87" width="16" height="16"/>
  <object id="2052" gid="1438" x="1854.91" y="1588.51" width="16" height="16"/>
  <object id="2053" gid="1469" x="1839" y="1604.73" width="16" height="16"/>
  <object id="2054" gid="1470" x="1855" y="1604.51" width="16" height="16"/>
  <object id="2055" gid="1373" x="1499.41" y="1517.77" width="16" height="16"/>
  <object id="2056" gid="1374" x="1514.86" y="1517.92" width="16" height="16"/>
  <object id="2057" gid="1405" x="1499.59" y="1533.55" width="16" height="16"/>
  <object id="2058" gid="1406" x="1515.59" y="1533.55" width="16" height="16"/>
  <object id="2059" gid="1437" x="1499.59" y="1549.37" width="16" height="16"/>
  <object id="2060" gid="1438" x="1515.41" y="1549.01" width="16" height="16"/>
  <object id="2061" gid="1469" x="1499.5" y="1565.23" width="16" height="16"/>
  <object id="2062" gid="1470" x="1515.5" y="1565.01" width="16" height="16"/>
  <object id="2071" gid="1373" x="1607.91" y="1551.27" width="16" height="16"/>
  <object id="2072" gid="1374" x="1623.36" y="1551.42" width="16" height="16"/>
  <object id="2073" gid="1405" x="1608.09" y="1567.05" width="16" height="16"/>
  <object id="2074" gid="1406" x="1624.09" y="1567.05" width="16" height="16"/>
  <object id="2075" gid="1437" x="1608.09" y="1582.87" width="16" height="16"/>
  <object id="2076" gid="1438" x="1623.91" y="1582.51" width="16" height="16"/>
  <object id="2077" gid="1469" x="1608" y="1598.73" width="16" height="16"/>
  <object id="2078" gid="1470" x="1624" y="1598.51" width="16" height="16"/>
  <object id="2079" gid="1373" x="1581.41" y="1067.77" width="16" height="16"/>
  <object id="2080" gid="1374" x="1596.86" y="1067.92" width="16" height="16"/>
  <object id="2081" gid="1405" x="1581.59" y="1083.55" width="16" height="16"/>
  <object id="2082" gid="1406" x="1597.59" y="1083.55" width="16" height="16"/>
  <object id="2083" gid="1437" x="1581.59" y="1099.37" width="16" height="16"/>
  <object id="2084" gid="1438" x="1597.41" y="1099.01" width="16" height="16"/>
  <object id="2085" gid="1469" x="1581.5" y="1115.23" width="16" height="16"/>
  <object id="2086" gid="1470" x="1597.5" y="1115.01" width="16" height="16"/>
  <object id="2087" gid="1373" x="1801.41" y="824.27" width="16" height="16"/>
  <object id="2088" gid="1374" x="1816.86" y="824.42" width="16" height="16"/>
  <object id="2089" gid="1405" x="1801.59" y="840.05" width="16" height="16"/>
  <object id="2090" gid="1406" x="1817.59" y="840.05" width="16" height="16"/>
  <object id="2091" gid="1437" x="1801.59" y="855.87" width="16" height="16"/>
  <object id="2092" gid="1438" x="1817.41" y="855.51" width="16" height="16"/>
  <object id="2093" gid="1469" x="1801.5" y="871.73" width="16" height="16"/>
  <object id="2094" gid="1470" x="1817.5" y="871.51" width="16" height="16"/>
  <object id="2095" gid="1373" x="899.91" y="1493.27" width="16" height="16"/>
  <object id="2096" gid="1374" x="915.36" y="1493.42" width="16" height="16"/>
  <object id="2097" gid="1405" x="900.09" y="1509.05" width="16" height="16"/>
  <object id="2098" gid="1406" x="916.09" y="1509.05" width="16" height="16"/>
  <object id="2099" gid="1437" x="900.09" y="1524.87" width="16" height="16"/>
  <object id="2100" gid="1438" x="915.91" y="1524.51" width="16" height="16"/>
  <object id="2101" gid="1469" x="900" y="1540.73" width="16" height="16"/>
  <object id="2102" gid="1470" x="916" y="1540.51" width="16" height="16"/>
  <object id="2103" gid="1373" x="621.91" y="1404.27" width="16" height="16"/>
  <object id="2104" gid="1374" x="637.36" y="1404.42" width="16" height="16"/>
  <object id="2105" gid="1405" x="622.09" y="1420.05" width="16" height="16"/>
  <object id="2106" gid="1406" x="638.09" y="1420.05" width="16" height="16"/>
  <object id="2107" gid="1437" x="622.09" y="1435.87" width="16" height="16"/>
  <object id="2108" gid="1438" x="637.91" y="1435.51" width="16" height="16"/>
  <object id="2109" gid="1469" x="622" y="1451.73" width="16" height="16"/>
  <object id="2110" gid="1470" x="638" y="1451.51" width="16" height="16"/>
  <object id="2127" gid="1373" x="152.41" y="1143.27" width="16" height="16"/>
  <object id="2128" gid="1374" x="167.86" y="1143.42" width="16" height="16"/>
  <object id="2129" gid="1405" x="152.59" y="1159.05" width="16" height="16"/>
  <object id="2130" gid="1406" x="168.59" y="1159.05" width="16" height="16"/>
  <object id="2131" gid="1437" x="152.59" y="1174.87" width="16" height="16"/>
  <object id="2132" gid="1438" x="168.41" y="1174.51" width="16" height="16"/>
  <object id="2133" gid="1469" x="152.5" y="1190.73" width="16" height="16"/>
  <object id="2134" gid="1470" x="168.5" y="1190.51" width="16" height="16"/>
  <object id="2135" gid="1373" x="915.41" y="1075.27" width="16" height="16"/>
  <object id="2136" gid="1374" x="930.86" y="1075.42" width="16" height="16"/>
  <object id="2137" gid="1405" x="915.59" y="1091.05" width="16" height="16"/>
  <object id="2138" gid="1406" x="931.59" y="1091.05" width="16" height="16"/>
  <object id="2139" gid="1437" x="915.59" y="1106.87" width="16" height="16"/>
  <object id="2140" gid="1438" x="931.41" y="1106.51" width="16" height="16"/>
  <object id="2141" gid="1469" x="915.5" y="1122.73" width="16" height="16"/>
  <object id="2142" gid="1470" x="931.5" y="1122.51" width="16" height="16"/>
  <object id="2143" gid="1373" x="860.91" y="959.27" width="16" height="16"/>
  <object id="2144" gid="1374" x="876.36" y="959.42" width="16" height="16"/>
  <object id="2145" gid="1405" x="861.09" y="975.05" width="16" height="16"/>
  <object id="2146" gid="1406" x="877.09" y="975.05" width="16" height="16"/>
  <object id="2147" gid="1437" x="861.09" y="990.87" width="16" height="16"/>
  <object id="2148" gid="1438" x="876.91" y="990.51" width="16" height="16"/>
  <object id="2149" gid="1469" x="861" y="1006.73" width="16" height="16"/>
  <object id="2150" gid="1470" x="877" y="1006.51" width="16" height="16"/>
  <object id="2151" gid="1373" x="1094.91" y="823.27" width="16" height="16"/>
  <object id="2152" gid="1374" x="1110.36" y="823.42" width="16" height="16"/>
  <object id="2153" gid="1405" x="1095.09" y="839.05" width="16" height="16"/>
  <object id="2154" gid="1406" x="1111.09" y="839.05" width="16" height="16"/>
  <object id="2155" gid="1437" x="1095.09" y="854.87" width="16" height="16"/>
  <object id="2156" gid="1438" x="1110.91" y="854.51" width="16" height="16"/>
  <object id="2157" gid="1469" x="1095" y="870.73" width="16" height="16"/>
  <object id="2158" gid="1470" x="1111" y="870.51" width="16" height="16"/>
  <object id="2159" gid="1373" x="1195.41" y="808.27" width="16" height="16"/>
  <object id="2160" gid="1374" x="1210.86" y="808.42" width="16" height="16"/>
  <object id="2161" gid="1405" x="1195.59" y="824.05" width="16" height="16"/>
  <object id="2162" gid="1406" x="1211.59" y="824.05" width="16" height="16"/>
  <object id="2163" gid="1437" x="1195.59" y="839.87" width="16" height="16"/>
  <object id="2164" gid="1438" x="1211.41" y="839.51" width="16" height="16"/>
  <object id="2165" gid="1469" x="1195.5" y="855.73" width="16" height="16"/>
  <object id="2166" gid="1470" x="1211.5" y="855.51" width="16" height="16"/>
  <object id="2167" gid="1373" x="1330.91" y="807.27" width="16" height="16"/>
  <object id="2168" gid="1374" x="1346.36" y="807.42" width="16" height="16"/>
  <object id="2169" gid="1405" x="1331.09" y="823.05" width="16" height="16"/>
  <object id="2170" gid="1406" x="1347.09" y="823.05" width="16" height="16"/>
  <object id="2171" gid="1437" x="1331.09" y="838.87" width="16" height="16"/>
  <object id="2172" gid="1438" x="1346.91" y="838.51" width="16" height="16"/>
  <object id="2173" gid="1469" x="1331" y="854.73" width="16" height="16"/>
  <object id="2174" gid="1470" x="1347" y="854.51" width="16" height="16"/>
  <object id="2175" gid="1373" x="1407.91" y="738.27" width="16" height="16"/>
  <object id="2176" gid="1374" x="1423.36" y="738.42" width="16" height="16"/>
  <object id="2177" gid="1405" x="1408.09" y="754.05" width="16" height="16"/>
  <object id="2178" gid="1406" x="1424.09" y="754.05" width="16" height="16"/>
  <object id="2179" gid="1437" x="1408.09" y="769.87" width="16" height="16"/>
  <object id="2180" gid="1438" x="1423.91" y="769.51" width="16" height="16"/>
  <object id="2181" gid="1469" x="1408" y="785.73" width="16" height="16"/>
  <object id="2182" gid="1470" x="1424" y="785.51" width="16" height="16"/>
  <object id="2183" gid="1373" x="648.41" y="709.937" width="16" height="16"/>
  <object id="2184" gid="1374" x="663.86" y="710.087" width="16" height="16"/>
  <object id="2185" gid="1405" x="648.59" y="725.717" width="16" height="16"/>
  <object id="2186" gid="1406" x="664.59" y="725.717" width="16" height="16"/>
  <object id="2187" gid="1437" x="648.59" y="741.537" width="16" height="16"/>
  <object id="2188" gid="1438" x="664.41" y="741.177" width="16" height="16"/>
  <object id="2189" gid="1469" x="648.5" y="757.397" width="16" height="16"/>
  <object id="2190" gid="1470" x="664.5" y="757.177" width="16" height="16"/>
  <object id="2191" gid="1373" x="356.41" y="740.27" width="16" height="16"/>
  <object id="2192" gid="1374" x="371.86" y="740.42" width="16" height="16"/>
  <object id="2193" gid="1405" x="356.59" y="756.05" width="16" height="16"/>
  <object id="2194" gid="1406" x="372.59" y="756.05" width="16" height="16"/>
  <object id="2195" gid="1437" x="356.59" y="771.87" width="16" height="16"/>
  <object id="2196" gid="1438" x="372.41" y="771.51" width="16" height="16"/>
  <object id="2197" gid="1469" x="356.5" y="787.73" width="16" height="16"/>
  <object id="2198" gid="1470" x="372.5" y="787.51" width="16" height="16"/>
  <object id="2199" gid="1373" x="416.91" y="743.27" width="16" height="16"/>
  <object id="2200" gid="1374" x="432.36" y="743.42" width="16" height="16"/>
  <object id="2201" gid="1405" x="417.09" y="759.05" width="16" height="16"/>
  <object id="2202" gid="1406" x="433.09" y="759.05" width="16" height="16"/>
  <object id="2203" gid="1437" x="417.09" y="774.87" width="16" height="16"/>
  <object id="2204" gid="1438" x="432.91" y="774.51" width="16" height="16"/>
  <object id="2205" gid="1469" x="417" y="790.73" width="16" height="16"/>
  <object id="2206" gid="1470" x="433" y="790.51" width="16" height="16"/>
  <object id="2207" gid="1373" x="108.91" y="808.27" width="16" height="16"/>
  <object id="2208" gid="1374" x="124.36" y="808.42" width="16" height="16"/>
  <object id="2209" gid="1405" x="109.09" y="824.05" width="16" height="16"/>
  <object id="2210" gid="1406" x="125.09" y="824.05" width="16" height="16"/>
  <object id="2211" gid="1437" x="109.09" y="839.87" width="16" height="16"/>
  <object id="2212" gid="1438" x="124.91" y="839.51" width="16" height="16"/>
  <object id="2213" gid="1469" x="109" y="855.73" width="16" height="16"/>
  <object id="2214" gid="1470" x="125" y="855.51" width="16" height="16"/>
  <object id="2215" gid="1373" x="48.91" y="616.27" width="16" height="16"/>
  <object id="2216" gid="1374" x="64.36" y="616.42" width="16" height="16"/>
  <object id="2217" gid="1405" x="49.09" y="632.05" width="16" height="16"/>
  <object id="2218" gid="1406" x="65.09" y="632.05" width="16" height="16"/>
  <object id="2219" gid="1437" x="49.09" y="647.87" width="16" height="16"/>
  <object id="2220" gid="1438" x="64.91" y="647.51" width="16" height="16"/>
  <object id="2221" gid="1469" x="49" y="663.73" width="16" height="16"/>
  <object id="2222" gid="1470" x="65" y="663.51" width="16" height="16"/>
  <object id="2223" gid="1373" x="453.91" y="511.77" width="16" height="16"/>
  <object id="2224" gid="1374" x="469.36" y="511.92" width="16" height="16"/>
  <object id="2225" gid="1405" x="454.09" y="527.55" width="16" height="16"/>
  <object id="2226" gid="1406" x="470.09" y="527.55" width="16" height="16"/>
  <object id="2227" gid="1437" x="454.09" y="543.37" width="16" height="16"/>
  <object id="2228" gid="1438" x="469.91" y="543.01" width="16" height="16"/>
  <object id="2229" gid="1469" x="454" y="559.23" width="16" height="16"/>
  <object id="2230" gid="1470" x="470" y="559.01" width="16" height="16"/>
  <object id="2231" gid="1373" x="369.91" y="490.27" width="16" height="16"/>
  <object id="2232" gid="1374" x="385.36" y="490.42" width="16" height="16"/>
  <object id="2233" gid="1405" x="370.09" y="506.05" width="16" height="16"/>
  <object id="2234" gid="1406" x="386.09" y="506.05" width="16" height="16"/>
  <object id="2235" gid="1437" x="370.09" y="521.87" width="16" height="16"/>
  <object id="2236" gid="1438" x="385.91" y="521.51" width="16" height="16"/>
  <object id="2237" gid="1469" x="370" y="537.73" width="16" height="16"/>
  <object id="2238" gid="1470" x="386" y="537.51" width="16" height="16"/>
  <object id="2239" gid="1373" x="550.41" y="518.27" width="16" height="16"/>
  <object id="2240" gid="1374" x="565.86" y="518.42" width="16" height="16"/>
  <object id="2241" gid="1405" x="550.59" y="534.05" width="16" height="16"/>
  <object id="2242" gid="1406" x="566.59" y="534.05" width="16" height="16"/>
  <object id="2243" gid="1437" x="550.59" y="549.87" width="16" height="16"/>
  <object id="2244" gid="1438" x="566.41" y="549.51" width="16" height="16"/>
  <object id="2245" gid="1469" x="550.5" y="565.73" width="16" height="16"/>
  <object id="2246" gid="1470" x="566.5" y="565.51" width="16" height="16"/>
  <object id="2247" gid="1373" x="158.91" y="424.77" width="16" height="16"/>
  <object id="2248" gid="1374" x="174.36" y="424.92" width="16" height="16"/>
  <object id="2249" gid="1405" x="159.09" y="440.55" width="16" height="16"/>
  <object id="2250" gid="1406" x="175.09" y="440.55" width="16" height="16"/>
  <object id="2251" gid="1437" x="159.09" y="456.37" width="16" height="16"/>
  <object id="2252" gid="1438" x="174.91" y="456.01" width="16" height="16"/>
  <object id="2253" gid="1469" x="159" y="472.23" width="16" height="16"/>
  <object id="2254" gid="1470" x="175" y="472.01" width="16" height="16"/>
  <object id="2255" gid="1373" x="211.577" y="405.437" width="16" height="16"/>
  <object id="2256" gid="1374" x="227.027" y="405.587" width="16" height="16"/>
  <object id="2257" gid="1405" x="211.757" y="421.217" width="16" height="16"/>
  <object id="2258" gid="1406" x="227.757" y="421.217" width="16" height="16"/>
  <object id="2259" gid="1437" x="211.757" y="437.037" width="16" height="16"/>
  <object id="2260" gid="1438" x="227.577" y="436.677" width="16" height="16"/>
  <object id="2261" gid="1469" x="211.667" y="452.897" width="16" height="16"/>
  <object id="2262" gid="1470" x="227.667" y="452.677" width="16" height="16"/>
  <object id="2287" gid="1373" x="151.295" y="39.4649" width="25.2403" height="25.2403"/>
  <object id="2288" gid="1374" x="176.465" y="39.4249" width="25.2403" height="25.2403"/>
  <object id="2289" gid="1405" x="151.585" y="64.3648" width="25.2403" height="25.2403"/>
  <object id="2290" gid="1406" x="176.45" y="64.3648" width="25.2403" height="25.2403"/>
  <object id="2291" gid="1437" x="151.585" y="89.3148" width="25.2403" height="25.2403"/>
  <object id="2292" gid="1438" x="176.285" y="88.7449" width="25.2403" height="25.2403"/>
  <object id="2293" gid="1469" x="151.435" y="114.335" width="25.2403" height="25.2403"/>
  <object id="2294" gid="1470" x="176.285" y="113.725" width="25.2403" height="25.2403"/>
  <object id="2295" gid="1373" x="240.295" y="33.9649" width="25.2403" height="25.2403"/>
  <object id="2296" gid="1374" x="265.465" y="33.9249" width="25.2403" height="25.2403"/>
  <object id="2297" gid="1405" x="240.585" y="58.8648" width="25.2403" height="25.2403"/>
  <object id="2298" gid="1406" x="265.45" y="58.8648" width="25.2403" height="25.2403"/>
  <object id="2299" gid="1437" x="240.585" y="83.8148" width="25.2403" height="25.2403"/>
  <object id="2300" gid="1438" x="265.285" y="83.2449" width="25.2403" height="25.2403"/>
  <object id="2301" gid="1469" x="240.435" y="108.835" width="25.2403" height="25.2403"/>
  <object id="2302" gid="1470" x="265.285" y="108.225" width="25.2403" height="25.2403"/>
  <object id="2303" gid="1373" x="1718.79" y="-2.03515" width="25.2403" height="25.2403"/>
  <object id="2304" gid="1374" x="1743.96" y="-2.07515" width="25.2403" height="25.2403"/>
  <object id="2305" gid="1405" x="1719.08" y="22.8648" width="25.2403" height="25.2403"/>
  <object id="2306" gid="1406" x="1743.95" y="22.8648" width="25.2403" height="25.2403"/>
  <object id="2307" gid="1437" x="1719.08" y="47.8148" width="25.2403" height="25.2403"/>
  <object id="2308" gid="1438" x="1743.78" y="47.2449" width="25.2403" height="25.2403"/>
  <object id="2309" gid="1469" x="1718.93" y="72.8348" width="25.2403" height="25.2403"/>
  <object id="2310" gid="1470" x="1743.78" y="72.2249" width="25.2403" height="25.2403"/>
  <object id="2311" gid="1373" x="1809.79" y="7.46485" width="25.2403" height="25.2403"/>
  <object id="2312" gid="1374" x="1834.96" y="7.42485" width="25.2403" height="25.2403"/>
  <object id="2313" gid="1405" x="1810.08" y="32.3648" width="25.2403" height="25.2403"/>
  <object id="2314" gid="1406" x="1834.95" y="32.3648" width="25.2403" height="25.2403"/>
  <object id="2315" gid="1437" x="1810.08" y="57.3148" width="25.2403" height="25.2403"/>
  <object id="2316" gid="1438" x="1834.78" y="56.7449" width="25.2403" height="25.2403"/>
  <object id="2317" gid="1469" x="1809.93" y="82.3348" width="25.2403" height="25.2403"/>
  <object id="2318" gid="1470" x="1834.78" y="81.7249" width="25.2403" height="25.2403"/>
  <object id="2319" gid="1373" x="1940.29" y="-5.03515" width="25.2403" height="25.2403"/>
  <object id="2320" gid="1374" x="1965.46" y="-5.07515" width="25.2403" height="25.2403"/>
  <object id="2321" gid="1405" x="1940.58" y="19.8648" width="25.2403" height="25.2403"/>
  <object id="2322" gid="1406" x="1965.45" y="19.8648" width="25.2403" height="25.2403"/>
  <object id="2323" gid="1437" x="1940.58" y="44.8148" width="25.2403" height="25.2403"/>
  <object id="2324" gid="1438" x="1965.28" y="44.2449" width="25.2403" height="25.2403"/>
  <object id="2325" gid="1469" x="1940.43" y="69.8348" width="25.2403" height="25.2403"/>
  <object id="2326" gid="1470" x="1965.28" y="69.2249" width="25.2403" height="25.2403"/>
  <object id="2351" gid="1373" x="1508.79" y="128.465" width="25.2403" height="25.2403"/>
  <object id="2352" gid="1374" x="1533.96" y="128.425" width="25.2403" height="25.2403"/>
  <object id="2353" gid="1405" x="1509.08" y="153.365" width="25.2403" height="25.2403"/>
  <object id="2354" gid="1406" x="1533.95" y="153.365" width="25.2403" height="25.2403"/>
  <object id="2355" gid="1437" x="1509.08" y="178.315" width="25.2403" height="25.2403"/>
  <object id="2356" gid="1438" x="1533.78" y="177.745" width="25.2403" height="25.2403"/>
  <object id="2357" gid="1469" x="1508.93" y="203.335" width="25.2403" height="25.2403"/>
  <object id="2358" gid="1470" x="1533.78" y="202.725" width="25.2403" height="25.2403"/>
  <object id="2359" gid="1373" x="1391.79" y="71.9649" width="25.2403" height="25.2403"/>
  <object id="2360" gid="1374" x="1416.96" y="71.9249" width="25.2403" height="25.2403"/>
  <object id="2361" gid="1405" x="1392.08" y="96.8648" width="25.2403" height="25.2403"/>
  <object id="2362" gid="1406" x="1416.95" y="96.8648" width="25.2403" height="25.2403"/>
  <object id="2363" gid="1437" x="1392.08" y="121.815" width="25.2403" height="25.2403"/>
  <object id="2364" gid="1438" x="1416.78" y="121.245" width="25.2403" height="25.2403"/>
  <object id="2365" gid="1469" x="1391.93" y="146.835" width="25.2403" height="25.2403"/>
  <object id="2366" gid="1470" x="1416.78" y="146.225" width="25.2403" height="25.2403"/>
  <object id="2367" gid="1373" x="1447.79" y="334.965" width="25.2403" height="25.2403"/>
  <object id="2368" gid="1374" x="1472.96" y="334.925" width="25.2403" height="25.2403"/>
  <object id="2369" gid="1405" x="1448.08" y="359.865" width="25.2403" height="25.2403"/>
  <object id="2370" gid="1406" x="1472.95" y="359.865" width="25.2403" height="25.2403"/>
  <object id="2371" gid="1437" x="1448.08" y="384.815" width="25.2403" height="25.2403"/>
  <object id="2372" gid="1438" x="1472.78" y="384.245" width="25.2403" height="25.2403"/>
  <object id="2373" gid="1469" x="1447.93" y="409.835" width="25.2403" height="25.2403"/>
  <object id="2374" gid="1470" x="1472.78" y="409.225" width="25.2403" height="25.2403"/>
  <object id="2383" gid="1373" x="1583.29" y="300.465" width="25.2403" height="25.2403"/>
  <object id="2384" gid="1374" x="1608.46" y="300.425" width="25.2403" height="25.2403"/>
  <object id="2385" gid="1405" x="1583.58" y="325.365" width="25.2403" height="25.2403"/>
  <object id="2386" gid="1406" x="1608.45" y="325.365" width="25.2403" height="25.2403"/>
  <object id="2387" gid="1437" x="1583.58" y="350.315" width="25.2403" height="25.2403"/>
  <object id="2388" gid="1438" x="1608.28" y="349.745" width="25.2403" height="25.2403"/>
  <object id="2389" gid="1469" x="1583.43" y="375.335" width="25.2403" height="25.2403"/>
  <object id="2390" gid="1470" x="1608.28" y="374.725" width="25.2403" height="25.2403"/>
  <object id="2391" gid="1373" x="1633.79" y="66.9649" width="25.2403" height="25.2403"/>
  <object id="2392" gid="1374" x="1658.96" y="66.9249" width="25.2403" height="25.2403"/>
  <object id="2393" gid="1405" x="1634.08" y="91.8648" width="25.2403" height="25.2403"/>
  <object id="2394" gid="1406" x="1658.95" y="91.8648" width="25.2403" height="25.2403"/>
  <object id="2395" gid="1437" x="1634.08" y="116.815" width="25.2403" height="25.2403"/>
  <object id="2396" gid="1438" x="1658.78" y="116.245" width="25.2403" height="25.2403"/>
  <object id="2397" gid="1469" x="1633.93" y="141.835" width="25.2403" height="25.2403"/>
  <object id="2398" gid="1470" x="1658.78" y="141.225" width="25.2403" height="25.2403"/>
  <object id="2399" gid="1373" x="1241.29" y="492.965" width="25.2403" height="25.2403"/>
  <object id="2400" gid="1374" x="1266.46" y="492.925" width="25.2403" height="25.2403"/>
  <object id="2401" gid="1405" x="1241.58" y="517.865" width="25.2403" height="25.2403"/>
  <object id="2402" gid="1406" x="1266.45" y="517.865" width="25.2403" height="25.2403"/>
  <object id="2403" gid="1437" x="1241.58" y="542.815" width="25.2403" height="25.2403"/>
  <object id="2404" gid="1438" x="1266.28" y="542.245" width="25.2403" height="25.2403"/>
  <object id="2405" gid="1469" x="1241.43" y="567.835" width="25.2403" height="25.2403"/>
  <object id="2406" gid="1470" x="1266.28" y="567.225" width="25.2403" height="25.2403"/>
  <object id="2407" gid="1373" x="1260.79" y="356.965" width="25.2403" height="25.2403"/>
  <object id="2408" gid="1374" x="1285.96" y="356.925" width="25.2403" height="25.2403"/>
  <object id="2409" gid="1405" x="1261.08" y="381.865" width="25.2403" height="25.2403"/>
  <object id="2410" gid="1406" x="1285.95" y="381.865" width="25.2403" height="25.2403"/>
  <object id="2411" gid="1437" x="1261.08" y="406.815" width="25.2403" height="25.2403"/>
  <object id="2412" gid="1438" x="1285.78" y="406.245" width="25.2403" height="25.2403"/>
  <object id="2413" gid="1469" x="1260.93" y="431.835" width="25.2403" height="25.2403"/>
  <object id="2414" gid="1470" x="1285.78" y="431.225" width="25.2403" height="25.2403"/>
  <object id="2415" gid="1373" x="1407.79" y="498.465" width="25.2403" height="25.2403"/>
  <object id="2416" gid="1374" x="1432.96" y="498.425" width="25.2403" height="25.2403"/>
  <object id="2417" gid="1405" x="1408.08" y="523.365" width="25.2403" height="25.2403"/>
  <object id="2418" gid="1406" x="1432.95" y="523.365" width="25.2403" height="25.2403"/>
  <object id="2419" gid="1437" x="1408.08" y="548.315" width="25.2403" height="25.2403"/>
  <object id="2420" gid="1438" x="1432.78" y="547.745" width="25.2403" height="25.2403"/>
  <object id="2421" gid="1469" x="1407.93" y="573.335" width="25.2403" height="25.2403"/>
  <object id="2422" gid="1470" x="1432.78" y="572.725" width="25.2403" height="25.2403"/>
  <object id="2423" gid="1373" x="926.295" y="605.965" width="25.2403" height="25.2403"/>
  <object id="2424" gid="1374" x="951.465" y="605.925" width="25.2403" height="25.2403"/>
  <object id="2425" gid="1405" x="926.585" y="630.865" width="25.2403" height="25.2403"/>
  <object id="2426" gid="1406" x="951.45" y="630.865" width="25.2403" height="25.2403"/>
  <object id="2427" gid="1437" x="926.585" y="655.815" width="25.2403" height="25.2403"/>
  <object id="2428" gid="1438" x="951.285" y="655.245" width="25.2403" height="25.2403"/>
  <object id="2429" gid="1469" x="926.435" y="680.835" width="25.2403" height="25.2403"/>
  <object id="2430" gid="1470" x="951.285" y="680.225" width="25.2403" height="25.2403"/>
  <object id="2431" gid="1373" x="739.295" y="551.465" width="25.2403" height="25.2403"/>
  <object id="2432" gid="1374" x="764.465" y="551.425" width="25.2403" height="25.2403"/>
  <object id="2433" gid="1405" x="739.585" y="576.365" width="25.2403" height="25.2403"/>
  <object id="2434" gid="1406" x="764.45" y="576.365" width="25.2403" height="25.2403"/>
  <object id="2435" gid="1437" x="739.585" y="601.315" width="25.2403" height="25.2403"/>
  <object id="2436" gid="1438" x="764.285" y="600.745" width="25.2403" height="25.2403"/>
  <object id="2437" gid="1469" x="739.435" y="626.335" width="25.2403" height="25.2403"/>
  <object id="2438" gid="1470" x="764.285" y="625.725" width="25.2403" height="25.2403"/>
  <object id="2439" gid="1373" x="735.295" y="436.965" width="25.2403" height="25.2403"/>
  <object id="2440" gid="1374" x="760.465" y="436.925" width="25.2403" height="25.2403"/>
  <object id="2441" gid="1405" x="735.585" y="461.865" width="25.2403" height="25.2403"/>
  <object id="2442" gid="1406" x="760.45" y="461.865" width="25.2403" height="25.2403"/>
  <object id="2443" gid="1437" x="735.585" y="486.815" width="25.2403" height="25.2403"/>
  <object id="2444" gid="1438" x="760.285" y="486.245" width="25.2403" height="25.2403"/>
  <object id="2445" gid="1469" x="735.435" y="511.835" width="25.2403" height="25.2403"/>
  <object id="2446" gid="1470" x="760.285" y="511.225" width="25.2403" height="25.2403"/>
  <object id="2455" gid="1373" x="924.795" y="415.965" width="25.2403" height="25.2403"/>
  <object id="2456" gid="1374" x="949.965" y="415.925" width="25.2403" height="25.2403"/>
  <object id="2457" gid="1405" x="925.085" y="440.865" width="25.2403" height="25.2403"/>
  <object id="2458" gid="1406" x="949.95" y="440.865" width="25.2403" height="25.2403"/>
  <object id="2459" gid="1437" x="925.085" y="465.815" width="25.2403" height="25.2403"/>
  <object id="2460" gid="1438" x="949.785" y="465.245" width="25.2403" height="25.2403"/>
  <object id="2461" gid="1469" x="924.935" y="490.835" width="25.2403" height="25.2403"/>
  <object id="2462" gid="1470" x="949.785" y="490.225" width="25.2403" height="25.2403"/>
  <object id="2463" gid="1373" x="996.295" y="317.465" width="25.2403" height="25.2403"/>
  <object id="2464" gid="1374" x="1021.46" y="317.425" width="25.2403" height="25.2403"/>
  <object id="2465" gid="1405" x="996.585" y="342.365" width="25.2403" height="25.2403"/>
  <object id="2466" gid="1406" x="1021.45" y="342.365" width="25.2403" height="25.2403"/>
  <object id="2467" gid="1437" x="996.585" y="367.315" width="25.2403" height="25.2403"/>
  <object id="2468" gid="1438" x="1021.28" y="366.745" width="25.2403" height="25.2403"/>
  <object id="2469" gid="1469" x="996.435" y="392.335" width="25.2403" height="25.2403"/>
  <object id="2470" gid="1470" x="1021.28" y="391.725" width="25.2403" height="25.2403"/>
  <object id="2471" gid="1373" x="926.295" y="274.465" width="25.2403" height="25.2403"/>
  <object id="2472" gid="1374" x="951.465" y="274.425" width="25.2403" height="25.2403"/>
  <object id="2473" gid="1405" x="926.585" y="299.365" width="25.2403" height="25.2403"/>
  <object id="2474" gid="1406" x="951.45" y="299.365" width="25.2403" height="25.2403"/>
  <object id="2475" gid="1437" x="926.585" y="324.315" width="25.2403" height="25.2403"/>
  <object id="2476" gid="1438" x="951.285" y="323.745" width="25.2403" height="25.2403"/>
  <object id="2477" gid="1469" x="926.435" y="349.335" width="25.2403" height="25.2403"/>
  <object id="2478" gid="1470" x="951.285" y="348.725" width="25.2403" height="25.2403"/>
  <object id="2479" gid="1373" x="851.795" y="178.465" width="25.2403" height="25.2403"/>
  <object id="2480" gid="1374" x="876.965" y="178.425" width="25.2403" height="25.2403"/>
  <object id="2481" gid="1405" x="852.085" y="203.365" width="25.2403" height="25.2403"/>
  <object id="2482" gid="1406" x="876.95" y="203.365" width="25.2403" height="25.2403"/>
  <object id="2483" gid="1437" x="852.085" y="228.315" width="25.2403" height="25.2403"/>
  <object id="2484" gid="1438" x="876.785" y="227.745" width="25.2403" height="25.2403"/>
  <object id="2485" gid="1469" x="851.935" y="253.335" width="25.2403" height="25.2403"/>
  <object id="2486" gid="1470" x="876.785" y="252.725" width="25.2403" height="25.2403"/>
  <object id="2487" gid="1373" x="859.295" y="72.9649" width="25.2403" height="25.2403"/>
  <object id="2488" gid="1374" x="884.465" y="72.9249" width="25.2403" height="25.2403"/>
  <object id="2489" gid="1405" x="859.585" y="97.8648" width="25.2403" height="25.2403"/>
  <object id="2490" gid="1406" x="884.45" y="97.8648" width="25.2403" height="25.2403"/>
  <object id="2491" gid="1437" x="859.585" y="122.815" width="25.2403" height="25.2403"/>
  <object id="2492" gid="1438" x="884.285" y="122.245" width="25.2403" height="25.2403"/>
  <object id="2493" gid="1469" x="859.435" y="147.835" width="25.2403" height="25.2403"/>
  <object id="2494" gid="1470" x="884.285" y="147.225" width="25.2403" height="25.2403"/>
  <object id="2495" gid="1373" x="694.795" y="68.4649" width="25.2403" height="25.2403"/>
  <object id="2496" gid="1374" x="719.965" y="68.4249" width="25.2403" height="25.2403"/>
  <object id="2497" gid="1405" x="695.085" y="93.3648" width="25.2403" height="25.2403"/>
  <object id="2498" gid="1406" x="719.95" y="93.3648" width="25.2403" height="25.2403"/>
  <object id="2499" gid="1437" x="695.085" y="118.315" width="25.2403" height="25.2403"/>
  <object id="2500" gid="1438" x="719.785" y="117.745" width="25.2403" height="25.2403"/>
  <object id="2501" gid="1469" x="694.935" y="143.335" width="25.2403" height="25.2403"/>
  <object id="2502" gid="1470" x="719.785" y="142.725" width="25.2403" height="25.2403"/>
  <object id="2503" gid="1373" x="783.295" y="63.9649" width="25.2403" height="25.2403"/>
  <object id="2504" gid="1374" x="808.465" y="63.9249" width="25.2403" height="25.2403"/>
  <object id="2505" gid="1405" x="783.585" y="88.8648" width="25.2403" height="25.2403"/>
  <object id="2506" gid="1406" x="808.45" y="88.8648" width="25.2403" height="25.2403"/>
  <object id="2507" gid="1437" x="783.585" y="113.815" width="25.2403" height="25.2403"/>
  <object id="2508" gid="1438" x="808.285" y="113.245" width="25.2403" height="25.2403"/>
  <object id="2509" gid="1469" x="783.435" y="138.835" width="25.2403" height="25.2403"/>
  <object id="2510" gid="1470" x="808.285" y="138.225" width="25.2403" height="25.2403"/>
  <object id="2519" gid="1373" x="1924.58" y="301.937" width="16" height="16"/>
  <object id="2520" gid="1374" x="1940.03" y="302.087" width="16" height="16"/>
  <object id="2521" gid="1405" x="1924.76" y="317.717" width="16" height="16"/>
  <object id="2522" gid="1406" x="1940.76" y="317.717" width="16" height="16"/>
  <object id="2523" gid="1437" x="1924.76" y="333.537" width="16" height="16"/>
  <object id="2524" gid="1438" x="1940.58" y="333.177" width="16" height="16"/>
  <object id="2525" gid="1469" x="1924.67" y="349.397" width="16" height="16"/>
  <object id="2526" gid="1470" x="1940.67" y="349.177" width="16" height="16"/>
  <object id="2527" gid="1373" x="2005.24" y="270.27" width="16" height="16"/>
  <object id="2528" gid="1374" x="2020.69" y="270.42" width="16" height="16"/>
  <object id="2529" gid="1405" x="2005.42" y="286.05" width="16" height="16"/>
  <object id="2530" gid="1406" x="2021.42" y="286.05" width="16" height="16"/>
  <object id="2531" gid="1437" x="2005.42" y="301.87" width="16" height="16"/>
  <object id="2532" gid="1438" x="2021.24" y="301.51" width="16" height="16"/>
  <object id="2533" gid="1469" x="2005.33" y="317.73" width="16" height="16"/>
  <object id="2534" gid="1470" x="2021.33" y="317.51" width="16" height="16"/>
  <object id="2535" gid="1373" x="1872.66" y="18.3533" width="16" height="16"/>
  <object id="2536" gid="1374" x="1888.11" y="18.5033" width="16" height="16"/>
  <object id="2537" gid="1405" x="1872.84" y="34.1333" width="16" height="16"/>
  <object id="2538" gid="1406" x="1888.84" y="34.1333" width="16" height="16"/>
  <object id="2539" gid="1437" x="1872.84" y="49.9533" width="16" height="16"/>
  <object id="2540" gid="1438" x="1888.66" y="49.5933" width="16" height="16"/>
  <object id="2541" gid="1469" x="1872.75" y="65.8133" width="16" height="16"/>
  <object id="2542" gid="1470" x="1888.75" y="65.5933" width="16" height="16"/>
  <object id="2543" gid="1373" x="1541.41" y="48.77" width="16" height="16"/>
  <object id="2544" gid="1374" x="1556.86" y="48.92" width="16" height="16"/>
  <object id="2545" gid="1405" x="1541.59" y="64.55" width="16" height="16"/>
  <object id="2546" gid="1406" x="1557.59" y="64.55" width="16" height="16"/>
  <object id="2547" gid="1437" x="1541.59" y="80.37" width="16" height="16"/>
  <object id="2548" gid="1438" x="1557.41" y="80.01" width="16" height="16"/>
  <object id="2549" gid="1469" x="1541.5" y="96.23" width="16" height="16"/>
  <object id="2550" gid="1470" x="1557.5" y="96.01" width="16" height="16"/>
  <object id="2559" gid="1373" x="1706.91" y="149.27" width="16" height="16"/>
  <object id="2560" gid="1374" x="1722.36" y="149.42" width="16" height="16"/>
  <object id="2561" gid="1405" x="1707.09" y="165.05" width="16" height="16"/>
  <object id="2562" gid="1406" x="1723.09" y="165.05" width="16" height="16"/>
  <object id="2563" gid="1437" x="1707.09" y="180.87" width="16" height="16"/>
  <object id="2564" gid="1438" x="1722.91" y="180.51" width="16" height="16"/>
  <object id="2565" gid="1469" x="1707" y="196.73" width="16" height="16"/>
  <object id="2566" gid="1470" x="1723" y="196.51" width="16" height="16"/>
  <object id="2567" gid="1373" x="1629.91" y="241.77" width="16" height="16"/>
  <object id="2568" gid="1374" x="1645.36" y="241.92" width="16" height="16"/>
  <object id="2569" gid="1405" x="1630.09" y="257.55" width="16" height="16"/>
  <object id="2570" gid="1406" x="1646.09" y="257.55" width="16" height="16"/>
  <object id="2571" gid="1437" x="1630.09" y="273.37" width="16" height="16"/>
  <object id="2572" gid="1438" x="1645.91" y="273.01" width="16" height="16"/>
  <object id="2573" gid="1469" x="1630" y="289.23" width="16" height="16"/>
  <object id="2574" gid="1470" x="1646" y="289.01" width="16" height="16"/>
  <object id="2575" gid="1373" x="880.91" y="567.77" width="16" height="16"/>
  <object id="2576" gid="1374" x="896.36" y="567.92" width="16" height="16"/>
  <object id="2577" gid="1405" x="881.09" y="583.55" width="16" height="16"/>
  <object id="2578" gid="1406" x="897.09" y="583.55" width="16" height="16"/>
  <object id="2579" gid="1437" x="881.09" y="599.37" width="16" height="16"/>
  <object id="2580" gid="1438" x="896.91" y="599.01" width="16" height="16"/>
  <object id="2581" gid="1469" x="881" y="615.23" width="16" height="16"/>
  <object id="2582" gid="1470" x="897" y="615.01" width="16" height="16"/>
  <object id="2583" gid="1373" x="870.41" y="400.77" width="16" height="16"/>
  <object id="2584" gid="1374" x="885.86" y="400.92" width="16" height="16"/>
  <object id="2585" gid="1405" x="870.59" y="416.55" width="16" height="16"/>
  <object id="2586" gid="1406" x="886.59" y="416.55" width="16" height="16"/>
  <object id="2587" gid="1437" x="870.59" y="432.37" width="16" height="16"/>
  <object id="2588" gid="1438" x="886.41" y="432.01" width="16" height="16"/>
  <object id="2589" gid="1469" x="870.5" y="448.23" width="16" height="16"/>
  <object id="2590" gid="1470" x="886.5" y="448.01" width="16" height="16"/>
  <object id="2599" gid="1373" x="771.91" y="287.27" width="16" height="16"/>
  <object id="2600" gid="1374" x="787.36" y="287.42" width="16" height="16"/>
  <object id="2601" gid="1405" x="772.09" y="303.05" width="16" height="16"/>
  <object id="2602" gid="1406" x="788.09" y="303.05" width="16" height="16"/>
  <object id="2603" gid="1437" x="772.09" y="318.87" width="16" height="16"/>
  <object id="2604" gid="1438" x="787.91" y="318.51" width="16" height="16"/>
  <object id="2605" gid="1469" x="772" y="334.73" width="16" height="16"/>
  <object id="2606" gid="1470" x="788" y="334.51" width="16" height="16"/>
  <object id="2607" gid="1373" x="1074.41" y="570.27" width="16" height="16"/>
  <object id="2608" gid="1374" x="1089.86" y="570.42" width="16" height="16"/>
  <object id="2609" gid="1405" x="1074.59" y="586.05" width="16" height="16"/>
  <object id="2610" gid="1406" x="1090.59" y="586.05" width="16" height="16"/>
  <object id="2611" gid="1437" x="1074.59" y="601.87" width="16" height="16"/>
  <object id="2612" gid="1438" x="1090.41" y="601.51" width="16" height="16"/>
  <object id="2613" gid="1469" x="1074.5" y="617.73" width="16" height="16"/>
  <object id="2614" gid="1470" x="1090.5" y="617.51" width="16" height="16"/>
  <object id="2615" gid="1373" x="337.41" y="416.77" width="16" height="16"/>
  <object id="2616" gid="1374" x="352.86" y="416.92" width="16" height="16"/>
  <object id="2617" gid="1405" x="337.59" y="432.55" width="16" height="16"/>
  <object id="2618" gid="1406" x="353.59" y="432.55" width="16" height="16"/>
  <object id="2619" gid="1437" x="337.59" y="448.37" width="16" height="16"/>
  <object id="2620" gid="1438" x="353.41" y="448.01" width="16" height="16"/>
  <object id="2621" gid="1469" x="337.5" y="464.23" width="16" height="16"/>
  <object id="2622" gid="1470" x="353.5" y="464.01" width="16" height="16"/>
  <object id="2623" gid="1373" x="426.41" y="351.77" width="16" height="16"/>
  <object id="2624" gid="1374" x="441.86" y="351.92" width="16" height="16"/>
  <object id="2625" gid="1405" x="426.59" y="367.55" width="16" height="16"/>
  <object id="2626" gid="1406" x="442.59" y="367.55" width="16" height="16"/>
  <object id="2627" gid="1437" x="426.59" y="383.37" width="16" height="16"/>
  <object id="2628" gid="1438" x="442.41" y="383.01" width="16" height="16"/>
  <object id="2629" gid="1469" x="426.5" y="399.23" width="16" height="16"/>
  <object id="2630" gid="1470" x="442.5" y="399.01" width="16" height="16"/>
  <object id="2631" gid="1373" x="121.91" y="309.77" width="16" height="16"/>
  <object id="2632" gid="1374" x="137.36" y="309.92" width="16" height="16"/>
  <object id="2633" gid="1405" x="122.09" y="325.55" width="16" height="16"/>
  <object id="2634" gid="1406" x="138.09" y="325.55" width="16" height="16"/>
  <object id="2635" gid="1437" x="122.09" y="341.37" width="16" height="16"/>
  <object id="2636" gid="1438" x="137.91" y="341.01" width="16" height="16"/>
  <object id="2637" gid="1469" x="122" y="357.23" width="16" height="16"/>
  <object id="2638" gid="1470" x="138" y="357.01" width="16" height="16"/>
  <object id="2639" gid="1373" x="1616.24" y="927.937" width="16" height="16"/>
  <object id="2640" gid="1374" x="1631.69" y="928.087" width="16" height="16"/>
  <object id="2641" gid="1405" x="1616.42" y="943.717" width="16" height="16"/>
  <object id="2642" gid="1406" x="1632.42" y="943.717" width="16" height="16"/>
  <object id="2643" gid="1437" x="1616.42" y="959.537" width="16" height="16"/>
  <object id="2644" gid="1438" x="1632.24" y="959.177" width="16" height="16"/>
  <object id="2645" gid="1469" x="1616.33" y="975.397" width="16" height="16"/>
  <object id="2646" gid="1470" x="1632.33" y="975.177" width="16" height="16"/>
  <object id="2647" gid="1373" x="1933.16" y="821.77" width="16" height="16"/>
  <object id="2648" gid="1374" x="1948.61" y="821.92" width="16" height="16"/>
  <object id="2649" gid="1405" x="1933.34" y="837.55" width="16" height="16"/>
  <object id="2650" gid="1406" x="1949.34" y="837.55" width="16" height="16"/>
  <object id="2651" gid="1437" x="1933.34" y="853.37" width="16" height="16"/>
  <object id="2652" gid="1438" x="1949.16" y="853.01" width="16" height="16"/>
  <object id="2653" gid="1469" x="1933.25" y="869.23" width="16" height="16"/>
  <object id="2654" gid="1470" x="1949.25" y="869.01" width="16" height="16"/>
  <object id="2655" gid="1373" x="1997.41" y="1388.02" width="16" height="16"/>
  <object id="2656" gid="1374" x="2012.86" y="1388.17" width="16" height="16"/>
  <object id="2657" gid="1405" x="1997.59" y="1403.8" width="16" height="16"/>
  <object id="2658" gid="1406" x="2013.59" y="1403.8" width="16" height="16"/>
  <object id="2659" gid="1437" x="1997.59" y="1419.62" width="16" height="16"/>
  <object id="2660" gid="1438" x="2013.41" y="1419.26" width="16" height="16"/>
  <object id="2661" gid="1469" x="1997.5" y="1435.48" width="16" height="16"/>
  <object id="2662" gid="1470" x="2013.5" y="1435.26" width="16" height="16"/>
  <object id="2663" gid="1373" x="63.91" y="1554.52" width="16" height="16"/>
  <object id="2664" gid="1374" x="79.36" y="1554.67" width="16" height="16"/>
  <object id="2665" gid="1405" x="64.09" y="1570.3" width="16" height="16"/>
  <object id="2666" gid="1406" x="80.09" y="1570.3" width="16" height="16"/>
  <object id="2667" gid="1437" x="64.09" y="1586.12" width="16" height="16"/>
  <object id="2668" gid="1438" x="79.91" y="1585.76" width="16" height="16"/>
  <object id="2669" gid="1469" x="64" y="1601.98" width="16" height="16"/>
  <object id="2670" gid="1470" x="80" y="1601.76" width="16" height="16"/>
  <object id="2671" gid="1373" x="234.16" y="1556.52" width="16" height="16"/>
  <object id="2672" gid="1374" x="249.61" y="1556.67" width="16" height="16"/>
  <object id="2673" gid="1405" x="234.34" y="1572.3" width="16" height="16"/>
  <object id="2674" gid="1406" x="250.34" y="1572.3" width="16" height="16"/>
  <object id="2675" gid="1437" x="234.34" y="1588.12" width="16" height="16"/>
  <object id="2676" gid="1438" x="250.16" y="1587.76" width="16" height="16"/>
  <object id="2677" gid="1469" x="234.25" y="1603.98" width="16" height="16"/>
  <object id="2678" gid="1470" x="250.25" y="1603.76" width="16" height="16"/>
  <object id="2679" gid="1373" x="130.66" y="1556.02" width="16" height="16"/>
  <object id="2680" gid="1374" x="146.11" y="1556.17" width="16" height="16"/>
  <object id="2681" gid="1405" x="130.84" y="1571.8" width="16" height="16"/>
  <object id="2682" gid="1406" x="146.84" y="1571.8" width="16" height="16"/>
  <object id="2683" gid="1437" x="130.84" y="1587.62" width="16" height="16"/>
  <object id="2684" gid="1438" x="146.66" y="1587.26" width="16" height="16"/>
  <object id="2685" gid="1469" x="130.75" y="1603.48" width="16" height="16"/>
  <object id="2686" gid="1470" x="146.75" y="1603.26" width="16" height="16"/>
  <object id="2687" gid="1373" x="146.91" y="1265.6" width="16" height="16"/>
  <object id="2688" gid="1374" x="162.36" y="1265.75" width="16" height="16"/>
  <object id="2689" gid="1405" x="147.09" y="1281.38" width="16" height="16"/>
  <object id="2690" gid="1406" x="163.09" y="1281.38" width="16" height="16"/>
  <object id="2691" gid="1437" x="147.09" y="1297.2" width="16" height="16"/>
  <object id="2692" gid="1438" x="162.91" y="1296.84" width="16" height="16"/>
  <object id="2693" gid="1469" x="147" y="1313.06" width="16" height="16"/>
  <object id="2694" gid="1470" x="163" y="1312.84" width="16" height="16"/>
  <object id="2695" gid="1373" x="1222.91" y="653.27" width="16" height="16"/>
  <object id="2696" gid="1374" x="1238.36" y="653.42" width="16" height="16"/>
  <object id="2697" gid="1405" x="1223.09" y="669.05" width="16" height="16"/>
  <object id="2698" gid="1406" x="1239.09" y="669.05" width="16" height="16"/>
  <object id="2699" gid="1437" x="1223.09" y="684.87" width="16" height="16"/>
  <object id="2700" gid="1438" x="1238.91" y="684.51" width="16" height="16"/>
  <object id="2701" gid="1469" x="1223" y="700.73" width="16" height="16"/>
  <object id="2702" gid="1470" x="1239" y="700.51" width="16" height="16"/>
  <object id="2703" gid="1373" x="1342.91" y="640.77" width="16" height="16"/>
  <object id="2704" gid="1374" x="1358.36" y="640.92" width="16" height="16"/>
  <object id="2705" gid="1405" x="1343.09" y="656.55" width="16" height="16"/>
  <object id="2706" gid="1406" x="1359.09" y="656.55" width="16" height="16"/>
  <object id="2707" gid="1437" x="1343.09" y="672.37" width="16" height="16"/>
  <object id="2708" gid="1438" x="1358.91" y="672.01" width="16" height="16"/>
  <object id="2709" gid="1469" x="1343" y="688.23" width="16" height="16"/>
  <object id="2710" gid="1470" x="1359" y="688.01" width="16" height="16"/>
  <object id="2719" gid="1373" x="1404.91" y="633.27" width="16" height="16"/>
  <object id="2720" gid="1374" x="1420.36" y="633.42" width="16" height="16"/>
  <object id="2721" gid="1405" x="1405.09" y="649.05" width="16" height="16"/>
  <object id="2722" gid="1406" x="1421.09" y="649.05" width="16" height="16"/>
  <object id="2723" gid="1437" x="1405.09" y="664.87" width="16" height="16"/>
  <object id="2724" gid="1438" x="1420.91" y="664.51" width="16" height="16"/>
  <object id="2725" gid="1469" x="1405" y="680.73" width="16" height="16"/>
  <object id="2726" gid="1470" x="1421" y="680.51" width="16" height="16"/>
  <object id="2727" gid="1373" x="1913.41" y="643.27" width="16" height="16"/>
  <object id="2728" gid="1374" x="1928.86" y="643.42" width="16" height="16"/>
  <object id="2729" gid="1405" x="1913.59" y="659.05" width="16" height="16"/>
  <object id="2730" gid="1406" x="1929.59" y="659.05" width="16" height="16"/>
  <object id="2731" gid="1437" x="1913.59" y="674.87" width="16" height="16"/>
  <object id="2732" gid="1438" x="1929.41" y="674.51" width="16" height="16"/>
  <object id="2733" gid="1469" x="1913.5" y="690.73" width="16" height="16"/>
  <object id="2734" gid="1470" x="1929.5" y="690.51" width="16" height="16"/>
  <object id="2743" gid="1373" x="1968.91" y="393.937" width="16" height="16"/>
  <object id="2744" gid="1374" x="1984.36" y="394.087" width="16" height="16"/>
  <object id="2745" gid="1405" x="1969.09" y="409.717" width="16" height="16"/>
  <object id="2746" gid="1406" x="1985.09" y="409.717" width="16" height="16"/>
  <object id="2747" gid="1437" x="1969.09" y="425.537" width="16" height="16"/>
  <object id="2748" gid="1438" x="1984.91" y="425.177" width="16" height="16"/>
  <object id="2749" gid="1469" x="1969" y="441.397" width="16" height="16"/>
  <object id="2750" gid="1470" x="1985" y="441.177" width="16" height="16"/>
  <object id="2751" gid="1373" x="356.41" y="92.6033" width="16" height="16"/>
  <object id="2752" gid="1374" x="371.86" y="92.7533" width="16" height="16"/>
  <object id="2753" gid="1405" x="356.59" y="108.383" width="16" height="16"/>
  <object id="2754" gid="1406" x="372.59" y="108.383" width="16" height="16"/>
  <object id="2755" gid="1437" x="356.59" y="124.203" width="16" height="16"/>
  <object id="2756" gid="1438" x="372.41" y="123.843" width="16" height="16"/>
  <object id="2757" gid="1469" x="356.5" y="140.063" width="16" height="16"/>
  <object id="2758" gid="1470" x="372.5" y="139.843" width="16" height="16"/>
  <object id="2775" gid="1373" x="490.577" y="89.6033" width="16" height="16"/>
  <object id="2776" gid="1374" x="506.027" y="89.7533" width="16" height="16"/>
  <object id="2777" gid="1405" x="490.757" y="105.383" width="16" height="16"/>
  <object id="2778" gid="1406" x="506.757" y="105.383" width="16" height="16"/>
  <object id="2779" gid="1437" x="490.757" y="121.203" width="16" height="16"/>
  <object id="2780" gid="1438" x="506.577" y="120.843" width="16" height="16"/>
  <object id="2781" gid="1469" x="490.667" y="137.063" width="16" height="16"/>
  <object id="2782" gid="1470" x="506.667" y="136.843" width="16" height="16"/>
  <object id="2783" gid="1373" x="556.243" y="87.77" width="16" height="16"/>
  <object id="2784" gid="1374" x="571.693" y="87.92" width="16" height="16"/>
  <object id="2785" gid="1405" x="556.423" y="103.55" width="16" height="16"/>
  <object id="2786" gid="1406" x="572.423" y="103.55" width="16" height="16"/>
  <object id="2787" gid="1437" x="556.423" y="119.37" width="16" height="16"/>
  <object id="2788" gid="1438" x="572.243" y="119.01" width="16" height="16"/>
  <object id="2789" gid="1469" x="556.333" y="135.23" width="16" height="16"/>
  <object id="2790" gid="1470" x="572.333" y="135.01" width="16" height="16"/>
  <object id="2791" gid="1373" x="211.077" y="314.27" width="16" height="16"/>
  <object id="2792" gid="1374" x="226.527" y="314.42" width="16" height="16"/>
  <object id="2793" gid="1405" x="211.257" y="330.05" width="16" height="16"/>
  <object id="2794" gid="1406" x="227.257" y="330.05" width="16" height="16"/>
  <object id="2795" gid="1437" x="211.257" y="345.87" width="16" height="16"/>
  <object id="2796" gid="1438" x="227.077" y="345.51" width="16" height="16"/>
  <object id="2797" gid="1469" x="211.167" y="361.73" width="16" height="16"/>
  <object id="2798" gid="1470" x="227.167" y="361.51" width="16" height="16"/>
  <object id="2799" gid="1373" x="67.4615" y="139.631" width="25.2403" height="25.2403"/>
  <object id="2800" gid="1374" x="92.6315" y="139.591" width="25.2403" height="25.2403"/>
  <object id="2801" gid="1405" x="67.7515" y="164.531" width="25.2403" height="25.2403"/>
  <object id="2802" gid="1406" x="92.6165" y="164.531" width="25.2403" height="25.2403"/>
  <object id="2803" gid="1437" x="67.7515" y="189.481" width="25.2403" height="25.2403"/>
  <object id="2804" gid="1438" x="92.4515" y="188.911" width="25.2403" height="25.2403"/>
  <object id="2805" gid="1469" x="67.6015" y="214.502" width="25.2403" height="25.2403"/>
  <object id="2806" gid="1470" x="92.4515" y="213.892" width="25.2403" height="25.2403"/>
  <object id="2831" gid="1373" x="47.4615" y="1060.96" width="25.2403" height="25.2403"/>
  <object id="2832" gid="1374" x="72.2565" y="1061.17" width="25.2403" height="25.2403"/>
  <object id="2833" gid="1405" x="47.7515" y="1085.86" width="25.2403" height="25.2403"/>
  <object id="2834" gid="1406" x="72.3665" y="1085.86" width="25.2403" height="25.2403"/>
  <object id="2835" gid="1437" x="47.7515" y="1110.81" width="25.2403" height="25.2403"/>
  <object id="2836" gid="1438" x="72.2015" y="1110.24" width="25.2403" height="25.2403"/>
  <object id="2837" gid="1469" x="47.6015" y="1135.83" width="25.2403" height="25.2403"/>
  <object id="2838" gid="1470" x="72.4515" y="1135.22" width="25.2403" height="25.2403"/>
  <object id="2847" gid="1373" x="41.7948" y="929.965" width="25.2403" height="25.2403"/>
  <object id="2848" gid="1374" x="66.9648" y="929.925" width="25.2403" height="25.2403"/>
  <object id="2849" gid="1405" x="42.0849" y="954.865" width="25.2403" height="25.2403"/>
  <object id="2850" gid="1406" x="66.9498" y="954.865" width="25.2403" height="25.2403"/>
  <object id="2851" gid="1437" x="42.0849" y="979.815" width="25.2403" height="25.2403"/>
  <object id="2852" gid="1438" x="66.7848" y="979.245" width="25.2403" height="25.2403"/>
  <object id="2853" gid="1469" x="41.9348" y="1004.83" width="25.2403" height="25.2403"/>
  <object id="2854" gid="1470" x="66.7848" y="1004.22" width="25.2403" height="25.2403"/>
  <object id="2863" gid="1373" x="1177.91" y="1013.27" width="16" height="16"/>
  <object id="2864" gid="1374" x="1193.36" y="1013.42" width="16" height="16"/>
  <object id="2865" gid="1405" x="1178.09" y="1029.05" width="16" height="16"/>
  <object id="2866" gid="1406" x="1194.09" y="1029.05" width="16" height="16"/>
  <object id="2867" gid="1437" x="1178.09" y="1044.87" width="16" height="16"/>
  <object id="2868" gid="1438" x="1193.91" y="1044.51" width="16" height="16"/>
  <object id="2869" gid="1469" x="1178" y="1060.73" width="16" height="16"/>
  <object id="2870" gid="1470" x="1194" y="1060.51" width="16" height="16"/>
 </objectgroup>
 <objectgroup id="7" name="Object Layer 1">
  <object id="22" x="354" y="1489.67" width="27.3334" height="28.3333">
   <properties>
    <property name="actions" value="search_barrel"/>
    <property name="types" value="interactive"/>
   </properties>
  </object>
  <object id="26" x="18.3333" y="1506" width="27" height="28.3333">
   <properties>
    <property name="actions" value="search_barrel"/>
    <property name="types" value="interactive"/>
   </properties>
  </object>
  <object id="29" x="1059.75" y="33.25" width="25.5" height="29.5">
   <properties>
    <property name="actions" value="search_vase"/>
    <property name="types" value="interactive"/>
   </properties>
  </object>
  <object id="30" x="1267.64" y="33.2727" width="25.0909" height="29.2727">
   <properties>
    <property name="actions" value="search_vase"/>
    <property name="types" value="interactive"/>
   </properties>
  </object>
  <object id="53" gid="162" x="945.708" y="1152.99" width="31.75" height="38.5"/>
  <object id="54" gid="163" x="976.903" y="1152.78" width="27.5" height="38.25"/>
  <object id="55" gid="155" x="948.061" y="1116.36" width="28.5" height="39.75"/>
  <object id="56" gid="156" x="976.47" y="1116.18" width="28.5" height="39.25"/>
  <object id="57" gid="148" x="948.356" y="1079.24" width="28.5" height="39.75"/>
  <object id="58" gid="149" x="976.777" y="1079.2" width="28.25" height="39.75"/>
  <object id="59" gid="162" x="915.674" y="1052.64" width="31.75" height="38.5"/>
  <object id="60" gid="163" x="946.869" y="1052.43" width="27.5" height="38.25"/>
  <object id="61" gid="155" x="918.027" y="1016.01" width="28.5" height="39.75"/>
  <object id="62" gid="156" x="946.436" y="1015.83" width="28.5" height="39.25"/>
  <object id="63" gid="148" x="918.322" y="978.895" width="28.5" height="39.75"/>
  <object id="64" gid="149" x="946.743" y="978.855" width="28.25" height="39.75"/>
  <object id="65" gid="162" x="832.007" y="944.312" width="31.75" height="38.5"/>
  <object id="66" gid="163" x="863.202" y="944.102" width="27.5" height="38.25"/>
  <object id="67" gid="155" x="834.36" y="907.682" width="28.5" height="39.75"/>
  <object id="68" gid="156" x="862.769" y="907.502" width="28.5" height="39.25"/>
  <object id="69" gid="148" x="834.655" y="870.562" width="28.5" height="39.75"/>
  <object id="70" gid="149" x="863.076" y="870.522" width="28.25" height="39.75"/>
  <object id="71" gid="162" x="775.674" y="1037.98" width="31.75" height="38.5"/>
  <object id="72" gid="163" x="806.869" y="1037.77" width="27.5" height="38.25"/>
  <object id="73" gid="155" x="778.027" y="1001.35" width="28.5" height="39.75"/>
  <object id="74" gid="156" x="806.436" y="1001.17" width="28.5" height="39.25"/>
  <object id="75" gid="148" x="778.322" y="964.228" width="28.5" height="39.75"/>
  <object id="76" gid="149" x="806.743" y="964.188" width="28.25" height="39.75"/>
  <object id="77" gid="162" x="712.007" y="1056.98" width="31.75" height="38.5"/>
  <object id="78" gid="163" x="743.202" y="1056.77" width="27.5" height="38.25"/>
  <object id="79" gid="155" x="714.36" y="1020.35" width="28.5" height="39.75"/>
  <object id="80" gid="156" x="742.769" y="1020.17" width="28.5" height="39.25"/>
  <object id="81" gid="148" x="714.655" y="983.228" width="28.5" height="39.75"/>
  <object id="82" gid="149" x="743.076" y="983.188" width="28.25" height="39.75"/>
  <object id="83" gid="162" x="676.007" y="1156.98" width="31.75" height="38.5"/>
  <object id="84" gid="163" x="707.202" y="1156.77" width="27.5" height="38.25"/>
  <object id="85" gid="155" x="678.36" y="1120.35" width="28.5" height="39.75"/>
  <object id="86" gid="156" x="706.769" y="1120.17" width="28.5" height="39.25"/>
  <object id="87" gid="148" x="678.655" y="1083.23" width="28.5" height="39.75"/>
  <object id="88" gid="149" x="707.076" y="1083.19" width="28.25" height="39.75"/>
  <object id="89" gid="162" x="752.34" y="1130.98" width="31.75" height="38.5"/>
  <object id="90" gid="163" x="783.535" y="1130.77" width="27.5" height="38.25"/>
  <object id="91" gid="155" x="754.693" y="1094.35" width="28.5" height="39.75"/>
  <object id="92" gid="156" x="783.102" y="1094.17" width="28.5" height="39.25"/>
  <object id="93" gid="148" x="754.988" y="1057.23" width="28.5" height="39.75"/>
  <object id="94" gid="149" x="783.409" y="1057.19" width="28.25" height="39.75"/>
  <object id="95" gid="162" x="845.007" y="1125.98" width="31.75" height="38.5"/>
  <object id="96" gid="163" x="876.202" y="1125.77" width="27.5" height="38.25"/>
  <object id="97" gid="155" x="847.36" y="1089.35" width="28.5" height="39.75"/>
  <object id="98" gid="156" x="875.769" y="1089.17" width="28.5" height="39.25"/>
  <object id="99" gid="148" x="847.655" y="1052.23" width="28.5" height="39.75"/>
  <object id="100" gid="149" x="876.076" y="1052.19" width="28.25" height="39.75"/>
  <object id="101" gid="162" x="887.34" y="955.312" width="31.75" height="38.5"/>
  <object id="102" gid="163" x="918.535" y="955.102" width="27.5" height="38.25"/>
  <object id="103" gid="155" x="889.693" y="918.682" width="28.5" height="39.75"/>
  <object id="104" gid="156" x="918.102" y="918.502" width="28.5" height="39.25"/>
  <object id="105" gid="148" x="889.988" y="881.562" width="28.5" height="39.75"/>
  <object id="106" gid="149" x="918.409" y="881.522" width="28.25" height="39.75"/>
  <object id="107" gid="162" x="649.007" y="1047.98" width="31.75" height="38.5"/>
  <object id="108" gid="163" x="680.202" y="1047.77" width="27.5" height="38.25"/>
  <object id="109" gid="155" x="651.36" y="1011.35" width="28.5" height="39.75"/>
  <object id="110" gid="156" x="679.769" y="1011.17" width="28.5" height="39.25"/>
  <object id="111" gid="148" x="651.655" y="974.228" width="28.5" height="39.75"/>
  <object id="112" gid="149" x="680.076" y="974.188" width="28.25" height="39.75"/>
  <object id="113" gid="162" x="609.674" y="1140.98" width="31.75" height="38.5"/>
  <object id="114" gid="163" x="640.869" y="1140.77" width="27.5" height="38.25"/>
  <object id="115" gid="155" x="612.027" y="1104.35" width="28.5" height="39.75"/>
  <object id="116" gid="156" x="640.436" y="1104.17" width="28.5" height="39.25"/>
  <object id="117" gid="148" x="612.322" y="1067.23" width="28.5" height="39.75"/>
  <object id="118" gid="149" x="640.743" y="1067.19" width="28.25" height="39.75"/>
  <object id="119" gid="162" x="566.007" y="1052.31" width="31.75" height="38.5"/>
  <object id="120" gid="163" x="597.202" y="1052.1" width="27.5" height="38.25"/>
  <object id="121" gid="155" x="568.36" y="1015.68" width="28.5" height="39.75"/>
  <object id="122" gid="156" x="596.769" y="1015.5" width="28.5" height="39.25"/>
  <object id="123" gid="148" x="568.655" y="978.562" width="28.5" height="39.75"/>
  <object id="124" gid="149" x="597.076" y="978.522" width="28.25" height="39.75"/>
  <object id="125" gid="162" x="522.34" y="1111.31" width="31.75" height="38.5"/>
  <object id="126" gid="163" x="553.535" y="1111.1" width="27.5" height="38.25"/>
  <object id="127" gid="155" x="524.693" y="1074.68" width="28.5" height="39.75"/>
  <object id="128" gid="156" x="553.102" y="1074.5" width="28.5" height="39.25"/>
  <object id="129" gid="148" x="524.988" y="1037.56" width="28.5" height="39.75"/>
  <object id="130" gid="149" x="553.409" y="1037.52" width="28.25" height="39.75"/>
  <object id="131" gid="162" x="489.673" y="1044.31" width="31.75" height="38.5"/>
  <object id="132" gid="163" x="520.868" y="1044.1" width="27.5" height="38.25"/>
  <object id="133" gid="155" x="492.026" y="1007.68" width="28.5" height="39.75"/>
  <object id="134" gid="156" x="520.435" y="1007.5" width="28.5" height="39.25"/>
  <object id="135" gid="148" x="492.321" y="970.561" width="28.5" height="39.75"/>
  <object id="136" gid="149" x="520.742" y="970.521" width="28.25" height="39.75"/>
  <object id="137" gid="162" x="455.674" y="1111.31" width="31.75" height="38.5"/>
  <object id="138" gid="163" x="486.869" y="1111.1" width="27.5" height="38.25"/>
  <object id="139" gid="155" x="458.027" y="1074.68" width="28.5" height="39.75"/>
  <object id="140" gid="156" x="486.436" y="1074.5" width="28.5" height="39.25"/>
  <object id="141" gid="148" x="458.322" y="1037.56" width="28.5" height="39.75"/>
  <object id="142" gid="149" x="486.743" y="1037.52" width="28.25" height="39.75"/>
  <object id="143" gid="162" x="402.673" y="1049.31" width="31.75" height="38.5"/>
  <object id="144" gid="163" x="433.868" y="1049.1" width="27.5" height="38.25"/>
  <object id="145" gid="155" x="405.026" y="1012.68" width="28.5" height="39.75"/>
  <object id="146" gid="156" x="433.435" y="1012.5" width="28.5" height="39.25"/>
  <object id="147" gid="148" x="405.321" y="975.561" width="28.5" height="39.75"/>
  <object id="148" gid="149" x="433.742" y="975.521" width="28.25" height="39.75"/>
  <object id="149" gid="162" x="323.007" y="1038.31" width="31.75" height="38.5"/>
  <object id="150" gid="163" x="354.202" y="1038.1" width="27.5" height="38.25"/>
  <object id="151" gid="155" x="325.36" y="1001.68" width="28.5" height="39.75"/>
  <object id="152" gid="156" x="353.769" y="1001.5" width="28.5" height="39.25"/>
  <object id="153" gid="148" x="325.655" y="964.562" width="28.5" height="39.75"/>
  <object id="154" gid="149" x="354.076" y="964.522" width="28.25" height="39.75"/>
  <object id="155" gid="162" x="252.007" y="1056.64" width="31.75" height="38.5"/>
  <object id="156" gid="163" x="283.202" y="1056.43" width="27.5" height="38.25"/>
  <object id="157" gid="155" x="254.36" y="1020.01" width="28.5" height="39.75"/>
  <object id="158" gid="156" x="282.769" y="1019.84" width="28.5" height="39.25"/>
  <object id="159" gid="148" x="254.655" y="982.895" width="28.5" height="39.75"/>
  <object id="160" gid="149" x="283.076" y="982.855" width="28.25" height="39.75"/>
  <object id="161" gid="162" x="264.674" y="943.312" width="31.75" height="38.5"/>
  <object id="162" gid="163" x="295.869" y="943.102" width="27.5" height="38.25"/>
  <object id="163" gid="155" x="267.027" y="906.682" width="28.5" height="39.75"/>
  <object id="164" gid="156" x="295.436" y="906.502" width="28.5" height="39.25"/>
  <object id="165" gid="148" x="267.322" y="869.562" width="28.5" height="39.75"/>
  <object id="166" gid="149" x="295.743" y="869.522" width="28.25" height="39.75"/>
  <object id="167" gid="162" x="271.34" y="804.645" width="31.75" height="38.5"/>
  <object id="168" gid="163" x="302.535" y="804.435" width="27.5" height="38.25"/>
  <object id="169" gid="155" x="273.693" y="768.015" width="28.5" height="39.75"/>
  <object id="170" gid="156" x="302.102" y="767.835" width="28.5" height="39.25"/>
  <object id="171" gid="148" x="273.988" y="730.895" width="28.5" height="39.75"/>
  <object id="172" gid="149" x="302.409" y="730.855" width="28.25" height="39.75"/>
  <object id="173" gid="162" x="170.007" y="808.978" width="31.75" height="38.5"/>
  <object id="174" gid="163" x="201.202" y="808.768" width="27.5" height="38.25"/>
  <object id="175" gid="155" x="172.36" y="772.348" width="28.5" height="39.75"/>
  <object id="176" gid="156" x="200.769" y="772.168" width="28.5" height="39.25"/>
  <object id="177" gid="148" x="172.655" y="735.228" width="28.5" height="39.75"/>
  <object id="178" gid="149" x="201.076" y="735.188" width="28.25" height="39.75"/>
  <object id="179" gid="162" x="94.3405" y="788.645" width="31.75" height="38.5"/>
  <object id="180" gid="163" x="125.535" y="788.435" width="27.5" height="38.25"/>
  <object id="181" gid="155" x="96.6935" y="752.015" width="28.5" height="39.75"/>
  <object id="182" gid="156" x="125.102" y="751.835" width="28.5" height="39.25"/>
  <object id="183" gid="148" x="96.9885" y="714.895" width="28.5" height="39.75"/>
  <object id="184" gid="149" x="125.409" y="714.855" width="28.25" height="39.75"/>
  <object id="185" gid="162" x="50.0072" y="897.645" width="31.75" height="38.5"/>
  <object id="186" gid="163" x="81.2022" y="897.435" width="27.5" height="38.25"/>
  <object id="187" gid="155" x="52.3602" y="861.015" width="28.5" height="39.75"/>
  <object id="188" gid="156" x="80.7692" y="860.835" width="28.5" height="39.25"/>
  <object id="189" gid="148" x="52.6552" y="823.895" width="28.5" height="39.75"/>
  <object id="190" gid="149" x="81.0762" y="823.855" width="28.25" height="39.75"/>
  <object id="191" gid="162" x="95.0072" y="972.312" width="31.75" height="38.5"/>
  <object id="192" gid="163" x="126.202" y="972.102" width="27.5" height="38.25"/>
  <object id="193" gid="155" x="97.3602" y="935.682" width="28.5" height="39.75"/>
  <object id="194" gid="156" x="125.769" y="935.502" width="28.5" height="39.25"/>
  <object id="195" gid="148" x="97.6552" y="898.562" width="28.5" height="39.75"/>
  <object id="196" gid="149" x="126.076" y="898.522" width="28.25" height="39.75"/>
  <object id="197" gid="162" x="152.34" y="938.312" width="31.75" height="38.5"/>
  <object id="198" gid="163" x="183.535" y="938.102" width="27.5" height="38.25"/>
  <object id="199" gid="155" x="154.693" y="901.682" width="28.5" height="39.75"/>
  <object id="200" gid="156" x="183.102" y="901.502" width="28.5" height="39.25"/>
  <object id="201" gid="148" x="154.988" y="864.562" width="28.5" height="39.75"/>
  <object id="202" gid="149" x="183.409" y="864.522" width="28.25" height="39.75"/>
  <object id="203" gid="162" x="165.34" y="1028.64" width="31.75" height="38.5"/>
  <object id="204" gid="163" x="196.535" y="1028.43" width="27.5" height="38.25"/>
  <object id="205" gid="155" x="167.693" y="992.015" width="28.5" height="39.75"/>
  <object id="206" gid="156" x="196.102" y="991.835" width="28.5" height="39.25"/>
  <object id="207" gid="148" x="167.988" y="954.895" width="28.5" height="39.75"/>
  <object id="208" gid="149" x="196.409" y="954.855" width="28.25" height="39.75"/>
  <object id="209" gid="162" x="113.674" y="1080.31" width="31.75" height="38.5"/>
  <object id="210" gid="163" x="144.869" y="1080.1" width="27.5" height="38.25"/>
  <object id="211" gid="155" x="116.027" y="1043.68" width="28.5" height="39.75"/>
  <object id="212" gid="156" x="144.436" y="1043.5" width="28.5" height="39.25"/>
  <object id="213" gid="148" x="116.322" y="1006.56" width="28.5" height="39.75"/>
  <object id="214" gid="149" x="144.743" y="1006.52" width="28.25" height="39.75"/>
  <object id="233" gid="162" x="96.0072" y="1188.31" width="31.75" height="38.5"/>
  <object id="234" gid="163" x="127.202" y="1188.1" width="27.5" height="38.25"/>
  <object id="235" gid="155" x="98.3602" y="1151.68" width="28.5" height="39.75"/>
  <object id="236" gid="156" x="126.769" y="1151.5" width="28.5" height="39.25"/>
  <object id="237" gid="148" x="98.6552" y="1114.56" width="28.5" height="39.75"/>
  <object id="238" gid="149" x="127.076" y="1114.52" width="28.25" height="39.75"/>
  <object id="239" gid="162" x="39.3405" y="1230.64" width="31.75" height="38.5"/>
  <object id="240" gid="163" x="70.5355" y="1230.43" width="27.5" height="38.25"/>
  <object id="241" gid="155" x="41.6935" y="1194.01" width="28.5" height="39.75"/>
  <object id="242" gid="156" x="70.1025" y="1193.83" width="28.5" height="39.25"/>
  <object id="243" gid="148" x="41.9885" y="1156.89" width="28.5" height="39.75"/>
  <object id="244" gid="149" x="70.4095" y="1156.85" width="28.25" height="39.75"/>
  <object id="245" gid="162" x="93.0072" y="1297.98" width="31.75" height="38.5"/>
  <object id="246" gid="163" x="124.202" y="1297.77" width="27.5" height="38.25"/>
  <object id="247" gid="155" x="95.3602" y="1261.35" width="28.5" height="39.75"/>
  <object id="248" gid="156" x="123.769" y="1261.17" width="28.5" height="39.25"/>
  <object id="249" gid="148" x="95.6552" y="1224.23" width="28.5" height="39.75"/>
  <object id="250" gid="149" x="124.076" y="1224.19" width="28.25" height="39.75"/>
  <object id="251" gid="162" x="36.6738" y="1344.98" width="31.75" height="38.5"/>
  <object id="252" gid="163" x="67.8688" y="1344.77" width="27.5" height="38.25"/>
  <object id="253" gid="155" x="39.0268" y="1308.35" width="28.5" height="39.75"/>
  <object id="254" gid="156" x="67.4358" y="1308.17" width="28.5" height="39.25"/>
  <object id="255" gid="148" x="39.3218" y="1271.23" width="28.5" height="39.75"/>
  <object id="256" gid="149" x="67.7428" y="1271.19" width="28.25" height="39.75"/>
  <object id="257" gid="162" x="1.00717" y="1419.98" width="31.75" height="38.5"/>
  <object id="258" gid="163" x="32.2022" y="1419.77" width="27.5" height="38.25"/>
  <object id="259" gid="155" x="3.36017" y="1383.35" width="28.5" height="39.75"/>
  <object id="260" gid="156" x="31.7692" y="1383.17" width="28.5" height="39.25"/>
  <object id="261" gid="148" x="3.65517" y="1346.23" width="28.5" height="39.75"/>
  <object id="262" gid="149" x="32.0762" y="1346.19" width="28.25" height="39.75"/>
  <object id="269" gid="162" x="395.007" y="1584.64" width="31.75" height="38.5"/>
  <object id="270" gid="163" x="426.202" y="1584.43" width="27.5" height="38.25"/>
  <object id="271" gid="155" x="397.36" y="1548.01" width="28.5" height="39.75"/>
  <object id="272" gid="156" x="425.769" y="1547.84" width="28.5" height="39.25"/>
  <object id="273" gid="148" x="397.655" y="1510.89" width="28.5" height="39.75"/>
  <object id="274" gid="149" x="426.076" y="1510.86" width="28.25" height="39.75"/>
  <object id="275" gid="162" x="466.674" y="1572.64" width="31.75" height="38.5"/>
  <object id="276" gid="163" x="497.869" y="1572.43" width="27.5" height="38.25"/>
  <object id="277" gid="155" x="469.027" y="1536.01" width="28.5" height="39.75"/>
  <object id="278" gid="156" x="497.436" y="1535.84" width="28.5" height="39.25"/>
  <object id="279" gid="148" x="469.322" y="1498.89" width="28.5" height="39.75"/>
  <object id="280" gid="149" x="497.743" y="1498.86" width="28.25" height="39.75"/>
  <object id="281" gid="162" x="409.674" y="1480.31" width="31.75" height="38.5"/>
  <object id="282" gid="163" x="440.869" y="1480.1" width="27.5" height="38.25"/>
  <object id="283" gid="155" x="412.027" y="1443.68" width="28.5" height="39.75"/>
  <object id="284" gid="156" x="440.436" y="1443.5" width="28.5" height="39.25"/>
  <object id="285" gid="148" x="412.322" y="1406.56" width="28.5" height="39.75"/>
  <object id="286" gid="149" x="440.743" y="1406.52" width="28.25" height="39.75"/>
  <object id="287" gid="162" x="486.007" y="1453.31" width="31.75" height="38.5"/>
  <object id="288" gid="163" x="517.202" y="1453.1" width="27.5" height="38.25"/>
  <object id="289" gid="155" x="488.36" y="1416.68" width="28.5" height="39.75"/>
  <object id="290" gid="156" x="516.769" y="1416.5" width="28.5" height="39.25"/>
  <object id="291" gid="148" x="488.655" y="1379.56" width="28.5" height="39.75"/>
  <object id="292" gid="149" x="517.076" y="1379.52" width="28.25" height="39.75"/>
  <object id="293" gid="162" x="410.674" y="1362.64" width="31.75" height="38.5"/>
  <object id="294" gid="163" x="441.869" y="1362.43" width="27.5" height="38.25"/>
  <object id="295" gid="155" x="413.027" y="1326.01" width="28.5" height="39.75"/>
  <object id="296" gid="156" x="441.436" y="1325.84" width="28.5" height="39.25"/>
  <object id="297" gid="148" x="413.322" y="1288.89" width="28.5" height="39.75"/>
  <object id="298" gid="149" x="441.743" y="1288.86" width="28.25" height="39.75"/>
  <object id="299" gid="162" x="519.34" y="1336.98" width="31.75" height="38.5"/>
  <object id="300" gid="163" x="550.535" y="1336.77" width="27.5" height="38.25"/>
  <object id="301" gid="155" x="521.693" y="1300.35" width="28.5" height="39.75"/>
  <object id="302" gid="156" x="550.102" y="1300.17" width="28.5" height="39.25"/>
  <object id="303" gid="148" x="521.988" y="1263.23" width="28.5" height="39.75"/>
  <object id="304" gid="149" x="550.409" y="1263.19" width="28.25" height="39.75"/>
  <object id="305" gid="162" x="577.34" y="1399.64" width="31.75" height="38.5"/>
  <object id="306" gid="163" x="608.535" y="1399.43" width="27.5" height="38.25"/>
  <object id="307" gid="155" x="579.693" y="1363.01" width="28.5" height="39.75"/>
  <object id="308" gid="156" x="608.102" y="1362.83" width="28.5" height="39.25"/>
  <object id="309" gid="148" x="579.988" y="1325.89" width="28.5" height="39.75"/>
  <object id="310" gid="149" x="608.409" y="1325.85" width="28.25" height="39.75"/>
  <object id="335" gid="162" x="646.34" y="1492.31" width="31.75" height="38.5"/>
  <object id="336" gid="163" x="677.535" y="1492.1" width="27.5" height="38.25"/>
  <object id="337" gid="155" x="648.693" y="1455.68" width="28.5" height="39.75"/>
  <object id="338" gid="156" x="677.102" y="1455.5" width="28.5" height="39.25"/>
  <object id="339" gid="148" x="648.988" y="1418.56" width="28.5" height="39.75"/>
  <object id="340" gid="149" x="677.409" y="1418.52" width="28.25" height="39.75"/>
  <object id="341" gid="162" x="778.007" y="1477.31" width="31.75" height="38.5"/>
  <object id="342" gid="163" x="809.202" y="1477.1" width="27.5" height="38.25"/>
  <object id="343" gid="155" x="780.36" y="1440.68" width="28.5" height="39.75"/>
  <object id="344" gid="156" x="808.769" y="1440.5" width="28.5" height="39.25"/>
  <object id="345" gid="148" x="780.655" y="1403.56" width="28.5" height="39.75"/>
  <object id="346" gid="149" x="809.076" y="1403.52" width="28.25" height="39.75"/>
  <object id="347" gid="162" x="746.674" y="1546.31" width="31.75" height="38.5"/>
  <object id="348" gid="163" x="777.869" y="1546.1" width="27.5" height="38.25"/>
  <object id="349" gid="155" x="749.027" y="1509.68" width="28.5" height="39.75"/>
  <object id="350" gid="156" x="777.436" y="1509.5" width="28.5" height="39.25"/>
  <object id="351" gid="148" x="749.322" y="1472.56" width="28.5" height="39.75"/>
  <object id="352" gid="149" x="777.743" y="1472.52" width="28.25" height="39.75"/>
  <object id="359" gid="162" x="527.34" y="1594.98" width="31.75" height="38.5"/>
  <object id="360" gid="163" x="558.535" y="1594.77" width="27.5" height="38.25"/>
  <object id="361" gid="155" x="529.693" y="1558.35" width="28.5" height="39.75"/>
  <object id="362" gid="156" x="558.102" y="1558.17" width="28.5" height="39.25"/>
  <object id="363" gid="148" x="529.988" y="1521.23" width="28.5" height="39.75"/>
  <object id="364" gid="149" x="558.409" y="1521.19" width="28.25" height="39.75"/>
  <object id="365" gid="162" x="853.674" y="1611.31" width="31.75" height="38.5"/>
  <object id="366" gid="163" x="884.869" y="1611.1" width="27.5" height="38.25"/>
  <object id="367" gid="155" x="856.027" y="1574.68" width="28.5" height="39.75"/>
  <object id="368" gid="156" x="884.436" y="1574.5" width="28.5" height="39.25"/>
  <object id="369" gid="148" x="856.322" y="1537.56" width="28.5" height="39.75"/>
  <object id="370" gid="149" x="884.743" y="1537.52" width="28.25" height="39.75"/>
  <object id="371" gid="162" x="924.674" y="1552.98" width="31.75" height="38.5"/>
  <object id="372" gid="163" x="955.869" y="1552.77" width="27.5" height="38.25"/>
  <object id="373" gid="155" x="927.027" y="1516.35" width="28.5" height="39.75"/>
  <object id="374" gid="156" x="955.436" y="1516.17" width="28.5" height="39.25"/>
  <object id="375" gid="148" x="927.322" y="1479.23" width="28.5" height="39.75"/>
  <object id="376" gid="149" x="955.743" y="1479.19" width="28.25" height="39.75"/>
  <object id="377" gid="162" x="868.674" y="1461.64" width="31.75" height="38.5"/>
  <object id="378" gid="163" x="899.869" y="1461.43" width="27.5" height="38.25"/>
  <object id="379" gid="155" x="871.027" y="1425.01" width="28.5" height="39.75"/>
  <object id="380" gid="156" x="899.436" y="1424.83" width="28.5" height="39.25"/>
  <object id="381" gid="148" x="871.322" y="1387.89" width="28.5" height="39.75"/>
  <object id="382" gid="149" x="899.743" y="1387.85" width="28.25" height="39.75"/>
  <object id="383" gid="162" x="821.34" y="1401.98" width="31.75" height="38.5"/>
  <object id="384" gid="163" x="852.535" y="1401.77" width="27.5" height="38.25"/>
  <object id="385" gid="155" x="823.693" y="1365.35" width="28.5" height="39.75"/>
  <object id="386" gid="156" x="852.102" y="1365.17" width="28.5" height="39.25"/>
  <object id="387" gid="148" x="823.988" y="1328.23" width="28.5" height="39.75"/>
  <object id="388" gid="149" x="852.409" y="1328.19" width="28.25" height="39.75"/>
  <object id="389" gid="162" x="1122.84" y="1034.64" width="31.75" height="38.5"/>
  <object id="390" gid="163" x="1154.04" y="1034.43" width="27.5" height="38.25"/>
  <object id="391" gid="155" x="1125.19" y="998.015" width="28.5" height="39.75"/>
  <object id="392" gid="156" x="1153.6" y="997.835" width="28.5" height="39.25"/>
  <object id="393" gid="148" x="1125.49" y="960.895" width="28.5" height="39.75"/>
  <object id="394" gid="149" x="1153.91" y="960.855" width="28.25" height="39.75"/>
  <object id="395" gid="162" x="1186.34" y="1030.64" width="31.75" height="38.5"/>
  <object id="396" gid="163" x="1217.54" y="1030.43" width="27.5" height="38.25"/>
  <object id="397" gid="155" x="1188.69" y="994.015" width="28.5" height="39.75"/>
  <object id="398" gid="156" x="1217.1" y="993.835" width="28.5" height="39.25"/>
  <object id="399" gid="148" x="1188.99" y="956.895" width="28.5" height="39.75"/>
  <object id="400" gid="149" x="1217.41" y="956.855" width="28.25" height="39.75"/>
  <object id="401" gid="162" x="1125.84" y="1150.14" width="31.75" height="38.5"/>
  <object id="402" gid="163" x="1157.04" y="1149.93" width="27.5" height="38.25"/>
  <object id="403" gid="155" x="1128.19" y="1113.51" width="28.5" height="39.75"/>
  <object id="404" gid="156" x="1156.6" y="1113.34" width="28.5" height="39.25"/>
  <object id="405" gid="148" x="1128.49" y="1076.39" width="28.5" height="39.75"/>
  <object id="406" gid="149" x="1156.91" y="1076.36" width="28.25" height="39.75"/>
  <object id="407" gid="162" x="1077.84" y="1098.14" width="31.75" height="38.5"/>
  <object id="408" gid="163" x="1109.04" y="1097.93" width="27.5" height="38.25"/>
  <object id="409" gid="155" x="1080.19" y="1061.51" width="28.5" height="39.75"/>
  <object id="410" gid="156" x="1108.6" y="1061.34" width="28.5" height="39.25"/>
  <object id="411" gid="148" x="1080.49" y="1024.39" width="28.5" height="39.75"/>
  <object id="412" gid="149" x="1108.91" y="1024.36" width="28.25" height="39.75"/>
  <object id="413" gid="162" x="1202.84" y="1177.14" width="31.75" height="38.5"/>
  <object id="414" gid="163" x="1234.04" y="1176.93" width="27.5" height="38.25"/>
  <object id="415" gid="155" x="1205.19" y="1140.51" width="28.5" height="39.75"/>
  <object id="416" gid="156" x="1233.6" y="1140.34" width="28.5" height="39.25"/>
  <object id="417" gid="148" x="1205.49" y="1103.39" width="28.5" height="39.75"/>
  <object id="418" gid="149" x="1233.91" y="1103.36" width="28.25" height="39.75"/>
  <object id="419" gid="162" x="1271.84" y="1162.14" width="31.75" height="38.5"/>
  <object id="420" gid="163" x="1303.04" y="1161.93" width="27.5" height="38.25"/>
  <object id="421" gid="155" x="1274.19" y="1125.51" width="28.5" height="39.75"/>
  <object id="422" gid="156" x="1302.6" y="1125.34" width="28.5" height="39.25"/>
  <object id="423" gid="148" x="1274.49" y="1088.39" width="28.5" height="39.75"/>
  <object id="424" gid="149" x="1302.91" y="1088.36" width="28.25" height="39.75"/>
  <object id="425" gid="162" x="1235.84" y="1087.14" width="31.75" height="38.5"/>
  <object id="426" gid="163" x="1267.04" y="1086.93" width="27.5" height="38.25"/>
  <object id="427" gid="155" x="1238.19" y="1050.51" width="28.5" height="39.75"/>
  <object id="428" gid="156" x="1266.6" y="1050.34" width="28.5" height="39.25"/>
  <object id="429" gid="148" x="1238.49" y="1013.39" width="28.5" height="39.75"/>
  <object id="430" gid="149" x="1266.91" y="1013.36" width="28.25" height="39.75"/>
  <object id="431" gid="162" x="1359.34" y="1141.64" width="31.75" height="38.5"/>
  <object id="432" gid="163" x="1390.54" y="1141.43" width="27.5" height="38.25"/>
  <object id="433" gid="155" x="1361.69" y="1105.01" width="28.5" height="39.75"/>
  <object id="434" gid="156" x="1390.1" y="1104.84" width="28.5" height="39.25"/>
  <object id="435" gid="148" x="1361.99" y="1067.89" width="28.5" height="39.75"/>
  <object id="436" gid="149" x="1390.41" y="1067.86" width="28.25" height="39.75"/>
  <object id="437" gid="162" x="1403.34" y="1191.64" width="31.75" height="38.5"/>
  <object id="438" gid="163" x="1434.54" y="1191.43" width="27.5" height="38.25"/>
  <object id="439" gid="155" x="1405.69" y="1155.01" width="28.5" height="39.75"/>
  <object id="440" gid="156" x="1434.1" y="1154.84" width="28.5" height="39.25"/>
  <object id="441" gid="148" x="1405.99" y="1117.89" width="28.5" height="39.75"/>
  <object id="442" gid="149" x="1434.41" y="1117.86" width="28.25" height="39.75"/>
  <object id="443" gid="162" x="1452.84" y="1135.14" width="31.75" height="38.5"/>
  <object id="444" gid="163" x="1484.04" y="1134.93" width="27.5" height="38.25"/>
  <object id="445" gid="155" x="1455.19" y="1098.51" width="28.5" height="39.75"/>
  <object id="446" gid="156" x="1483.6" y="1098.34" width="28.5" height="39.25"/>
  <object id="447" gid="148" x="1455.49" y="1061.39" width="28.5" height="39.75"/>
  <object id="448" gid="149" x="1483.91" y="1061.36" width="28.25" height="39.75"/>
  <object id="449" gid="162" x="1530.84" y="1100.14" width="31.75" height="38.5"/>
  <object id="450" gid="163" x="1562.04" y="1099.93" width="27.5" height="38.25"/>
  <object id="451" gid="155" x="1533.19" y="1063.51" width="28.5" height="39.75"/>
  <object id="452" gid="156" x="1561.6" y="1063.34" width="28.5" height="39.25"/>
  <object id="453" gid="148" x="1533.49" y="1026.39" width="28.5" height="39.75"/>
  <object id="454" gid="149" x="1561.91" y="1026.36" width="28.25" height="39.75"/>
  <object id="455" gid="162" x="1598.34" y="1088.14" width="31.75" height="38.5"/>
  <object id="456" gid="163" x="1629.54" y="1087.93" width="27.5" height="38.25"/>
  <object id="457" gid="155" x="1600.69" y="1051.51" width="28.5" height="39.75"/>
  <object id="458" gid="156" x="1629.1" y="1051.34" width="28.5" height="39.25"/>
  <object id="459" gid="148" x="1600.99" y="1014.39" width="28.5" height="39.75"/>
  <object id="460" gid="149" x="1629.41" y="1014.36" width="28.25" height="39.75"/>
  <object id="461" gid="162" x="1550.34" y="997.645" width="31.75" height="38.5"/>
  <object id="462" gid="163" x="1581.54" y="997.435" width="27.5" height="38.25"/>
  <object id="463" gid="155" x="1552.69" y="961.015" width="28.5" height="39.75"/>
  <object id="464" gid="156" x="1581.1" y="960.835" width="28.5" height="39.25"/>
  <object id="465" gid="148" x="1552.99" y="923.895" width="28.5" height="39.75"/>
  <object id="466" gid="149" x="1581.41" y="923.855" width="28.25" height="39.75"/>
  <object id="467" gid="162" x="1652.84" y="1009.64" width="31.75" height="38.5"/>
  <object id="468" gid="163" x="1684.04" y="1009.43" width="27.5" height="38.25"/>
  <object id="469" gid="155" x="1655.19" y="973.015" width="28.5" height="39.75"/>
  <object id="470" gid="156" x="1683.6" y="972.835" width="28.5" height="39.25"/>
  <object id="471" gid="148" x="1655.49" y="935.895" width="28.5" height="39.75"/>
  <object id="472" gid="149" x="1683.91" y="935.855" width="28.25" height="39.75"/>
  <object id="473" gid="162" x="1703.84" y="929.645" width="31.75" height="38.5"/>
  <object id="474" gid="163" x="1735.04" y="929.435" width="27.5" height="38.25"/>
  <object id="475" gid="155" x="1706.19" y="893.015" width="28.5" height="39.75"/>
  <object id="476" gid="156" x="1734.6" y="892.835" width="28.5" height="39.25"/>
  <object id="477" gid="148" x="1706.49" y="855.895" width="28.5" height="39.75"/>
  <object id="478" gid="149" x="1734.91" y="855.855" width="28.25" height="39.75"/>
  <object id="479" gid="162" x="1594.34" y="898.645" width="31.75" height="38.5"/>
  <object id="480" gid="163" x="1625.54" y="898.435" width="27.5" height="38.25"/>
  <object id="481" gid="155" x="1596.69" y="862.015" width="28.5" height="39.75"/>
  <object id="482" gid="156" x="1625.1" y="861.835" width="28.5" height="39.25"/>
  <object id="483" gid="148" x="1596.99" y="824.895" width="28.5" height="39.75"/>
  <object id="484" gid="149" x="1625.41" y="824.855" width="28.25" height="39.75"/>
  <object id="485" gid="162" x="1654.84" y="885.645" width="31.75" height="38.5"/>
  <object id="486" gid="163" x="1686.04" y="885.435" width="27.5" height="38.25"/>
  <object id="487" gid="155" x="1657.19" y="849.015" width="28.5" height="39.75"/>
  <object id="488" gid="156" x="1685.6" y="848.835" width="28.5" height="39.25"/>
  <object id="489" gid="148" x="1657.49" y="811.895" width="28.5" height="39.75"/>
  <object id="490" gid="149" x="1685.91" y="811.855" width="28.25" height="39.75"/>
  <object id="497" gid="162" x="1751.34" y="848.645" width="31.75" height="38.5"/>
  <object id="498" gid="163" x="1782.54" y="848.435" width="27.5" height="38.25"/>
  <object id="499" gid="155" x="1753.69" y="812.015" width="28.5" height="39.75"/>
  <object id="500" gid="156" x="1782.1" y="811.835" width="28.5" height="39.25"/>
  <object id="501" gid="148" x="1753.99" y="774.895" width="28.5" height="39.75"/>
  <object id="502" gid="149" x="1782.41" y="774.855" width="28.25" height="39.75"/>
  <object id="509" gid="162" x="1816.84" y="828.145" width="31.75" height="38.5"/>
  <object id="510" gid="163" x="1848.04" y="827.935" width="27.5" height="38.25"/>
  <object id="511" gid="155" x="1819.19" y="791.515" width="28.5" height="39.75"/>
  <object id="512" gid="156" x="1847.6" y="791.335" width="28.5" height="39.25"/>
  <object id="513" gid="148" x="1819.49" y="754.395" width="28.5" height="39.75"/>
  <object id="514" gid="149" x="1847.91" y="754.355" width="28.25" height="39.75"/>
  <object id="515" gid="162" x="1881.84" y="823.145" width="31.75" height="38.5"/>
  <object id="516" gid="163" x="1913.04" y="822.935" width="27.5" height="38.25"/>
  <object id="517" gid="155" x="1884.19" y="786.515" width="28.5" height="39.75"/>
  <object id="518" gid="156" x="1912.6" y="786.335" width="28.5" height="39.25"/>
  <object id="519" gid="148" x="1884.49" y="749.395" width="28.5" height="39.75"/>
  <object id="520" gid="149" x="1912.91" y="749.355" width="28.25" height="39.75"/>
  <object id="521" gid="162" x="1947.84" y="822.645" width="31.75" height="38.5"/>
  <object id="522" gid="163" x="1979.04" y="822.435" width="27.5" height="38.25"/>
  <object id="523" gid="155" x="1950.19" y="786.015" width="28.5" height="39.75"/>
  <object id="524" gid="156" x="1978.6" y="785.835" width="28.5" height="39.25"/>
  <object id="525" gid="148" x="1950.49" y="748.895" width="28.5" height="39.75"/>
  <object id="526" gid="149" x="1978.91" y="748.855" width="28.25" height="39.75"/>
  <object id="527" gid="162" x="1982.34" y="893.145" width="31.75" height="38.5"/>
  <object id="528" gid="163" x="2013.54" y="892.935" width="27.5" height="38.25"/>
  <object id="529" gid="155" x="1984.69" y="856.515" width="28.5" height="39.75"/>
  <object id="530" gid="156" x="2013.1" y="856.335" width="28.5" height="39.25"/>
  <object id="531" gid="148" x="1984.99" y="819.395" width="28.5" height="39.75"/>
  <object id="532" gid="149" x="2013.41" y="819.355" width="28.25" height="39.75"/>
  <object id="533" gid="162" x="1938.84" y="670.645" width="31.75" height="38.5"/>
  <object id="534" gid="163" x="1970.04" y="670.435" width="27.5" height="38.25"/>
  <object id="535" gid="155" x="1941.19" y="634.015" width="28.5" height="39.75"/>
  <object id="536" gid="156" x="1969.6" y="633.835" width="28.5" height="39.25"/>
  <object id="537" gid="148" x="1941.49" y="596.895" width="28.5" height="39.75"/>
  <object id="538" gid="149" x="1969.91" y="596.855" width="28.25" height="39.75"/>
  <object id="539" gid="162" x="1844.34" y="741.645" width="31.75" height="38.5"/>
  <object id="540" gid="163" x="1875.54" y="741.435" width="27.5" height="38.25"/>
  <object id="541" gid="155" x="1846.69" y="705.015" width="28.5" height="39.75"/>
  <object id="542" gid="156" x="1875.1" y="704.835" width="28.5" height="39.25"/>
  <object id="543" gid="148" x="1846.99" y="667.895" width="28.5" height="39.75"/>
  <object id="544" gid="149" x="1875.41" y="667.855" width="28.25" height="39.75"/>
  <object id="545" gid="162" x="1775.34" y="760.145" width="31.75" height="38.5"/>
  <object id="546" gid="163" x="1806.54" y="759.935" width="27.5" height="38.25"/>
  <object id="547" gid="155" x="1777.69" y="723.515" width="28.5" height="39.75"/>
  <object id="548" gid="156" x="1806.1" y="723.335" width="28.5" height="39.25"/>
  <object id="549" gid="148" x="1777.99" y="686.395" width="28.5" height="39.75"/>
  <object id="550" gid="149" x="1806.41" y="686.355" width="28.25" height="39.75"/>
  <object id="551" gid="162" x="1802.84" y="666.645" width="31.75" height="38.5"/>
  <object id="552" gid="163" x="1834.04" y="666.435" width="27.5" height="38.25"/>
  <object id="553" gid="155" x="1805.19" y="630.015" width="28.5" height="39.75"/>
  <object id="554" gid="156" x="1833.6" y="629.835" width="28.5" height="39.25"/>
  <object id="555" gid="148" x="1805.49" y="592.895" width="28.5" height="39.75"/>
  <object id="556" gid="149" x="1833.91" y="592.855" width="28.25" height="39.75"/>
  <object id="557" gid="162" x="1887.84" y="627.145" width="31.75" height="38.5"/>
  <object id="558" gid="163" x="1919.04" y="626.935" width="27.5" height="38.25"/>
  <object id="559" gid="155" x="1890.19" y="590.515" width="28.5" height="39.75"/>
  <object id="560" gid="156" x="1918.6" y="590.335" width="28.5" height="39.25"/>
  <object id="561" gid="148" x="1890.49" y="553.395" width="28.5" height="39.75"/>
  <object id="562" gid="149" x="1918.91" y="553.355" width="28.25" height="39.75"/>
  <object id="563" gid="162" x="1942.84" y="552.145" width="31.75" height="38.5"/>
  <object id="564" gid="163" x="1974.04" y="551.935" width="27.5" height="38.25"/>
  <object id="565" gid="155" x="1945.19" y="515.515" width="28.5" height="39.75"/>
  <object id="566" gid="156" x="1973.6" y="515.335" width="28.5" height="39.25"/>
  <object id="567" gid="148" x="1945.49" y="478.395" width="28.5" height="39.75"/>
  <object id="568" gid="149" x="1973.91" y="478.355" width="28.25" height="39.75"/>
  <object id="569" gid="162" x="1900.01" y="482.812" width="31.75" height="38.5"/>
  <object id="570" gid="163" x="1931.21" y="482.602" width="27.5" height="38.25"/>
  <object id="571" gid="155" x="1902.36" y="446.182" width="28.5" height="39.75"/>
  <object id="572" gid="156" x="1930.77" y="446.002" width="28.5" height="39.25"/>
  <object id="573" gid="148" x="1902.66" y="409.062" width="28.5" height="39.75"/>
  <object id="574" gid="149" x="1931.08" y="409.022" width="28.25" height="39.75"/>
  <object id="575" gid="162" x="1950.84" y="384.645" width="31.75" height="38.5"/>
  <object id="576" gid="163" x="1982.04" y="384.435" width="27.5" height="38.25"/>
  <object id="577" gid="155" x="1953.19" y="348.015" width="28.5" height="39.75"/>
  <object id="578" gid="156" x="1981.6" y="347.835" width="28.5" height="39.25"/>
  <object id="579" gid="148" x="1953.49" y="310.895" width="28.5" height="39.75"/>
  <object id="580" gid="149" x="1981.91" y="310.855" width="28.25" height="39.75"/>
  <object id="581" gid="162" x="1869.34" y="407.312" width="31.75" height="38.5"/>
  <object id="582" gid="163" x="1900.54" y="407.102" width="27.5" height="38.25"/>
  <object id="583" gid="155" x="1871.69" y="370.682" width="28.5" height="39.75"/>
  <object id="584" gid="156" x="1900.1" y="370.502" width="28.5" height="39.25"/>
  <object id="585" gid="148" x="1871.99" y="333.562" width="28.5" height="39.75"/>
  <object id="586" gid="149" x="1900.41" y="333.522" width="28.25" height="39.75"/>
  <object id="587" gid="162" x="1819.34" y="347.145" width="31.75" height="38.5"/>
  <object id="588" gid="163" x="1850.54" y="346.935" width="27.5" height="38.25"/>
  <object id="589" gid="155" x="1821.69" y="310.515" width="28.5" height="39.75"/>
  <object id="590" gid="156" x="1850.1" y="310.335" width="28.5" height="39.25"/>
  <object id="591" gid="148" x="1821.99" y="273.395" width="28.5" height="39.75"/>
  <object id="592" gid="149" x="1850.41" y="273.355" width="28.25" height="39.75"/>
  <object id="593" gid="162" x="1745.84" y="147.645" width="31.75" height="38.5"/>
  <object id="594" gid="163" x="1777.04" y="147.435" width="27.5" height="38.25"/>
  <object id="595" gid="155" x="1748.19" y="111.015" width="28.5" height="39.75"/>
  <object id="596" gid="156" x="1776.6" y="110.835" width="28.5" height="39.25"/>
  <object id="597" gid="148" x="1748.49" y="73.895" width="28.5" height="39.75"/>
  <object id="598" gid="149" x="1776.91" y="73.855" width="28.25" height="39.75"/>
  <object id="605" gid="162" x="1647.84" y="241.645" width="31.75" height="38.5"/>
  <object id="606" gid="163" x="1679.04" y="241.435" width="27.5" height="38.25"/>
  <object id="607" gid="155" x="1650.19" y="205.015" width="28.5" height="39.75"/>
  <object id="608" gid="156" x="1678.6" y="204.835" width="28.5" height="39.25"/>
  <object id="609" gid="148" x="1650.49" y="167.895" width="28.5" height="39.75"/>
  <object id="610" gid="149" x="1678.91" y="167.855" width="28.25" height="39.75"/>
  <object id="611" gid="162" x="1560.34" y="213.645" width="31.75" height="38.5"/>
  <object id="612" gid="163" x="1591.54" y="213.435" width="27.5" height="38.25"/>
  <object id="613" gid="155" x="1562.69" y="177.015" width="28.5" height="39.75"/>
  <object id="614" gid="156" x="1591.1" y="176.835" width="28.5" height="39.25"/>
  <object id="615" gid="148" x="1562.99" y="139.895" width="28.5" height="39.75"/>
  <object id="616" gid="149" x="1591.41" y="139.855" width="28.25" height="39.75"/>
  <object id="629" gid="162" x="1433.84" y="233.145" width="31.75" height="38.5"/>
  <object id="630" gid="163" x="1465.04" y="232.935" width="27.5" height="38.25"/>
  <object id="631" gid="155" x="1436.19" y="196.515" width="28.5" height="39.75"/>
  <object id="632" gid="156" x="1464.6" y="196.335" width="28.5" height="39.25"/>
  <object id="633" gid="148" x="1436.49" y="159.395" width="28.5" height="39.75"/>
  <object id="634" gid="149" x="1464.91" y="159.355" width="28.25" height="39.75"/>
  <object id="641" gid="162" x="1645.34" y="364.145" width="31.75" height="38.5"/>
  <object id="642" gid="163" x="1676.54" y="363.935" width="27.5" height="38.25"/>
  <object id="643" gid="155" x="1647.69" y="327.515" width="28.5" height="39.75"/>
  <object id="644" gid="156" x="1676.1" y="327.335" width="28.5" height="39.25"/>
  <object id="645" gid="148" x="1647.99" y="290.395" width="28.5" height="39.75"/>
  <object id="646" gid="149" x="1676.41" y="290.355" width="28.25" height="39.75"/>
  <object id="653" gid="162" x="1314.84" y="398.645" width="31.75" height="38.5"/>
  <object id="654" gid="163" x="1346.04" y="398.435" width="27.5" height="38.25"/>
  <object id="655" gid="155" x="1317.19" y="362.015" width="28.5" height="39.75"/>
  <object id="656" gid="156" x="1345.6" y="361.835" width="28.5" height="39.25"/>
  <object id="657" gid="148" x="1317.49" y="324.895" width="28.5" height="39.75"/>
  <object id="658" gid="149" x="1345.91" y="324.855" width="28.25" height="39.75"/>
  <object id="683" gid="162" x="1180.67" y="1399.31" width="31.75" height="38.5"/>
  <object id="684" gid="163" x="1211.87" y="1399.1" width="27.5" height="38.25"/>
  <object id="685" gid="155" x="1183.03" y="1362.68" width="28.5" height="39.75"/>
  <object id="686" gid="156" x="1211.44" y="1362.5" width="28.5" height="39.25"/>
  <object id="687" gid="148" x="1183.32" y="1325.56" width="28.5" height="39.75"/>
  <object id="688" gid="149" x="1211.74" y="1325.52" width="28.25" height="39.75"/>
  <object id="689" gid="162" x="1258.34" y="1399.64" width="31.75" height="38.5"/>
  <object id="690" gid="163" x="1289.54" y="1399.43" width="27.5" height="38.25"/>
  <object id="691" gid="155" x="1260.69" y="1363.01" width="28.5" height="39.75"/>
  <object id="692" gid="156" x="1289.1" y="1362.84" width="28.5" height="39.25"/>
  <object id="693" gid="148" x="1260.99" y="1325.89" width="28.5" height="39.75"/>
  <object id="694" gid="149" x="1289.41" y="1325.86" width="28.25" height="39.75"/>
  <object id="695" gid="162" x="1323.01" y="1383.98" width="31.75" height="38.5"/>
  <object id="696" gid="163" x="1354.2" y="1383.77" width="27.5" height="38.25"/>
  <object id="697" gid="155" x="1325.36" y="1347.35" width="28.5" height="39.75"/>
  <object id="698" gid="156" x="1353.77" y="1347.17" width="28.5" height="39.25"/>
  <object id="699" gid="148" x="1325.66" y="1310.23" width="28.5" height="39.75"/>
  <object id="700" gid="149" x="1354.08" y="1310.19" width="28.25" height="39.75"/>
  <object id="701" gid="162" x="1376" y="1381.64" width="31.75" height="38.5"/>
  <object id="702" gid="163" x="1407.2" y="1381.43" width="27.5" height="38.25"/>
  <object id="703" gid="155" x="1378.36" y="1345.01" width="28.5" height="39.75"/>
  <object id="704" gid="156" x="1406.77" y="1344.83" width="28.5" height="39.25"/>
  <object id="705" gid="148" x="1378.65" y="1307.89" width="28.5" height="39.75"/>
  <object id="706" gid="149" x="1407.07" y="1307.85" width="28.25" height="39.75"/>
  <object id="707" gid="162" x="1440" y="1397.64" width="31.75" height="38.5"/>
  <object id="708" gid="163" x="1471.2" y="1397.43" width="27.5" height="38.25"/>
  <object id="709" gid="155" x="1442.36" y="1361.01" width="28.5" height="39.75"/>
  <object id="710" gid="156" x="1470.77" y="1360.83" width="28.5" height="39.25"/>
  <object id="711" gid="148" x="1442.65" y="1323.89" width="28.5" height="39.75"/>
  <object id="712" gid="149" x="1471.07" y="1323.85" width="28.25" height="39.75"/>
  <object id="713" gid="162" x="1502.34" y="1377.64" width="31.75" height="38.5"/>
  <object id="714" gid="163" x="1533.54" y="1377.43" width="27.5" height="38.25"/>
  <object id="715" gid="155" x="1504.69" y="1341.01" width="28.5" height="39.75"/>
  <object id="716" gid="156" x="1533.1" y="1340.84" width="28.5" height="39.25"/>
  <object id="717" gid="148" x="1504.99" y="1303.89" width="28.5" height="39.75"/>
  <object id="718" gid="149" x="1533.41" y="1303.86" width="28.25" height="39.75"/>
  <object id="719" gid="162" x="1384.01" y="1539.98" width="31.75" height="38.5"/>
  <object id="720" gid="163" x="1415.2" y="1539.77" width="27.5" height="38.25"/>
  <object id="721" gid="155" x="1386.36" y="1503.35" width="28.5" height="39.75"/>
  <object id="722" gid="156" x="1414.77" y="1503.17" width="28.5" height="39.25"/>
  <object id="723" gid="148" x="1386.66" y="1466.23" width="28.5" height="39.75"/>
  <object id="724" gid="149" x="1415.08" y="1466.19" width="28.25" height="39.75"/>
  <object id="725" gid="162" x="1305.34" y="1535.31" width="31.75" height="38.5"/>
  <object id="726" gid="163" x="1336.54" y="1535.1" width="27.5" height="38.25"/>
  <object id="727" gid="155" x="1307.69" y="1498.68" width="28.5" height="39.75"/>
  <object id="728" gid="156" x="1336.1" y="1498.5" width="28.5" height="39.25"/>
  <object id="729" gid="148" x="1307.99" y="1461.56" width="28.5" height="39.75"/>
  <object id="730" gid="149" x="1336.41" y="1461.52" width="28.25" height="39.75"/>
  <object id="731" gid="162" x="1254.67" y="1523.98" width="31.75" height="38.5"/>
  <object id="732" gid="163" x="1285.87" y="1523.77" width="27.5" height="38.25"/>
  <object id="733" gid="155" x="1257.03" y="1487.35" width="28.5" height="39.75"/>
  <object id="734" gid="156" x="1285.44" y="1487.17" width="28.5" height="39.25"/>
  <object id="735" gid="148" x="1257.32" y="1450.23" width="28.5" height="39.75"/>
  <object id="736" gid="149" x="1285.74" y="1450.19" width="28.25" height="39.75"/>
  <object id="737" gid="162" x="1184.01" y="1511.31" width="31.75" height="38.5"/>
  <object id="738" gid="163" x="1215.2" y="1511.1" width="27.5" height="38.25"/>
  <object id="739" gid="155" x="1186.36" y="1474.68" width="28.5" height="39.75"/>
  <object id="740" gid="156" x="1214.77" y="1474.5" width="28.5" height="39.25"/>
  <object id="741" gid="148" x="1186.66" y="1437.56" width="28.5" height="39.75"/>
  <object id="742" gid="149" x="1215.08" y="1437.52" width="28.25" height="39.75"/>
  <object id="743" gid="162" x="1512.34" y="1504.98" width="31.75" height="38.5"/>
  <object id="744" gid="163" x="1543.54" y="1504.77" width="27.5" height="38.25"/>
  <object id="745" gid="155" x="1514.69" y="1468.35" width="28.5" height="39.75"/>
  <object id="746" gid="156" x="1543.1" y="1468.17" width="28.5" height="39.25"/>
  <object id="747" gid="148" x="1514.99" y="1431.23" width="28.5" height="39.75"/>
  <object id="748" gid="149" x="1543.41" y="1431.19" width="28.25" height="39.75"/>
  <object id="749" gid="162" x="1785.67" y="1253.64" width="31.75" height="38.5"/>
  <object id="750" gid="163" x="1816.87" y="1253.43" width="27.5" height="38.25"/>
  <object id="751" gid="155" x="1788.03" y="1217.01" width="28.5" height="39.75"/>
  <object id="752" gid="156" x="1816.44" y="1216.84" width="28.5" height="39.25"/>
  <object id="753" gid="148" x="1788.32" y="1179.89" width="28.5" height="39.75"/>
  <object id="754" gid="149" x="1816.74" y="1179.86" width="28.25" height="39.75"/>
  <object id="755" gid="162" x="1709.34" y="1278.31" width="31.75" height="38.5"/>
  <object id="756" gid="163" x="1740.54" y="1278.1" width="27.5" height="38.25"/>
  <object id="757" gid="155" x="1711.69" y="1241.68" width="28.5" height="39.75"/>
  <object id="758" gid="156" x="1740.1" y="1241.5" width="28.5" height="39.25"/>
  <object id="759" gid="148" x="1711.99" y="1204.56" width="28.5" height="39.75"/>
  <object id="760" gid="149" x="1740.41" y="1204.52" width="28.25" height="39.75"/>
  <object id="761" gid="162" x="1847.01" y="1172.64" width="31.75" height="38.5"/>
  <object id="762" gid="163" x="1878.2" y="1172.43" width="27.5" height="38.25"/>
  <object id="763" gid="155" x="1849.36" y="1136.01" width="28.5" height="39.75"/>
  <object id="764" gid="156" x="1877.77" y="1135.84" width="28.5" height="39.25"/>
  <object id="765" gid="148" x="1849.66" y="1098.89" width="28.5" height="39.75"/>
  <object id="766" gid="149" x="1878.08" y="1098.86" width="28.25" height="39.75"/>
  <object id="785" gid="162" x="1918.34" y="1161.64" width="31.75" height="38.5"/>
  <object id="786" gid="163" x="1949.54" y="1161.43" width="27.5" height="38.25"/>
  <object id="787" gid="155" x="1920.7" y="1125.01" width="28.5" height="39.75"/>
  <object id="788" gid="156" x="1949.11" y="1124.84" width="28.5" height="39.25"/>
  <object id="789" gid="148" x="1920.99" y="1087.89" width="28.5" height="39.75"/>
  <object id="790" gid="149" x="1949.41" y="1087.86" width="28.25" height="39.75"/>
  <object id="791" gid="162" x="1978.34" y="1129.64" width="31.75" height="38.5"/>
  <object id="792" gid="163" x="2009.54" y="1129.43" width="27.5" height="38.25"/>
  <object id="793" gid="155" x="1980.69" y="1093.01" width="28.5" height="39.75"/>
  <object id="794" gid="156" x="2009.1" y="1092.84" width="28.5" height="39.25"/>
  <object id="795" gid="148" x="1980.99" y="1055.89" width="28.5" height="39.75"/>
  <object id="796" gid="149" x="2009.41" y="1055.86" width="28.25" height="39.75"/>
  <object id="797" gid="162" x="1939.67" y="1286.98" width="31.75" height="38.5"/>
  <object id="798" gid="163" x="1970.87" y="1286.77" width="27.5" height="38.25"/>
  <object id="799" gid="155" x="1942.03" y="1250.35" width="28.5" height="39.75"/>
  <object id="800" gid="156" x="1970.44" y="1250.17" width="28.5" height="39.25"/>
  <object id="801" gid="148" x="1942.32" y="1213.23" width="28.5" height="39.75"/>
  <object id="802" gid="149" x="1970.74" y="1213.19" width="28.25" height="39.75"/>
  <object id="803" gid="162" x="1873.67" y="1258.31" width="31.75" height="38.5"/>
  <object id="804" gid="163" x="1904.87" y="1258.1" width="27.5" height="38.25"/>
  <object id="805" gid="155" x="1876.03" y="1221.68" width="28.5" height="39.75"/>
  <object id="806" gid="156" x="1904.44" y="1221.5" width="28.5" height="39.25"/>
  <object id="807" gid="148" x="1876.32" y="1184.56" width="28.5" height="39.75"/>
  <object id="808" gid="149" x="1904.74" y="1184.52" width="28.25" height="39.75"/>
  <object id="821" gid="162" x="1943.01" y="1400.98" width="31.75" height="38.5"/>
  <object id="822" gid="163" x="1974.2" y="1400.77" width="27.5" height="38.25"/>
  <object id="823" gid="155" x="1945.36" y="1364.35" width="28.5" height="39.75"/>
  <object id="824" gid="156" x="1973.77" y="1364.17" width="28.5" height="39.25"/>
  <object id="825" gid="148" x="1945.66" y="1327.23" width="28.5" height="39.75"/>
  <object id="826" gid="149" x="1974.08" y="1327.19" width="28.25" height="39.75"/>
  <object id="827" gid="162" x="1870.34" y="1583.64" width="31.75" height="38.5"/>
  <object id="828" gid="163" x="1901.54" y="1583.43" width="27.5" height="38.25"/>
  <object id="829" gid="155" x="1872.69" y="1547.01" width="28.5" height="39.75"/>
  <object id="830" gid="156" x="1901.1" y="1546.84" width="28.5" height="39.25"/>
  <object id="831" gid="148" x="1872.99" y="1509.89" width="28.5" height="39.75"/>
  <object id="832" gid="149" x="1901.41" y="1509.86" width="28.25" height="39.75"/>
  <object id="833" gid="162" x="1945.01" y="1504.31" width="31.75" height="38.5"/>
  <object id="834" gid="163" x="1976.2" y="1504.1" width="27.5" height="38.25"/>
  <object id="835" gid="155" x="1947.36" y="1467.68" width="28.5" height="39.75"/>
  <object id="836" gid="156" x="1975.77" y="1467.5" width="28.5" height="39.25"/>
  <object id="837" gid="148" x="1947.66" y="1430.56" width="28.5" height="39.75"/>
  <object id="838" gid="149" x="1976.08" y="1430.52" width="28.25" height="39.75"/>
  <object id="845" gid="162" x="1535.34" y="1613.14" width="31.75" height="38.5"/>
  <object id="846" gid="163" x="1566.54" y="1612.93" width="27.5" height="38.25"/>
  <object id="847" gid="155" x="1537.69" y="1576.51" width="28.5" height="39.75"/>
  <object id="848" gid="156" x="1566.1" y="1576.34" width="28.5" height="39.25"/>
  <object id="849" gid="148" x="1537.99" y="1539.39" width="28.5" height="39.75"/>
  <object id="850" gid="149" x="1566.41" y="1539.36" width="28.25" height="39.75"/>
  <object id="851" gid="162" x="1628.51" y="653.312" width="31.75" height="38.5"/>
  <object id="852" gid="163" x="1659.7" y="653.102" width="27.5" height="38.25"/>
  <object id="853" gid="155" x="1630.86" y="616.682" width="28.5" height="39.75"/>
  <object id="854" gid="156" x="1659.27" y="616.502" width="28.5" height="39.25"/>
  <object id="855" gid="148" x="1631.16" y="579.562" width="28.5" height="39.75"/>
  <object id="856" gid="149" x="1659.58" y="579.522" width="28.25" height="39.75"/>
  <object id="863" gid="162" x="1574.51" y="643.312" width="31.75" height="38.5"/>
  <object id="864" gid="163" x="1605.7" y="643.102" width="27.5" height="38.25"/>
  <object id="865" gid="155" x="1576.86" y="606.682" width="28.5" height="39.75"/>
  <object id="866" gid="156" x="1605.27" y="606.502" width="28.5" height="39.25"/>
  <object id="867" gid="148" x="1577.16" y="569.562" width="28.5" height="39.75"/>
  <object id="868" gid="149" x="1605.58" y="569.522" width="28.25" height="39.75"/>
  <object id="869" gid="162" x="1544.34" y="771.645" width="31.75" height="38.5"/>
  <object id="870" gid="163" x="1575.54" y="771.435" width="27.5" height="38.25"/>
  <object id="871" gid="155" x="1546.69" y="735.015" width="28.5" height="39.75"/>
  <object id="872" gid="156" x="1575.1" y="734.835" width="28.5" height="39.25"/>
  <object id="873" gid="148" x="1546.99" y="697.895" width="28.5" height="39.75"/>
  <object id="874" gid="149" x="1575.41" y="697.855" width="28.25" height="39.75"/>
  <object id="875" gid="162" x="1483.01" y="771.645" width="31.75" height="38.5"/>
  <object id="876" gid="163" x="1514.2" y="771.435" width="27.5" height="38.25"/>
  <object id="877" gid="155" x="1485.36" y="735.015" width="28.5" height="39.75"/>
  <object id="878" gid="156" x="1513.77" y="734.835" width="28.5" height="39.25"/>
  <object id="879" gid="148" x="1485.66" y="697.895" width="28.5" height="39.75"/>
  <object id="880" gid="149" x="1514.08" y="697.855" width="28.25" height="39.75"/>
  <object id="881" gid="162" x="1426.34" y="747.645" width="31.75" height="38.5"/>
  <object id="882" gid="163" x="1457.54" y="747.435" width="27.5" height="38.25"/>
  <object id="883" gid="155" x="1428.69" y="711.015" width="28.5" height="39.75"/>
  <object id="884" gid="156" x="1457.1" y="710.835" width="28.5" height="39.25"/>
  <object id="885" gid="148" x="1428.99" y="673.895" width="28.5" height="39.75"/>
  <object id="886" gid="149" x="1457.41" y="673.855" width="28.25" height="39.75"/>
  <object id="887" gid="162" x="1356.17" y="762.978" width="31.75" height="38.5"/>
  <object id="888" gid="163" x="1387.37" y="762.768" width="27.5" height="38.25"/>
  <object id="889" gid="155" x="1358.53" y="726.348" width="28.5" height="39.75"/>
  <object id="890" gid="156" x="1386.94" y="726.168" width="28.5" height="39.25"/>
  <object id="891" gid="148" x="1358.82" y="689.228" width="28.5" height="39.75"/>
  <object id="892" gid="149" x="1387.24" y="689.188" width="28.25" height="39.75"/>
  <object id="893" gid="162" x="1297.01" y="760.645" width="31.75" height="38.5"/>
  <object id="894" gid="163" x="1328.2" y="760.435" width="27.5" height="38.25"/>
  <object id="895" gid="155" x="1299.36" y="724.015" width="28.5" height="39.75"/>
  <object id="896" gid="156" x="1327.77" y="723.835" width="28.5" height="39.25"/>
  <object id="897" gid="148" x="1299.66" y="686.895" width="28.5" height="39.75"/>
  <object id="898" gid="149" x="1328.08" y="686.855" width="28.25" height="39.75"/>
  <object id="899" gid="162" x="1240.17" y="758.812" width="31.75" height="38.5"/>
  <object id="900" gid="163" x="1271.37" y="758.602" width="27.5" height="38.25"/>
  <object id="901" gid="155" x="1242.53" y="722.182" width="28.5" height="39.75"/>
  <object id="902" gid="156" x="1270.94" y="722.002" width="28.5" height="39.25"/>
  <object id="903" gid="148" x="1242.82" y="685.062" width="28.5" height="39.75"/>
  <object id="904" gid="149" x="1271.24" y="685.022" width="28.25" height="39.75"/>
  <object id="905" gid="162" x="1179.01" y="772.145" width="31.75" height="38.5"/>
  <object id="906" gid="163" x="1210.2" y="771.935" width="27.5" height="38.25"/>
  <object id="907" gid="155" x="1181.36" y="735.515" width="28.5" height="39.75"/>
  <object id="908" gid="156" x="1209.77" y="735.335" width="28.5" height="39.25"/>
  <object id="909" gid="148" x="1181.66" y="698.395" width="28.5" height="39.75"/>
  <object id="910" gid="149" x="1210.08" y="698.355" width="28.25" height="39.75"/>
  <object id="911" gid="162" x="1113.84" y="742.312" width="31.75" height="38.5"/>
  <object id="912" gid="163" x="1145.04" y="742.102" width="27.5" height="38.25"/>
  <object id="913" gid="155" x="1116.19" y="705.682" width="28.5" height="39.75"/>
  <object id="914" gid="156" x="1144.6" y="705.502" width="28.5" height="39.25"/>
  <object id="915" gid="148" x="1116.49" y="668.562" width="28.5" height="39.75"/>
  <object id="916" gid="149" x="1144.91" y="668.522" width="28.25" height="39.75"/>
  <object id="917" gid="162" x="1077.01" y="818.312" width="31.75" height="38.5"/>
  <object id="918" gid="163" x="1108.2" y="818.102" width="27.5" height="38.25"/>
  <object id="919" gid="155" x="1079.36" y="781.682" width="28.5" height="39.75"/>
  <object id="920" gid="156" x="1107.77" y="781.502" width="28.5" height="39.25"/>
  <object id="921" gid="148" x="1079.66" y="744.562" width="28.5" height="39.75"/>
  <object id="922" gid="149" x="1108.08" y="744.522" width="28.25" height="39.75"/>
  <object id="923" gid="162" x="1143.01" y="848.312" width="31.75" height="38.5"/>
  <object id="924" gid="163" x="1174.2" y="848.102" width="27.5" height="38.25"/>
  <object id="925" gid="155" x="1145.36" y="811.682" width="28.5" height="39.75"/>
  <object id="926" gid="156" x="1173.77" y="811.502" width="28.5" height="39.25"/>
  <object id="927" gid="148" x="1145.66" y="774.562" width="28.5" height="39.75"/>
  <object id="928" gid="149" x="1174.08" y="774.522" width="28.25" height="39.75"/>
  <object id="929" gid="162" x="1024.01" y="846.645" width="31.75" height="38.5"/>
  <object id="930" gid="163" x="1055.2" y="846.435" width="27.5" height="38.25"/>
  <object id="931" gid="155" x="1026.36" y="810.015" width="28.5" height="39.75"/>
  <object id="932" gid="156" x="1054.77" y="809.835" width="28.5" height="39.25"/>
  <object id="933" gid="148" x="1026.66" y="772.895" width="28.5" height="39.75"/>
  <object id="934" gid="149" x="1055.08" y="772.855" width="28.25" height="39.75"/>
  <object id="935" gid="162" x="1211.67" y="856.312" width="31.75" height="38.5"/>
  <object id="936" gid="163" x="1242.87" y="856.102" width="27.5" height="38.25"/>
  <object id="937" gid="155" x="1214.03" y="819.682" width="28.5" height="39.75"/>
  <object id="938" gid="156" x="1242.44" y="819.502" width="28.5" height="39.25"/>
  <object id="939" gid="148" x="1214.32" y="782.562" width="28.5" height="39.75"/>
  <object id="940" gid="149" x="1242.74" y="782.522" width="28.25" height="39.75"/>
  <object id="941" gid="162" x="1281.01" y="860.312" width="31.75" height="38.5"/>
  <object id="942" gid="163" x="1312.2" y="860.102" width="27.5" height="38.25"/>
  <object id="943" gid="155" x="1283.36" y="823.682" width="28.5" height="39.75"/>
  <object id="944" gid="156" x="1311.77" y="823.502" width="28.5" height="39.25"/>
  <object id="945" gid="148" x="1283.66" y="786.562" width="28.5" height="39.75"/>
  <object id="946" gid="149" x="1312.08" y="786.522" width="28.25" height="39.75"/>
  <object id="947" gid="162" x="1349.01" y="860.312" width="31.75" height="38.5"/>
  <object id="948" gid="163" x="1380.2" y="860.102" width="27.5" height="38.25"/>
  <object id="949" gid="155" x="1351.36" y="823.682" width="28.5" height="39.75"/>
  <object id="950" gid="156" x="1379.77" y="823.502" width="28.5" height="39.25"/>
  <object id="951" gid="148" x="1351.66" y="786.562" width="28.5" height="39.75"/>
  <object id="952" gid="149" x="1380.08" y="786.522" width="28.25" height="39.75"/>
  <object id="953" gid="162" x="1414.34" y="870.312" width="31.75" height="38.5"/>
  <object id="954" gid="163" x="1445.54" y="870.102" width="27.5" height="38.25"/>
  <object id="955" gid="155" x="1416.69" y="833.682" width="28.5" height="39.75"/>
  <object id="956" gid="156" x="1445.1" y="833.502" width="28.5" height="39.25"/>
  <object id="957" gid="148" x="1416.99" y="796.562" width="28.5" height="39.75"/>
  <object id="958" gid="149" x="1445.41" y="796.522" width="28.25" height="39.75"/>
  <object id="959" gid="162" x="1505.01" y="870.312" width="31.75" height="38.5"/>
  <object id="960" gid="163" x="1536.2" y="870.102" width="27.5" height="38.25"/>
  <object id="961" gid="155" x="1507.36" y="833.682" width="28.5" height="39.75"/>
  <object id="962" gid="156" x="1535.77" y="833.502" width="28.5" height="39.25"/>
  <object id="963" gid="148" x="1507.66" y="796.562" width="28.5" height="39.75"/>
  <object id="964" gid="149" x="1536.08" y="796.522" width="28.25" height="39.75"/>
  <object id="965" gid="162" x="704.34" y="1466.64" width="31.75" height="38.5"/>
  <object id="966" gid="163" x="735.535" y="1466.43" width="27.5" height="38.25"/>
  <object id="967" gid="155" x="706.693" y="1430.01" width="28.5" height="39.75"/>
  <object id="968" gid="156" x="735.102" y="1429.84" width="28.5" height="39.25"/>
  <object id="969" gid="148" x="706.988" y="1392.89" width="28.5" height="39.75"/>
  <object id="970" gid="149" x="735.409" y="1392.86" width="28.25" height="39.75"/>
  <object id="971" gid="162" x="351.34" y="1311.64" width="31.75" height="38.5"/>
  <object id="972" gid="163" x="382.535" y="1311.43" width="27.5" height="38.25"/>
  <object id="973" gid="155" x="353.693" y="1275.01" width="28.5" height="39.75"/>
  <object id="974" gid="156" x="382.102" y="1274.84" width="28.5" height="39.25"/>
  <object id="975" gid="148" x="353.988" y="1237.89" width="28.5" height="39.75"/>
  <object id="976" gid="149" x="382.409" y="1237.86" width="28.25" height="39.75"/>
  <object id="977" gid="162" x="299.34" y="1284.14" width="31.75" height="38.5"/>
  <object id="978" gid="163" x="330.535" y="1283.93" width="27.5" height="38.25"/>
  <object id="979" gid="155" x="301.693" y="1247.51" width="28.5" height="39.75"/>
  <object id="980" gid="156" x="330.102" y="1247.34" width="28.5" height="39.25"/>
  <object id="981" gid="148" x="301.988" y="1210.39" width="28.5" height="39.75"/>
  <object id="982" gid="149" x="330.409" y="1210.36" width="28.25" height="39.75"/>
  <object id="983" gid="162" x="464.84" y="1298.14" width="31.75" height="38.5"/>
  <object id="984" gid="163" x="496.035" y="1297.93" width="27.5" height="38.25"/>
  <object id="985" gid="155" x="467.193" y="1261.51" width="28.5" height="39.75"/>
  <object id="986" gid="156" x="495.602" y="1261.34" width="28.5" height="39.25"/>
  <object id="987" gid="148" x="467.488" y="1224.39" width="28.5" height="39.75"/>
  <object id="988" gid="149" x="495.909" y="1224.36" width="28.25" height="39.75"/>
  <object id="989" gid="162" x="401.34" y="1253.64" width="31.75" height="38.5"/>
  <object id="990" gid="163" x="432.535" y="1253.43" width="27.5" height="38.25"/>
  <object id="991" gid="155" x="403.693" y="1217.01" width="28.5" height="39.75"/>
  <object id="992" gid="156" x="432.102" y="1216.84" width="28.5" height="39.25"/>
  <object id="993" gid="148" x="403.988" y="1179.89" width="28.5" height="39.75"/>
  <object id="994" gid="149" x="432.409" y="1179.86" width="28.25" height="39.75"/>
  <object id="995" gid="162" x="214.34" y="875.145" width="31.75" height="38.5"/>
  <object id="996" gid="163" x="245.535" y="874.935" width="27.5" height="38.25"/>
  <object id="997" gid="155" x="216.693" y="838.515" width="28.5" height="39.75"/>
  <object id="998" gid="156" x="245.102" y="838.335" width="28.5" height="39.25"/>
  <object id="999" gid="148" x="216.988" y="801.395" width="28.5" height="39.75"/>
  <object id="1000" gid="149" x="245.409" y="801.355" width="28.25" height="39.75"/>
  <object id="1001" gid="162" x="221.507" y="776.978" width="31.75" height="38.5"/>
  <object id="1002" gid="163" x="252.702" y="776.768" width="27.5" height="38.25"/>
  <object id="1003" gid="155" x="223.86" y="740.348" width="28.5" height="39.75"/>
  <object id="1004" gid="156" x="252.269" y="740.168" width="28.5" height="39.25"/>
  <object id="1005" gid="148" x="224.155" y="703.228" width="28.5" height="39.75"/>
  <object id="1006" gid="149" x="252.576" y="703.188" width="28.25" height="39.75"/>
  <object id="1007" gid="162" x="134.257" y="747.728" width="31.75" height="38.5"/>
  <object id="1008" gid="163" x="165.452" y="747.518" width="27.5" height="38.25"/>
  <object id="1009" gid="155" x="136.61" y="711.098" width="28.5" height="39.75"/>
  <object id="1010" gid="156" x="165.019" y="710.918" width="28.5" height="39.25"/>
  <object id="1011" gid="148" x="136.905" y="673.978" width="28.5" height="39.75"/>
  <object id="1012" gid="149" x="165.326" y="673.938" width="28.25" height="39.75"/>
  <object id="1013" gid="162" x="64.3405" y="630.145" width="31.75" height="38.5"/>
  <object id="1014" gid="163" x="95.5355" y="629.935" width="27.5" height="38.25"/>
  <object id="1015" gid="155" x="66.6935" y="593.515" width="28.5" height="39.75"/>
  <object id="1016" gid="156" x="95.1025" y="593.335" width="28.5" height="39.25"/>
  <object id="1017" gid="148" x="66.9885" y="556.395" width="28.5" height="39.75"/>
  <object id="1018" gid="149" x="95.4095" y="556.355" width="28.25" height="39.75"/>
  <object id="1019" gid="162" x="6.8405" y="619.645" width="31.75" height="38.5"/>
  <object id="1020" gid="163" x="38.0355" y="619.435" width="27.5" height="38.25"/>
  <object id="1021" gid="155" x="9.1935" y="583.015" width="28.5" height="39.75"/>
  <object id="1022" gid="156" x="37.6025" y="582.835" width="28.5" height="39.25"/>
  <object id="1023" gid="148" x="9.4885" y="545.895" width="28.5" height="39.75"/>
  <object id="1024" gid="149" x="37.9095" y="545.855" width="28.25" height="39.75"/>
  <object id="1025" gid="162" x="46.8405" y="512.645" width="31.75" height="38.5"/>
  <object id="1026" gid="163" x="78.0355" y="512.435" width="27.5" height="38.25"/>
  <object id="1027" gid="155" x="49.1935" y="476.015" width="28.5" height="39.75"/>
  <object id="1028" gid="156" x="77.6025" y="475.835" width="28.5" height="39.25"/>
  <object id="1029" gid="148" x="49.4885" y="438.895" width="28.5" height="39.75"/>
  <object id="1030" gid="149" x="77.9095" y="438.855" width="28.25" height="39.75"/>
  <object id="1031" gid="162" x="104.84" y="462.645" width="31.75" height="38.5"/>
  <object id="1032" gid="163" x="136.035" y="462.435" width="27.5" height="38.25"/>
  <object id="1033" gid="155" x="107.193" y="426.015" width="28.5" height="39.75"/>
  <object id="1034" gid="156" x="135.602" y="425.835" width="28.5" height="39.25"/>
  <object id="1035" gid="148" x="107.488" y="388.895" width="28.5" height="39.75"/>
  <object id="1036" gid="149" x="135.909" y="388.855" width="28.25" height="39.75"/>
  <object id="1037" gid="162" x="52.8405" y="404.645" width="31.75" height="38.5"/>
  <object id="1038" gid="163" x="84.0355" y="404.435" width="27.5" height="38.25"/>
  <object id="1039" gid="155" x="55.1935" y="368.015" width="28.5" height="39.75"/>
  <object id="1040" gid="156" x="83.6025" y="367.835" width="28.5" height="39.25"/>
  <object id="1041" gid="148" x="55.4885" y="330.895" width="28.5" height="39.75"/>
  <object id="1042" gid="149" x="83.9095" y="330.855" width="28.25" height="39.75"/>
  <object id="1043" gid="162" x="164.34" y="430.145" width="31.75" height="38.5"/>
  <object id="1044" gid="163" x="195.535" y="429.935" width="27.5" height="38.25"/>
  <object id="1045" gid="155" x="166.693" y="393.515" width="28.5" height="39.75"/>
  <object id="1046" gid="156" x="195.102" y="393.335" width="28.5" height="39.25"/>
  <object id="1047" gid="148" x="166.988" y="356.395" width="28.5" height="39.75"/>
  <object id="1048" gid="149" x="195.409" y="356.355" width="28.25" height="39.75"/>
  <object id="1049" gid="162" x="227.84" y="429.145" width="31.75" height="38.5"/>
  <object id="1050" gid="163" x="259.035" y="428.935" width="27.5" height="38.25"/>
  <object id="1051" gid="155" x="230.193" y="392.515" width="28.5" height="39.75"/>
  <object id="1052" gid="156" x="258.602" y="392.335" width="28.5" height="39.25"/>
  <object id="1053" gid="148" x="230.488" y="355.395" width="28.5" height="39.75"/>
  <object id="1054" gid="149" x="258.909" y="355.355" width="28.25" height="39.75"/>
  <object id="1055" gid="162" x="287.34" y="440.312" width="31.75" height="38.5"/>
  <object id="1056" gid="163" x="318.535" y="440.102" width="27.5" height="38.25"/>
  <object id="1057" gid="155" x="289.693" y="403.682" width="28.5" height="39.75"/>
  <object id="1058" gid="156" x="318.102" y="403.502" width="28.5" height="39.25"/>
  <object id="1059" gid="148" x="289.988" y="366.562" width="28.5" height="39.75"/>
  <object id="1060" gid="149" x="318.409" y="366.522" width="28.25" height="39.75"/>
  <object id="1061" gid="162" x="354.34" y="456.145" width="31.75" height="38.5"/>
  <object id="1062" gid="163" x="385.535" y="455.935" width="27.5" height="38.25"/>
  <object id="1063" gid="155" x="356.693" y="419.515" width="28.5" height="39.75"/>
  <object id="1064" gid="156" x="385.102" y="419.335" width="28.5" height="39.25"/>
  <object id="1065" gid="148" x="356.988" y="382.395" width="28.5" height="39.75"/>
  <object id="1066" gid="149" x="385.409" y="382.355" width="28.25" height="39.75"/>
  <object id="1067" gid="162" x="401.84" y="506.145" width="31.75" height="38.5"/>
  <object id="1068" gid="163" x="433.035" y="505.935" width="27.5" height="38.25"/>
  <object id="1069" gid="155" x="404.193" y="469.515" width="28.5" height="39.75"/>
  <object id="1070" gid="156" x="432.602" y="469.335" width="28.5" height="39.25"/>
  <object id="1071" gid="148" x="404.488" y="432.395" width="28.5" height="39.75"/>
  <object id="1072" gid="149" x="432.909" y="432.355" width="28.25" height="39.75"/>
  <object id="1097" gid="162" x="480.84" y="548.645" width="31.75" height="38.5"/>
  <object id="1098" gid="163" x="512.035" y="548.435" width="27.5" height="38.25"/>
  <object id="1099" gid="155" x="483.193" y="512.015" width="28.5" height="39.75"/>
  <object id="1100" gid="156" x="511.602" y="511.835" width="28.5" height="39.25"/>
  <object id="1101" gid="148" x="483.488" y="474.895" width="28.5" height="39.75"/>
  <object id="1102" gid="149" x="511.909" y="474.855" width="28.25" height="39.75"/>
  <object id="1103" gid="162" x="514.34" y="431.645" width="31.75" height="38.5"/>
  <object id="1104" gid="163" x="545.535" y="431.435" width="27.5" height="38.25"/>
  <object id="1105" gid="155" x="516.693" y="395.015" width="28.5" height="39.75"/>
  <object id="1106" gid="156" x="545.102" y="394.835" width="28.5" height="39.25"/>
  <object id="1107" gid="148" x="516.988" y="357.895" width="28.5" height="39.75"/>
  <object id="1108" gid="149" x="545.409" y="357.855" width="28.25" height="39.75"/>
  <object id="1109" gid="162" x="468.59" y="434.895" width="31.75" height="38.5"/>
  <object id="1110" gid="163" x="499.785" y="434.685" width="27.5" height="38.25"/>
  <object id="1111" gid="155" x="470.943" y="398.265" width="28.5" height="39.75"/>
  <object id="1112" gid="156" x="499.352" y="398.085" width="28.5" height="39.25"/>
  <object id="1113" gid="148" x="471.238" y="361.145" width="28.5" height="39.75"/>
  <object id="1114" gid="149" x="499.659" y="361.105" width="28.25" height="39.75"/>
  <object id="1115" gid="162" x="28.5072" y="295.645" width="31.75" height="38.5"/>
  <object id="1116" gid="163" x="59.7022" y="295.435" width="27.5" height="38.25"/>
  <object id="1117" gid="155" x="30.8602" y="259.015" width="28.5" height="39.75"/>
  <object id="1118" gid="156" x="59.2692" y="258.835" width="28.5" height="39.25"/>
  <object id="1119" gid="148" x="31.1552" y="221.895" width="28.5" height="39.75"/>
  <object id="1120" gid="149" x="59.5762" y="221.855" width="28.25" height="39.75"/>
  <object id="1121" gid="162" x="118.34" y="315.645" width="31.75" height="38.5"/>
  <object id="1122" gid="163" x="149.535" y="315.435" width="27.5" height="38.25"/>
  <object id="1123" gid="155" x="120.693" y="279.015" width="28.5" height="39.75"/>
  <object id="1124" gid="156" x="149.102" y="278.835" width="28.5" height="39.25"/>
  <object id="1125" gid="148" x="120.988" y="241.895" width="28.5" height="39.75"/>
  <object id="1126" gid="149" x="149.409" y="241.855" width="28.25" height="39.75"/>
  <object id="1127" gid="162" x="185.34" y="311.645" width="31.75" height="38.5"/>
  <object id="1128" gid="163" x="216.535" y="311.435" width="27.5" height="38.25"/>
  <object id="1129" gid="155" x="187.693" y="275.015" width="28.5" height="39.75"/>
  <object id="1130" gid="156" x="216.102" y="274.835" width="28.5" height="39.25"/>
  <object id="1131" gid="148" x="187.988" y="237.895" width="28.5" height="39.75"/>
  <object id="1132" gid="149" x="216.409" y="237.855" width="28.25" height="39.75"/>
  <object id="1133" gid="162" x="243.84" y="313.145" width="31.75" height="38.5"/>
  <object id="1134" gid="163" x="275.035" y="312.935" width="27.5" height="38.25"/>
  <object id="1135" gid="155" x="246.193" y="276.515" width="28.5" height="39.75"/>
  <object id="1136" gid="156" x="274.602" y="276.335" width="28.5" height="39.25"/>
  <object id="1137" gid="148" x="246.488" y="239.395" width="28.5" height="39.75"/>
  <object id="1138" gid="149" x="274.909" y="239.355" width="28.25" height="39.75"/>
  <object id="1139" gid="162" x="150.34" y="208.645" width="31.75" height="38.5"/>
  <object id="1140" gid="163" x="181.535" y="208.435" width="27.5" height="38.25"/>
  <object id="1141" gid="155" x="152.693" y="172.015" width="28.5" height="39.75"/>
  <object id="1142" gid="156" x="181.102" y="171.835" width="28.5" height="39.25"/>
  <object id="1143" gid="148" x="152.988" y="134.895" width="28.5" height="39.75"/>
  <object id="1144" gid="149" x="181.409" y="134.855" width="28.25" height="39.75"/>
  <object id="1151" gid="162" x="257.34" y="201.145" width="31.75" height="38.5"/>
  <object id="1152" gid="163" x="288.535" y="200.935" width="27.5" height="38.25"/>
  <object id="1153" gid="155" x="259.693" y="164.515" width="28.5" height="39.75"/>
  <object id="1154" gid="156" x="288.102" y="164.335" width="28.5" height="39.25"/>
  <object id="1155" gid="148" x="259.988" y="127.395" width="28.5" height="39.75"/>
  <object id="1156" gid="149" x="288.409" y="127.355" width="28.25" height="39.75"/>
  <object id="1157" gid="162" x="203.84" y="192.645" width="31.75" height="38.5"/>
  <object id="1158" gid="163" x="235.035" y="192.435" width="27.5" height="38.25"/>
  <object id="1159" gid="155" x="206.193" y="156.015" width="28.5" height="39.75"/>
  <object id="1160" gid="156" x="234.602" y="155.835" width="28.5" height="39.25"/>
  <object id="1161" gid="148" x="206.488" y="118.895" width="28.5" height="39.75"/>
  <object id="1162" gid="149" x="234.909" y="118.855" width="28.25" height="39.75"/>
  <object id="1163" gid="162" x="307.34" y="123.645" width="31.75" height="38.5"/>
  <object id="1164" gid="163" x="338.535" y="123.435" width="27.5" height="38.25"/>
  <object id="1165" gid="155" x="309.693" y="87.015" width="28.5" height="39.75"/>
  <object id="1166" gid="156" x="338.102" y="86.835" width="28.5" height="39.25"/>
  <object id="1167" gid="148" x="309.988" y="49.895" width="28.5" height="39.75"/>
  <object id="1168" gid="149" x="338.409" y="49.855" width="28.25" height="39.75"/>
  <object id="1169" gid="162" x="369.34" y="120.145" width="31.75" height="38.5"/>
  <object id="1170" gid="163" x="400.535" y="119.935" width="27.5" height="38.25"/>
  <object id="1171" gid="155" x="371.693" y="83.515" width="28.5" height="39.75"/>
  <object id="1172" gid="156" x="400.102" y="83.335" width="28.5" height="39.25"/>
  <object id="1173" gid="148" x="371.988" y="46.395" width="28.5" height="39.75"/>
  <object id="1174" gid="149" x="400.409" y="46.355" width="28.25" height="39.75"/>
  <object id="1175" gid="162" x="440.34" y="121.645" width="31.75" height="38.5"/>
  <object id="1176" gid="163" x="471.535" y="121.435" width="27.5" height="38.25"/>
  <object id="1177" gid="155" x="442.693" y="85.015" width="28.5" height="39.75"/>
  <object id="1178" gid="156" x="471.102" y="84.835" width="28.5" height="39.25"/>
  <object id="1179" gid="148" x="442.988" y="47.895" width="28.5" height="39.75"/>
  <object id="1180" gid="149" x="471.409" y="47.855" width="28.25" height="39.75"/>
  <object id="1181" gid="162" x="505.34" y="118.645" width="31.75" height="38.5"/>
  <object id="1182" gid="163" x="536.535" y="118.435" width="27.5" height="38.25"/>
  <object id="1183" gid="155" x="507.693" y="82.015" width="28.5" height="39.75"/>
  <object id="1184" gid="156" x="536.102" y="81.835" width="28.5" height="39.25"/>
  <object id="1185" gid="148" x="507.988" y="44.895" width="28.5" height="39.75"/>
  <object id="1186" gid="149" x="536.409" y="44.855" width="28.25" height="39.75"/>
  <object id="1187" gid="162" x="572.84" y="121.145" width="31.75" height="38.5"/>
  <object id="1188" gid="163" x="604.035" y="120.935" width="27.5" height="38.25"/>
  <object id="1189" gid="155" x="575.193" y="84.515" width="28.5" height="39.75"/>
  <object id="1190" gid="156" x="603.602" y="84.335" width="28.5" height="39.25"/>
  <object id="1191" gid="148" x="575.488" y="47.395" width="28.5" height="39.75"/>
  <object id="1192" gid="149" x="603.909" y="47.355" width="28.25" height="39.75"/>
  <object id="1193" gid="162" x="633.34" y="144.645" width="31.75" height="38.5"/>
  <object id="1194" gid="163" x="664.535" y="144.435" width="27.5" height="38.25"/>
  <object id="1195" gid="155" x="635.693" y="108.015" width="28.5" height="39.75"/>
  <object id="1196" gid="156" x="664.102" y="107.835" width="28.5" height="39.25"/>
  <object id="1197" gid="148" x="635.988" y="70.895" width="28.5" height="39.75"/>
  <object id="1198" gid="149" x="664.409" y="70.855" width="28.25" height="39.75"/>
  <object id="1205" gid="162" x="729.34" y="217.645" width="31.75" height="38.5"/>
  <object id="1206" gid="163" x="760.535" y="217.435" width="27.5" height="38.25"/>
  <object id="1207" gid="155" x="731.693" y="181.015" width="28.5" height="39.75"/>
  <object id="1208" gid="156" x="760.102" y="180.835" width="28.5" height="39.25"/>
  <object id="1209" gid="148" x="731.988" y="143.895" width="28.5" height="39.75"/>
  <object id="1210" gid="149" x="760.409" y="143.855" width="28.25" height="39.75"/>
  <object id="1211" gid="162" x="691.84" y="289.645" width="31.75" height="38.5"/>
  <object id="1212" gid="163" x="723.035" y="289.435" width="27.5" height="38.25"/>
  <object id="1213" gid="155" x="694.193" y="253.015" width="28.5" height="39.75"/>
  <object id="1214" gid="156" x="722.602" y="252.835" width="28.5" height="39.25"/>
  <object id="1215" gid="148" x="694.488" y="215.895" width="28.5" height="39.75"/>
  <object id="1216" gid="149" x="722.909" y="215.855" width="28.25" height="39.75"/>
  <object id="1217" gid="162" x="789.34" y="252.645" width="31.75" height="38.5"/>
  <object id="1218" gid="163" x="820.535" y="252.435" width="27.5" height="38.25"/>
  <object id="1219" gid="155" x="791.693" y="216.015" width="28.5" height="39.75"/>
  <object id="1220" gid="156" x="820.102" y="215.835" width="28.5" height="39.25"/>
  <object id="1221" gid="148" x="791.988" y="178.895" width="28.5" height="39.75"/>
  <object id="1222" gid="149" x="820.409" y="178.855" width="28.25" height="39.75"/>
  <object id="1235" gid="162" x="922.84" y="117.645" width="31.75" height="38.5"/>
  <object id="1236" gid="163" x="954.035" y="117.435" width="27.5" height="38.25"/>
  <object id="1237" gid="155" x="925.193" y="81.015" width="28.5" height="39.75"/>
  <object id="1238" gid="156" x="953.602" y="80.835" width="28.5" height="39.25"/>
  <object id="1239" gid="148" x="925.488" y="43.895" width="28.5" height="39.75"/>
  <object id="1240" gid="149" x="953.909" y="43.855" width="28.25" height="39.75"/>
  <object id="1259" gid="162" x="902.84" y="235.145" width="31.75" height="38.5"/>
  <object id="1260" gid="163" x="934.035" y="234.935" width="27.5" height="38.25"/>
  <object id="1261" gid="155" x="905.193" y="198.515" width="28.5" height="39.75"/>
  <object id="1262" gid="156" x="933.602" y="198.335" width="28.5" height="39.25"/>
  <object id="1263" gid="148" x="905.488" y="161.395" width="28.5" height="39.75"/>
  <object id="1264" gid="149" x="933.909" y="161.355" width="28.25" height="39.75"/>
  <object id="1271" gid="162" x="802.34" y="371.145" width="31.75" height="38.5"/>
  <object id="1272" gid="163" x="833.535" y="370.935" width="27.5" height="38.25"/>
  <object id="1273" gid="155" x="804.693" y="334.515" width="28.5" height="39.75"/>
  <object id="1274" gid="156" x="833.102" y="334.335" width="28.5" height="39.25"/>
  <object id="1275" gid="148" x="804.988" y="297.395" width="28.5" height="39.75"/>
  <object id="1276" gid="149" x="833.409" y="297.355" width="28.25" height="39.75"/>
  <object id="1277" gid="162" x="868.84" y="368.145" width="31.75" height="38.5"/>
  <object id="1278" gid="163" x="900.035" y="367.935" width="27.5" height="38.25"/>
  <object id="1279" gid="155" x="871.193" y="331.515" width="28.5" height="39.75"/>
  <object id="1280" gid="156" x="899.602" y="331.335" width="28.5" height="39.25"/>
  <object id="1281" gid="148" x="871.488" y="294.395" width="28.5" height="39.75"/>
  <object id="1282" gid="149" x="899.909" y="294.355" width="28.25" height="39.75"/>
  <object id="1313" gid="162" x="784.84" y="488.645" width="31.75" height="38.5"/>
  <object id="1314" gid="163" x="816.035" y="488.435" width="27.5" height="38.25"/>
  <object id="1315" gid="155" x="787.193" y="452.015" width="28.5" height="39.75"/>
  <object id="1316" gid="156" x="815.602" y="451.835" width="28.5" height="39.25"/>
  <object id="1317" gid="148" x="787.488" y="414.895" width="28.5" height="39.75"/>
  <object id="1318" gid="149" x="815.909" y="414.855" width="28.25" height="39.75"/>
  <object id="1319" gid="162" x="688.34" y="417.145" width="31.75" height="38.5"/>
  <object id="1320" gid="163" x="719.535" y="416.935" width="27.5" height="38.25"/>
  <object id="1321" gid="155" x="690.693" y="380.515" width="28.5" height="39.75"/>
  <object id="1322" gid="156" x="719.102" y="380.335" width="28.5" height="39.25"/>
  <object id="1323" gid="148" x="690.988" y="343.395" width="28.5" height="39.75"/>
  <object id="1324" gid="149" x="719.409" y="343.355" width="28.25" height="39.75"/>
  <object id="1331" gid="162" x="667.34" y="571.145" width="31.75" height="38.5"/>
  <object id="1332" gid="163" x="698.535" y="570.935" width="27.5" height="38.25"/>
  <object id="1333" gid="155" x="669.693" y="534.515" width="28.5" height="39.75"/>
  <object id="1334" gid="156" x="698.102" y="534.335" width="28.5" height="39.25"/>
  <object id="1335" gid="148" x="669.988" y="497.395" width="28.5" height="39.75"/>
  <object id="1336" gid="149" x="698.409" y="497.355" width="28.25" height="39.75"/>
  <object id="1343" gid="162" x="805.34" y="609.145" width="31.75" height="38.5"/>
  <object id="1344" gid="163" x="836.535" y="608.935" width="27.5" height="38.25"/>
  <object id="1345" gid="155" x="807.693" y="572.515" width="28.5" height="39.75"/>
  <object id="1346" gid="156" x="836.102" y="572.335" width="28.5" height="39.25"/>
  <object id="1347" gid="148" x="807.988" y="535.395" width="28.5" height="39.75"/>
  <object id="1348" gid="149" x="836.409" y="535.355" width="28.25" height="39.75"/>
  <object id="1373" gid="162" x="1322.34" y="550.978" width="31.75" height="38.5"/>
  <object id="1374" gid="163" x="1353.54" y="550.768" width="27.5" height="38.25"/>
  <object id="1375" gid="155" x="1324.69" y="514.348" width="28.5" height="39.75"/>
  <object id="1376" gid="156" x="1353.1" y="514.168" width="28.5" height="39.25"/>
  <object id="1377" gid="148" x="1324.99" y="477.228" width="28.5" height="39.75"/>
  <object id="1378" gid="149" x="1353.41" y="477.188" width="28.25" height="39.75"/>
  <object id="1385" gid="162" x="1165.01" y="503.645" width="31.75" height="38.5"/>
  <object id="1386" gid="163" x="1196.2" y="503.435" width="27.5" height="38.25"/>
  <object id="1387" gid="155" x="1167.36" y="467.015" width="28.5" height="39.75"/>
  <object id="1388" gid="156" x="1195.77" y="466.835" width="28.5" height="39.25"/>
  <object id="1389" gid="148" x="1167.66" y="429.895" width="28.5" height="39.75"/>
  <object id="1390" gid="149" x="1196.08" y="429.855" width="28.25" height="39.75"/>
  <object id="1403" gid="162" x="1465.67" y="526.312" width="31.75" height="38.5"/>
  <object id="1404" gid="163" x="1496.87" y="526.102" width="27.5" height="38.25"/>
  <object id="1405" gid="155" x="1468.03" y="489.682" width="28.5" height="39.75"/>
  <object id="1406" gid="156" x="1496.44" y="489.502" width="28.5" height="39.25"/>
  <object id="1407" gid="148" x="1468.32" y="452.562" width="28.5" height="39.75"/>
  <object id="1408" gid="149" x="1496.74" y="452.522" width="28.25" height="39.75"/>
  <object id="1409" gid="162" x="1369.01" y="317.645" width="31.75" height="38.5"/>
  <object id="1410" gid="163" x="1400.2" y="317.435" width="27.5" height="38.25"/>
  <object id="1411" gid="155" x="1371.36" y="281.015" width="28.5" height="39.75"/>
  <object id="1412" gid="156" x="1399.77" y="280.835" width="28.5" height="39.25"/>
  <object id="1413" gid="148" x="1371.66" y="243.895" width="28.5" height="39.75"/>
  <object id="1414" gid="149" x="1400.08" y="243.855" width="28.25" height="39.75"/>
  <object id="1415" gid="162" x="1526.34" y="440.978" width="31.75" height="38.5"/>
  <object id="1416" gid="163" x="1557.54" y="440.768" width="27.5" height="38.25"/>
  <object id="1417" gid="155" x="1528.69" y="404.348" width="28.5" height="39.75"/>
  <object id="1418" gid="156" x="1557.1" y="404.168" width="28.5" height="39.25"/>
  <object id="1419" gid="148" x="1528.99" y="367.228" width="28.5" height="39.75"/>
  <object id="1420" gid="149" x="1557.41" y="367.188" width="28.25" height="39.75"/>
  <object id="1427" gid="162" x="1506.34" y="308.312" width="31.75" height="38.5"/>
  <object id="1428" gid="163" x="1537.54" y="308.102" width="27.5" height="38.25"/>
  <object id="1429" gid="155" x="1508.69" y="271.682" width="28.5" height="39.75"/>
  <object id="1430" gid="156" x="1537.1" y="271.502" width="28.5" height="39.25"/>
  <object id="1431" gid="148" x="1508.99" y="234.562" width="28.5" height="39.75"/>
  <object id="1432" gid="149" x="1537.41" y="234.522" width="28.25" height="39.75"/>
  <object id="1439" gid="162" x="1446.34" y="120.978" width="31.75" height="38.5"/>
  <object id="1440" gid="163" x="1477.54" y="120.768" width="27.5" height="38.25"/>
  <object id="1441" gid="155" x="1448.69" y="84.3483" width="28.5" height="39.75"/>
  <object id="1442" gid="156" x="1477.1" y="84.1683" width="28.5" height="39.25"/>
  <object id="1443" gid="148" x="1448.99" y="47.2283" width="28.5" height="39.75"/>
  <object id="1444" gid="149" x="1477.41" y="47.1883" width="28.25" height="39.75"/>
  <object id="1451" gid="162" x="530.174" y="833.145" width="31.75" height="38.5"/>
  <object id="1452" gid="163" x="561.369" y="832.935" width="27.5" height="38.25"/>
  <object id="1453" gid="155" x="532.527" y="796.515" width="28.5" height="39.75"/>
  <object id="1454" gid="156" x="560.936" y="796.335" width="28.5" height="39.25"/>
  <object id="1455" gid="148" x="532.822" y="759.395" width="28.5" height="39.75"/>
  <object id="1456" gid="149" x="561.243" y="759.355" width="28.25" height="39.75"/>
  <object id="1488" x="1072.25" y="1488" width="31.25" height="31.5">
   <properties>
    <property name="actions" value="search_barrel"/>
    <property name="topic_id" value="python_syntax_basics"/>
    <property name="types" value="interactive"/>
   </properties>
  </object>
  <object id="1489" x="400.364" y="896.182" width="31.4545" height="32">
   <properties>
    <property name="actions" value="search_barrel"/>
    <property name="topic_id" value="data_types"/>
    <property name="types" value="interactive"/>
   </properties>
  </object>
  <object id="1490" x="456.727" y="890.182" width="0.181818" height="0.181818"/>
  <object id="1492" x="128.25" y="560.25" width="31.5" height="31.75">
   <properties>
    <property name="actions" value="search_barrel"/>
    <property name="types" value="interactive"/>
   </properties>
  </object>
  <object id="1493" x="1440.18" y="1013" width="31.4545" height="27">
   <properties>
    <property name="actions" value="search_burrow"/>
    <property name="topic_id" value="type_casting"/>
    <property name="types" value="interactive"/>
   </properties>
  </object>
  <object id="1494" x="368.364" y="790.182" width="31.8182" height="25.6364">
   <properties>
    <property name="actions" value="search_burrow"/>
    <property name="types" value="interactive"/>
   </properties>
  </object>
  <object id="1496" x="1632.25" y="742.25" width="31.5" height="25.5">
   <properties>
    <property name="actions" value="search_burrow"/>
    <property name="topic_id" value="formatted_output"/>
    <property name="types" value="interactive"/>
   </properties>
  </object>
  <object id="1497" x="1856.18" y="518.182" width="31.6364" height="25.6364">
   <properties>
    <property name="actions" value="search_burrow"/>
    <property name="types" value="interactive"/>
   </properties>
  </object>
  <object id="1498" x="1984.18" y="934.364" width="31.6364" height="25.6364">
   <properties>
    <property name="actions" value="search_burrow"/>
    <property name="types" value="interactive"/>
   </properties>
  </object>
  <object id="1499" x="1424.25" y="884.75" width="31.25" height="27.5">
   <properties>
    <property name="actions" value="search_hay"/>
    <property name="types" value="interactive"/>
   </properties>
  </object>
  <object id="1500" x="1888.25" y="851.75" width="31.5" height="28.5">
   <properties>
    <property name="actions" value="search_hay"/>
    <property name="types" value="interactive"/>
   </properties>
  </object>
  <object id="1501" x="192.25" y="468.5" width="31.75" height="27.25">
   <properties>
    <property name="actions" value="search_hay"/>
    <property name="types" value="interactive"/>
   </properties>
  </object>
  <object id="1502" x="336" y="308.5" width="31.5" height="27.25">
   <properties>
    <property name="actions" value="search_hay"/>
    <property name="topic_id" value="input_lesson"/>
    <property name="types" value="interactive"/>
   </properties>
  </object>
  <object id="1503" x="1984.25" y="196.5" width="31.5" height="27.25">
   <properties>
    <property name="actions" value="search_hay"/>
    <property name="topic_id" value="variables"/>
    <property name="types" value="interactive"/>
   </properties>
  </object>
  <object id="1504" x="1232" y="1504" width="31.3333" height="31.6667">
   <properties>
    <property name="actions" value="search_crate"/>
    <property name="types" value="interactive"/>
   </properties>
  </object>
  <object id="1505" x="1839.3" y="1279.67" width="31.75" height="31.875">
   <properties>
    <property name="actions" value="search_crate"/>
    <property name="types" value="interactive"/>
   </properties>
  </object>
  <object id="1506" gid="162" x="579.841" y="810.145" width="31.75" height="38.5"/>
  <object id="1507" gid="163" x="611.035" y="809.935" width="27.5" height="38.25"/>
  <object id="1508" gid="155" x="582.194" y="773.515" width="28.5" height="39.75"/>
  <object id="1509" gid="156" x="610.602" y="773.335" width="28.5" height="39.25"/>
  <object id="1510" gid="148" x="582.488" y="736.395" width="28.5" height="39.75"/>
  <object id="1511" gid="149" x="610.909" y="736.355" width="28.25" height="39.75"/>
  <object id="1512" gid="162" x="481.84" y="816.145" width="31.75" height="38.5"/>
  <object id="1513" gid="163" x="513.035" y="815.935" width="27.5" height="38.25"/>
  <object id="1514" gid="155" x="484.193" y="779.515" width="28.5" height="39.75"/>
  <object id="1515" gid="156" x="512.602" y="779.335" width="28.5" height="39.25"/>
  <object id="1516" gid="148" x="484.488" y="742.395" width="28.5" height="39.75"/>
  <object id="1517" gid="149" x="512.909" y="742.355" width="28.25" height="39.75"/>
  <object id="1536" gid="162" x="1313.84" y="1125.14" width="31.75" height="38.5"/>
  <object id="1537" gid="163" x="1345.04" y="1124.93" width="27.5" height="38.25"/>
  <object id="1538" gid="155" x="1316.19" y="1088.51" width="28.5" height="39.75"/>
  <object id="1539" gid="156" x="1344.6" y="1088.34" width="28.5" height="39.25"/>
  <object id="1540" gid="148" x="1316.49" y="1051.39" width="28.5" height="39.75"/>
  <object id="1541" gid="149" x="1344.91" y="1051.36" width="28.25" height="39.75"/>
 </objectgroup>
 <layer id="8" name="Castle Layer 1" width="128" height="100" locked="1">
  <data encoding="csv">
0,0,0,0,0,0,0,0,0,0,0,0,0,0,0,0,0,0,0,0,0,0,0,0,0,0,0,0,0,0,0,0,0,0,0,0,0,0,0,0,0,0,0,0,0,0,0,0,0,0,0,0,0,0,0,0,0,0,0,0,0,0,0,0,0,2068,2063,2063,2063,2063,2063,2063,2063,2221,2222,2063,2063,2063,2063,2063,2063,2069,0,0,0,0,0,0,0,0,0,0,0,0,0,0,0,0,0,0,0,0,0,0,0,0,0,0,0,0,0,0,0,0,0,0,0,0,0,0,0,0,0,0,0,0,0,0,
0,0,0,0,0,0,0,0,0,0,0,0,0,0,0,0,0,0,0,0,0,0,0,0,0,0,0,0,0,0,0,0,0,0,0,0,0,0,0,0,0,0,0,0,0,0,0,0,0,0,0,0,0,0,0,0,0,0,0,0,0,0,0,0,0,2081,2076,2076,2076,2076,2076,2076,2076,2234,2235,2076,2076,2076,2076,2076,2076,2082,0,0,0,0,0,0,0,0,0,0,0,0,0,0,0,0,0,0,0,0,0,0,0,0,0,0,0,0,0,0,0,0,0,0,0,0,0,0,0,0,0,0,0,0,0,0,
0,0,0,0,0,0,0,0,0,0,0,0,0,0,0,0,0,0,0,0,0,0,0,0,0,0,0,0,0,0,0,0,0,0,0,0,0,0,0,0,0,0,0,0,0,0,0,0,0,0,0,0,0,0,0,0,0,0,0,0,0,0,0,0,0,2081,2313,2314,2314,2314,2314,2314,2314,2314,2314,2314,2314,2314,2314,2314,2315,2082,0,0,0,0,0,0,0,0,0,0,0,0,0,0,0,0,0,0,0,0,0,0,0,0,0,0,0,0,0,0,0,0,0,0,0,0,0,0,0,0,0,0,0,0,0,0,
0,0,0,0,0,0,0,0,0,0,0,0,0,0,0,0,0,0,0,0,0,0,0,0,0,0,0,0,0,0,0,0,0,0,0,0,0,0,0,0,0,0,0,0,0,0,0,0,0,0,0,0,0,0,0,0,0,0,0,0,0,0,0,0,0,2081,2326,0,0,0,0,0,0,0,0,0,0,0,0,0,2328,2082,0,0,0,0,0,0,0,0,0,0,0,0,0,0,0,0,0,0,0,0,0,0,0,0,0,0,0,0,0,0,0,0,0,0,0,0,0,0,0,0,0,0,0,0,0,0,
0,0,0,0,0,0,0,0,0,0,0,0,0,0,0,0,0,0,0,0,0,0,0,0,0,0,0,0,0,0,0,0,0,0,0,0,0,0,0,0,0,0,0,0,0,0,0,0,0,0,0,0,0,0,0,0,0,0,0,0,0,0,0,0,0,2081,2326,0,0,0,0,0,0,0,0,0,0,0,0,0,2328,2082,0,0,0,0,0,0,0,0,0,0,0,0,0,0,0,0,0,0,0,0,0,0,0,0,0,0,0,0,0,0,0,0,0,0,0,0,0,0,0,0,0,0,0,0,0,0,
0,0,0,0,0,0,0,0,0,0,0,0,0,0,0,0,0,0,0,0,0,0,0,0,0,0,0,0,0,0,0,0,0,0,0,0,0,0,0,0,0,0,0,0,0,0,0,0,0,0,0,0,0,0,0,0,0,0,0,0,0,0,0,0,0,2081,2326,0,0,0,0,0,0,0,0,0,0,0,0,0,2328,2082,0,0,0,0,0,0,0,0,0,0,0,0,0,0,0,0,0,0,0,0,0,0,0,0,0,0,0,0,0,0,0,0,0,0,0,0,0,0,0,0,0,0,0,0,0,0,
0,0,0,0,0,0,0,0,0,0,0,0,0,0,0,0,0,0,0,0,0,0,0,0,0,0,0,0,0,0,0,0,0,0,0,0,0,0,0,0,0,0,0,0,0,0,0,0,0,0,0,0,0,0,0,0,0,0,0,0,0,0,0,0,0,2081,2326,0,0,0,0,0,0,0,0,0,0,0,0,0,2328,2082,0,0,0,0,0,0,0,0,0,0,0,0,0,0,0,0,0,0,0,0,0,0,0,0,0,0,0,0,0,0,0,0,0,0,0,0,0,0,0,0,0,0,0,0,0,0,
0,0,0,0,0,0,0,0,0,0,0,0,0,0,0,0,0,0,0,0,0,0,0,0,0,0,0,0,0,0,0,0,0,0,0,0,0,0,0,0,0,0,0,0,0,0,0,0,0,0,0,0,0,0,0,0,0,0,0,0,0,0,0,0,0,2120,2194,2194,2194,2194,2194,2194,2194,2194,2194,2194,2194,2194,2194,2194,2194,2121,0,0,0,0,0,0,0,0,0,0,0,0,0,0,0,0,0,0,0,0,0,0,0,0,0,0,0,0,0,0,0,0,0,0,0,0,0,0,0,0,0,0,0,0,0,0,
0,0,0,0,0,0,0,0,0,0,0,0,0,0,0,0,0,0,0,0,0,0,0,0,0,0,0,0,0,0,0,0,0,0,0,0,0,0,0,0,0,0,0,0,0,0,0,0,0,0,0,0,0,0,0,0,0,0,0,0,0,0,0,0,0,2133,2167,2167,2167,2167,2167,2167,2258,2259,2260,2167,2167,2167,2167,2167,2167,2134,0,0,0,0,0,0,0,0,0,0,0,0,0,0,0,0,0,0,0,0,0,0,0,0,0,0,0,0,0,0,0,0,0,0,0,0,0,0,0,0,0,0,0,0,0,0,
0,0,0,0,0,0,0,0,0,0,0,0,0,0,0,0,0,0,0,0,0,0,0,0,0,0,0,0,0,0,0,0,0,0,0,0,0,0,0,0,0,0,0,0,0,0,0,0,0,0,0,0,0,0,0,0,0,0,0,0,0,0,0,0,0,2146,2167,2167,2167,2167,2167,2167,2271,2272,2273,2167,2167,2167,2167,2167,2167,2147,0,0,0,0,0,0,0,0,0,0,0,0,0,0,0,0,0,0,0,0,0,0,0,0,0,0,0,0,0,0,0,0,0,0,0,0,0,0,0,0,0,0,0,0,0,0,
0,0,0,0,0,0,0,0,0,0,0,0,0,0,0,0,0,0,0,0,0,0,0,0,0,0,0,0,0,0,0,0,0,0,0,0,0,0,0,0,0,0,0,0,0,0,0,0,0,0,0,0,0,0,0,0,0,0,0,0,0,0,0,0,0,0,0,0,0,0,0,0,2284,2285,2286,0,0,0,0,0,0,0,0,0,0,0,0,0,0,0,0,0,0,0,0,0,0,0,0,0,0,0,0,0,0,0,0,0,0,0,0,0,0,0,0,0,0,0,0,0,0,0,0,0,0,0,0,0,
0,0,0,0,0,0,0,0,0,0,0,0,0,0,0,0,0,0,0,0,0,0,0,0,0,0,0,0,0,0,0,0,0,0,0,0,0,0,0,0,0,0,0,0,0,0,0,0,0,0,0,0,0,0,0,0,0,0,0,0,0,0,0,0,0,0,0,0,0,0,0,0,0,0,0,0,0,0,0,0,0,0,0,0,0,0,0,0,0,0,0,0,0,0,0,0,0,0,0,0,0,0,0,0,0,0,0,0,0,0,0,0,0,0,0,0,0,0,0,0,0,0,0,0,0,0,0,0,
0,0,0,0,0,0,0,0,0,0,0,0,0,0,0,0,0,0,0,0,0,0,0,0,0,0,0,0,0,0,0,0,0,0,0,0,0,0,0,0,0,0,0,0,0,0,0,0,0,0,0,0,0,0,0,0,0,0,0,0,0,0,0,0,0,0,0,0,0,0,0,0,0,0,0,0,0,0,0,0,0,0,0,0,0,0,0,0,0,0,0,0,0,0,0,0,0,0,0,0,0,0,0,0,0,0,0,0,0,0,0,0,0,0,0,0,0,0,0,0,0,0,0,0,0,0,0,0,
0,0,0,0,0,0,0,0,0,0,0,0,0,0,0,0,0,0,0,0,0,0,0,0,0,0,0,0,0,0,0,0,0,0,0,0,0,0,0,0,0,0,0,0,0,0,0,0,0,0,0,0,0,0,0,0,0,0,0,0,0,0,0,0,0,0,0,0,0,0,0,0,0,0,0,0,0,0,0,0,0,0,0,0,0,0,0,0,0,0,0,0,0,0,0,0,0,0,0,0,0,0,0,0,0,0,0,0,0,0,0,0,0,0,0,0,0,0,0,0,0,0,0,0,0,0,0,0,
0,0,0,0,0,0,0,0,0,0,0,0,0,0,0,0,0,0,0,0,0,0,0,0,0,0,0,0,0,0,0,0,0,0,0,0,0,0,0,0,0,0,0,0,0,0,0,0,0,0,0,0,0,0,0,0,0,0,0,0,0,0,0,0,0,0,0,0,0,0,0,0,0,0,0,0,0,0,0,0,0,0,0,0,0,0,0,0,0,0,0,0,0,0,0,0,0,0,0,0,0,0,0,0,0,0,0,0,0,0,0,0,0,0,0,0,0,0,0,0,0,0,0,0,0,0,0,0,
0,0,0,0,0,0,0,0,0,0,0,0,0,0,0,0,0,0,0,0,0,0,0,0,0,0,0,0,0,0,0,0,0,0,0,0,0,0,0,0,0,0,0,0,0,0,0,0,0,0,0,0,0,0,0,0,0,0,0,0,0,0,0,0,0,0,0,0,0,0,0,0,0,0,0,0,0,0,0,0,0,0,0,0,0,0,0,0,0,0,0,0,0,0,0,0,0,0,0,0,0,0,0,0,0,0,0,0,0,0,0,0,0,0,0,0,0,0,0,0,0,0,0,0,0,0,0,0,
0,0,0,0,0,0,0,0,0,0,0,0,0,0,0,0,0,0,0,0,0,0,0,0,0,0,0,0,0,0,0,0,0,0,0,0,0,0,0,0,0,0,0,0,0,0,0,0,0,0,0,0,0,0,0,0,0,0,0,0,0,0,0,0,0,0,0,0,0,0,0,0,0,0,0,0,0,0,0,0,0,0,0,0,0,0,0,0,0,0,0,0,0,0,0,0,0,0,0,0,0,0,0,0,0,0,0,0,0,0,0,0,0,0,0,0,0,0,0,0,0,0,0,0,0,0,0,0,
0,0,0,0,0,0,0,0,0,0,0,0,0,0,0,0,0,0,0,0,0,0,0,0,0,0,0,0,0,0,0,0,0,0,0,0,0,0,0,0,0,0,0,0,0,0,0,0,0,0,0,0,0,0,0,0,0,0,0,0,0,0,0,0,0,0,0,0,0,0,0,0,0,0,0,0,0,0,0,0,0,0,0,0,0,0,0,0,0,0,0,0,0,0,0,0,0,0,0,0,0,0,0,0,0,0,0,0,0,0,0,0,0,0,0,0,0,0,0,0,0,0,0,0,0,0,0,0,
0,0,0,0,0,0,0,0,0,0,0,0,0,0,0,0,0,0,0,0,0,0,0,0,0,0,0,0,0,0,0,0,0,0,0,0,0,0,0,0,0,0,0,0,0,0,0,0,0,0,0,0,0,0,0,0,0,0,0,0,0,0,0,0,0,0,0,0,0,0,0,0,0,0,0,0,0,0,0,0,0,0,0,0,0,0,0,0,0,0,0,0,0,0,0,0,0,0,0,0,0,0,0,0,0,0,0,0,0,0,0,0,0,0,0,0,0,0,0,0,0,0,0,0,0,0,0,0,
0,0,0,0,0,0,0,0,0,0,0,0,0,0,0,0,0,0,0,0,0,0,0,0,0,0,0,0,0,0,0,0,0,0,0,0,0,0,0,0,0,0,0,0,0,0,0,0,0,0,0,0,0,0,0,0,0,0,0,0,0,0,0,0,0,0,0,0,0,0,0,0,0,0,0,0,0,0,0,0,0,0,0,0,0,0,0,0,0,0,0,0,0,0,0,0,0,0,0,0,0,0,0,0,0,0,0,0,0,0,0,0,0,0,0,0,0,0,0,0,0,0,0,0,0,0,0,0,
0,0,0,0,0,0,0,0,0,0,0,0,0,0,0,0,0,0,0,0,0,0,0,0,0,0,0,0,0,0,0,0,0,0,0,0,0,0,0,0,0,0,0,0,0,0,0,0,0,0,0,0,0,0,0,0,0,0,0,0,0,0,0,0,0,0,0,0,0,0,0,0,0,0,0,0,0,0,0,0,0,0,0,0,0,0,0,0,0,0,0,0,0,0,0,0,0,0,0,0,0,0,0,0,0,0,0,0,0,0,0,0,0,0,0,0,0,0,0,0,0,0,0,0,0,0,0,0,
0,0,0,0,0,0,0,0,0,0,0,0,0,0,0,0,0,0,0,0,0,0,0,0,0,0,0,0,0,0,0,0,0,0,0,0,0,0,0,0,0,0,0,0,0,0,0,0,0,0,0,0,0,0,0,0,0,0,0,0,0,0,0,0,0,0,0,0,0,0,0,0,0,0,0,0,0,0,0,0,0,0,0,0,0,0,0,0,0,0,0,0,0,0,0,0,0,0,0,0,0,0,0,0,0,0,0,0,0,0,0,0,0,0,0,0,0,0,0,0,0,0,0,0,0,0,0,0,
0,0,0,0,0,0,0,0,0,0,0,0,0,0,0,0,0,0,0,0,0,0,0,0,0,0,0,0,0,0,0,0,0,0,0,0,0,0,0,0,0,0,0,0,0,0,0,0,0,0,0,0,0,0,0,0,0,0,0,0,0,0,0,0,0,0,0,0,0,0,0,0,0,0,0,0,0,0,0,0,0,0,0,0,0,0,0,0,0,0,0,0,0,0,0,0,0,0,0,0,0,0,0,0,0,0,0,0,0,0,0,0,0,0,0,0,0,0,0,0,0,0,0,0,0,0,0,0,
0,0,0,0,0,0,0,0,0,0,0,0,0,0,0,0,0,0,0,0,0,0,0,0,0,0,0,0,0,0,0,0,0,0,0,0,0,0,0,0,0,0,0,0,0,0,0,0,0,0,0,0,0,0,0,0,0,0,0,0,0,0,0,0,0,0,0,0,0,0,0,0,0,0,0,0,0,0,0,0,0,0,0,0,0,0,0,0,0,0,0,0,0,0,0,0,0,0,0,0,0,0,0,0,0,0,0,0,0,0,0,0,0,0,0,0,0,0,0,0,0,0,0,0,0,0,0,0,
0,0,0,0,0,0,0,0,0,0,0,0,0,0,0,0,0,0,0,0,0,0,0,0,0,0,0,0,0,0,0,0,0,0,0,0,0,0,0,0,0,0,0,0,0,0,0,0,0,0,0,0,0,0,0,0,0,0,0,0,0,0,0,0,0,0,0,0,0,0,0,0,0,0,0,0,0,0,0,0,0,0,0,0,0,0,0,0,0,0,0,0,0,0,0,0,0,0,0,0,0,0,0,0,0,0,0,0,0,0,0,0,0,0,0,0,0,0,0,0,0,0,0,0,0,0,0,0,
0,0,0,0,0,0,0,0,0,0,0,0,0,0,0,0,0,0,0,0,0,0,0,0,0,0,0,0,0,0,0,0,0,0,0,0,0,0,0,0,0,0,0,0,0,0,0,0,0,0,0,0,0,0,0,0,0,0,0,0,0,0,0,0,0,0,0,0,0,0,0,0,0,0,0,0,0,0,0,0,0,0,0,0,0,0,0,0,0,0,0,0,0,0,0,0,0,0,0,0,0,0,0,0,0,0,0,0,0,0,0,0,0,0,0,0,0,0,0,0,0,0,0,0,0,0,0,0,
0,0,0,0,0,0,0,0,0,0,0,0,0,0,0,0,0,0,0,0,0,0,0,0,0,0,0,0,0,0,0,0,0,0,0,0,0,0,0,0,0,0,0,0,0,0,0,0,0,0,0,0,0,0,0,0,0,0,0,0,0,0,0,0,0,0,0,0,0,0,0,0,0,0,0,0,0,0,0,0,0,0,0,0,0,0,0,0,0,0,0,0,0,0,0,0,0,0,0,0,0,0,0,0,0,0,0,0,0,0,0,0,0,0,0,0,0,0,0,0,0,0,0,0,0,0,0,0,
0,0,0,0,0,0,0,0,0,0,0,0,0,0,0,0,0,0,0,0,0,0,0,0,0,0,0,0,0,0,0,0,0,0,0,0,0,0,0,0,0,0,0,0,0,0,0,0,0,0,0,0,0,0,0,0,0,0,0,0,0,0,0,0,0,0,0,0,0,0,0,0,0,0,0,0,0,0,0,0,0,0,0,0,0,0,0,0,0,0,0,0,0,0,0,0,0,0,0,0,0,0,0,0,0,0,0,0,0,0,0,0,0,0,0,0,0,0,0,0,0,0,0,0,0,0,0,0,
0,0,0,0,0,0,0,0,0,0,0,0,0,0,0,0,0,0,0,0,0,0,0,0,0,0,0,0,0,0,0,0,0,0,0,0,0,0,0,0,0,0,0,0,0,0,0,0,0,0,0,0,0,0,0,0,0,0,0,0,0,0,0,0,0,0,0,0,0,0,0,0,0,0,0,0,0,0,0,0,0,0,0,0,0,0,0,0,0,0,0,0,0,0,0,0,0,0,0,0,0,0,0,0,0,0,0,0,0,0,0,0,0,0,0,0,0,0,0,0,0,0,0,0,0,0,0,0,
0,0,0,0,0,0,0,0,0,0,0,0,0,0,0,0,0,0,0,0,0,0,0,0,0,0,0,0,0,0,0,0,0,0,0,0,0,0,0,0,0,0,0,0,0,0,0,0,0,0,0,0,0,0,0,0,0,0,0,0,0,0,0,0,0,0,0,0,0,0,0,0,0,0,0,0,0,0,0,0,0,0,0,0,0,0,0,0,0,0,0,0,0,0,0,0,0,0,0,0,0,0,0,0,0,0,0,0,0,0,0,0,0,0,0,0,0,0,0,0,0,0,0,0,0,0,0,0,
0,0,0,0,0,0,0,0,0,0,0,0,0,0,0,0,0,0,0,0,0,0,0,0,0,0,0,0,0,0,0,0,0,0,0,0,0,0,0,0,0,0,0,0,0,0,0,0,0,0,0,0,0,0,0,0,0,0,0,0,0,0,0,0,0,0,0,0,0,0,0,0,0,0,0,0,0,0,0,0,0,0,0,0,0,0,0,0,0,0,0,0,0,0,0,0,0,0,0,0,0,0,0,0,0,0,0,0,0,0,0,0,0,0,0,0,0,0,0,0,0,0,0,0,0,0,0,0,
0,0,0,0,0,0,0,0,0,0,0,0,0,0,0,0,0,0,0,0,0,0,0,0,0,0,0,0,0,0,0,0,0,0,0,0,0,0,0,0,0,0,0,0,0,0,0,0,0,0,0,0,0,0,0,0,0,0,0,0,0,0,0,0,0,0,0,0,0,0,0,0,0,0,0,0,0,0,0,0,0,0,0,0,0,0,0,0,0,0,0,0,0,0,0,0,0,0,0,0,0,0,0,0,0,0,0,0,0,0,0,0,0,0,0,0,0,0,0,0,0,0,0,0,0,0,0,0,
0,0,0,0,0,0,0,0,0,0,0,0,0,0,0,0,0,0,0,0,0,0,0,0,0,0,0,0,0,0,0,0,0,0,0,0,0,0,0,0,0,0,0,0,0,0,0,0,0,0,0,0,0,0,0,0,0,0,0,0,0,0,0,0,0,0,0,0,0,0,0,0,0,0,0,0,0,0,0,0,0,0,0,0,0,0,0,0,0,0,0,0,0,0,0,0,0,0,0,0,0,0,0,0,0,0,0,0,0,0,0,0,0,0,0,0,0,0,0,0,0,0,0,0,0,0,0,0,
0,0,0,0,0,0,0,0,0,0,0,0,0,0,0,0,0,0,0,0,0,0,0,0,0,0,0,0,0,0,0,0,0,0,0,0,0,0,0,0,0,0,0,0,0,0,0,0,0,0,0,0,0,0,0,0,0,0,0,0,0,0,0,0,0,0,0,0,0,0,0,0,0,0,0,0,0,0,0,0,0,0,0,0,0,0,0,0,0,0,0,0,0,0,0,0,0,0,0,0,0,0,0,0,0,0,0,0,0,0,0,0,0,0,0,0,0,0,0,0,0,0,0,0,0,0,0,0,
0,0,0,0,0,0,0,0,0,0,0,0,0,0,0,0,0,0,0,0,0,0,0,0,0,0,0,0,0,0,0,0,0,0,0,0,0,0,0,0,0,0,0,0,0,0,0,0,0,0,0,0,0,0,0,0,0,0,0,0,0,0,0,0,0,0,0,0,0,0,0,0,0,0,0,0,0,0,0,0,0,0,0,0,0,0,0,0,0,0,0,0,0,0,0,0,0,0,0,0,0,0,0,0,0,0,0,0,0,0,0,0,0,0,0,0,0,0,0,0,0,0,0,0,0,0,0,0,
0,0,0,0,0,0,0,0,0,0,0,0,0,0,0,0,0,0,0,0,0,0,0,0,0,0,0,0,0,0,0,0,0,0,0,0,0,0,0,0,0,0,0,0,0,0,0,0,0,0,0,0,0,0,0,0,0,0,0,0,0,0,0,0,0,0,0,0,0,0,0,0,0,0,0,0,0,0,0,0,0,0,0,0,0,0,0,0,0,0,0,0,0,0,0,0,0,0,0,0,0,0,0,0,0,0,0,0,0,0,0,0,0,0,0,0,0,0,0,0,0,0,0,0,0,0,0,0,
0,0,0,0,0,0,0,0,0,0,0,0,0,0,0,0,0,0,0,0,0,0,0,0,0,0,0,0,0,0,0,0,0,0,0,0,0,0,0,0,0,0,0,0,0,0,0,0,0,0,0,0,0,0,0,0,0,0,0,0,0,0,0,0,0,0,0,0,0,0,0,0,0,0,0,0,0,0,0,0,0,0,0,0,0,0,0,0,0,0,0,0,0,0,0,0,0,0,0,0,0,0,0,0,0,0,0,0,0,0,0,0,0,0,0,0,0,0,0,0,0,0,0,0,0,0,0,0,
0,0,0,0,0,0,0,0,0,0,0,0,0,0,0,0,0,0,0,0,0,0,0,0,0,0,0,0,0,0,0,0,0,0,0,0,0,0,0,0,0,0,0,0,0,0,0,0,0,0,0,0,0,0,0,0,0,0,0,0,0,0,0,0,0,0,0,0,0,0,0,0,0,0,0,0,0,0,0,0,0,0,0,0,0,0,0,0,0,0,0,0,0,0,0,0,0,0,0,0,0,0,0,0,0,0,0,0,0,0,0,0,0,0,0,0,0,0,0,0,0,0,0,0,0,0,0,0,
0,0,0,0,0,0,0,0,0,0,0,0,0,0,0,0,0,0,0,0,0,0,0,0,0,0,0,0,0,0,0,0,0,0,0,0,0,0,0,0,0,0,0,0,0,0,0,0,0,0,0,0,0,0,0,0,0,0,0,0,0,0,0,0,0,0,0,0,0,0,0,0,0,0,0,0,0,0,0,0,0,0,0,0,0,0,0,0,0,0,0,0,0,0,0,0,0,0,0,0,0,0,0,0,0,0,0,0,0,0,0,0,0,0,0,0,0,0,0,0,0,0,0,0,0,0,0,0,
0,0,0,0,0,0,0,0,0,0,0,0,0,0,0,0,0,0,0,0,0,0,0,0,0,0,0,0,0,0,0,0,0,0,0,0,0,0,0,0,0,0,0,0,0,0,0,0,0,0,0,0,0,0,0,0,0,0,0,0,0,0,0,0,0,0,0,0,0,0,0,0,0,0,0,0,0,0,0,0,0,0,0,0,0,0,0,0,0,0,0,0,0,0,0,0,0,0,0,0,0,0,0,0,0,0,0,0,0,0,0,0,0,0,0,0,0,0,0,0,0,0,0,0,0,0,0,0,
0,0,0,0,0,0,0,0,0,0,0,0,0,0,0,0,0,0,0,0,0,0,0,0,0,0,0,0,0,0,0,0,0,0,0,0,0,0,0,0,0,0,0,0,0,0,0,0,0,0,0,0,0,0,0,0,0,0,0,0,0,0,0,0,0,0,0,0,0,0,0,0,0,0,0,0,0,0,0,0,0,0,0,0,0,0,0,0,0,0,0,0,0,0,0,0,0,0,0,0,0,0,0,0,0,0,0,0,0,0,0,0,0,0,0,0,0,0,0,0,0,0,0,0,0,0,0,0,
0,0,0,0,0,0,0,0,0,0,0,0,0,0,0,0,0,0,0,0,0,0,0,0,0,0,0,0,0,0,0,0,0,0,0,0,0,0,0,0,0,0,0,0,0,0,0,0,0,0,0,0,0,0,0,0,0,0,0,0,0,0,0,0,0,0,0,0,0,0,0,0,0,0,0,0,0,0,0,0,0,0,0,0,0,0,0,0,0,0,0,0,0,0,0,0,0,0,0,0,0,0,0,0,0,0,0,0,0,0,0,0,0,0,0,0,0,0,0,0,0,0,0,0,0,0,0,0,
0,0,0,0,0,0,0,0,0,0,0,0,0,0,0,0,0,0,0,0,0,0,0,0,0,0,0,0,0,0,0,0,0,0,0,0,0,0,0,0,0,0,0,0,0,0,0,0,0,0,0,0,0,0,0,0,0,0,0,0,0,0,0,0,0,0,0,0,0,0,0,0,0,0,0,0,0,0,0,0,0,0,0,0,0,0,0,0,0,0,0,0,0,0,0,0,0,0,0,0,0,0,0,0,0,0,0,0,0,0,0,0,0,0,0,0,0,0,0,0,0,0,0,0,0,0,0,0,
0,0,0,0,0,0,0,0,0,0,0,0,0,0,0,0,0,0,0,0,0,0,0,0,0,0,0,0,0,0,0,0,0,0,0,0,0,0,0,0,0,0,0,0,0,0,0,0,0,0,0,0,0,0,0,0,0,0,0,0,0,0,0,0,0,0,0,0,0,0,0,0,0,0,0,0,0,0,0,0,0,0,0,0,0,0,0,0,0,0,0,0,0,0,0,0,0,0,0,0,0,0,0,0,0,0,0,0,0,0,0,0,0,0,0,0,0,0,0,0,0,0,0,0,0,0,0,0,
0,0,0,0,0,0,0,0,0,0,0,0,0,0,0,0,0,0,0,0,0,0,0,0,0,0,0,0,0,0,0,0,0,0,0,0,0,0,0,0,0,0,0,0,0,0,0,0,0,0,0,0,0,0,0,0,0,0,0,0,0,0,0,0,0,0,0,0,0,0,0,0,0,0,0,0,0,0,0,0,0,0,0,0,0,0,0,0,0,0,0,0,0,0,0,0,0,0,0,0,0,0,0,0,0,0,0,0,0,0,0,0,0,0,0,0,0,0,0,0,0,0,0,0,0,0,0,0,
0,0,0,0,0,0,0,0,0,0,0,0,0,0,0,0,0,0,0,0,0,0,0,0,0,0,0,0,0,0,0,0,0,0,0,0,0,0,0,0,0,0,0,0,0,0,0,0,0,0,0,0,0,0,0,0,0,0,0,0,0,0,0,0,0,0,0,0,0,0,0,0,0,0,0,0,0,0,0,0,0,0,0,0,0,0,0,0,0,0,0,0,0,0,0,0,0,0,0,0,0,0,0,0,0,0,0,0,0,0,0,0,0,0,0,0,0,0,0,0,0,0,0,0,0,0,0,0,
0,0,0,0,0,0,0,0,0,0,0,0,0,0,0,0,0,0,0,0,0,0,0,0,0,0,0,0,0,0,0,0,0,0,0,0,0,0,0,0,0,0,0,0,0,0,0,0,0,0,0,0,0,0,0,0,0,0,0,0,0,0,0,0,0,0,0,0,0,0,0,0,0,0,0,0,0,0,0,0,0,0,0,0,0,0,0,0,0,0,0,0,0,0,0,0,0,0,0,0,0,0,0,0,0,0,0,0,0,0,0,0,0,0,0,0,0,0,0,0,0,0,0,0,0,0,0,0,
0,0,0,0,0,0,0,0,0,0,0,0,0,0,0,0,0,0,0,0,0,0,0,0,0,0,0,0,0,0,0,0,0,0,0,0,0,0,0,0,0,0,0,0,0,0,0,0,0,0,0,0,0,0,0,0,0,0,0,0,0,0,0,0,0,0,0,0,0,0,0,0,0,0,0,0,0,0,0,0,0,0,0,0,0,0,0,0,0,0,0,0,0,0,0,0,0,0,0,0,0,0,0,0,0,0,0,0,0,0,0,0,0,0,0,0,0,0,0,0,0,0,0,0,0,0,0,0,
0,0,0,0,0,0,0,0,0,0,0,0,0,0,0,0,0,0,0,0,0,0,0,0,0,0,0,0,0,0,0,0,0,0,0,0,0,0,0,0,0,0,0,0,0,0,0,0,0,0,0,0,0,0,0,0,0,0,0,0,0,0,0,0,0,0,0,0,0,0,0,0,0,0,0,0,0,0,0,0,0,0,0,0,0,0,0,0,0,0,0,0,0,0,0,0,0,0,0,0,0,0,0,0,0,0,0,0,0,0,0,0,0,0,0,0,0,0,0,0,0,0,0,0,0,0,0,0,
0,0,0,0,0,0,0,0,0,0,0,0,0,0,0,0,0,0,0,0,0,0,0,0,0,0,0,0,0,0,0,0,0,0,0,0,0,0,0,0,0,0,0,0,0,0,0,0,0,0,0,0,0,0,0,0,0,0,0,0,0,0,0,0,0,0,0,0,0,0,0,0,0,0,0,0,0,0,0,0,0,0,0,0,0,0,0,0,0,0,0,0,0,0,0,0,0,0,0,0,0,0,0,0,0,0,0,0,0,0,0,0,0,0,0,0,0,0,0,0,0,0,0,0,0,0,0,0,
0,0,0,0,0,0,0,0,0,0,0,0,0,0,0,0,0,0,0,0,0,0,0,0,0,0,0,0,0,0,0,0,0,0,0,0,0,0,0,0,0,0,0,0,0,0,0,0,0,0,0,0,0,0,0,0,0,0,0,0,0,0,0,0,0,0,0,0,0,0,0,0,0,0,0,0,0,0,0,0,0,0,0,0,0,0,0,0,0,0,0,0,0,0,0,0,0,0,0,0,0,0,0,0,0,0,0,0,0,0,0,0,0,0,0,0,0,0,0,0,0,0,0,0,0,0,0,0,
0,0,0,0,0,0,0,0,0,0,0,0,0,0,0,0,0,0,0,0,0,0,0,0,0,0,0,0,0,0,0,0,0,0,0,0,0,0,0,0,0,0,0,0,0,0,0,0,0,0,0,0,0,0,0,0,0,0,0,0,0,0,0,0,0,0,0,0,0,0,0,0,0,0,0,0,0,0,0,0,0,0,0,0,0,0,0,0,0,0,0,0,0,0,0,0,0,0,0,0,0,0,0,0,0,0,0,0,0,0,0,0,0,0,0,0,0,0,0,0,0,0,0,0,0,0,0,0,
0,0,0,0,0,0,0,0,0,0,0,0,0,0,0,0,0,0,0,0,0,0,0,0,0,0,0,0,0,0,0,0,0,0,0,0,0,0,0,0,0,0,0,0,0,0,0,0,0,0,0,0,0,0,0,0,0,0,0,0,0,0,0,0,0,0,0,0,0,0,0,0,0,0,0,0,0,0,0,0,0,0,0,0,0,0,0,0,0,0,0,0,0,0,0,0,0,0,0,0,0,0,0,0,0,0,0,0,0,0,0,0,0,0,0,0,0,0,0,0,0,0,0,0,0,0,0,0,
0,0,0,0,0,0,0,0,0,0,0,0,0,0,0,0,0,0,0,0,0,0,0,0,0,0,0,0,0,0,0,0,0,0,0,0,0,0,0,0,0,0,0,0,0,0,0,0,0,0,0,0,0,0,0,0,0,0,0,0,0,0,0,0,0,0,0,0,0,0,0,0,0,0,0,0,0,0,0,0,0,0,0,0,0,0,0,0,0,0,0,0,0,0,0,0,0,0,0,0,0,0,0,0,0,0,0,0,0,0,0,0,0,0,0,0,0,0,0,0,0,0,0,0,0,0,0,0,
0,0,0,0,0,0,0,0,0,0,0,0,0,0,0,0,0,0,0,0,0,0,0,0,0,0,0,0,0,0,0,0,0,0,0,0,0,0,0,0,0,0,0,0,0,0,0,0,0,0,0,0,0,0,0,0,0,0,0,0,0,0,0,0,0,0,0,0,0,0,0,0,0,0,0,0,0,0,0,0,0,0,0,0,0,0,0,0,0,0,0,0,0,0,0,0,0,0,0,0,0,0,0,0,0,0,0,0,0,0,0,0,0,0,0,0,0,0,0,0,0,0,0,0,0,0,0,0,
0,0,0,0,0,0,0,0,0,0,0,0,0,0,0,0,0,0,0,0,0,0,0,0,0,0,0,0,0,0,0,0,0,0,0,0,0,0,0,0,0,0,0,0,0,0,0,0,0,0,0,0,0,0,0,0,0,0,0,0,0,0,0,0,0,0,0,0,0,0,0,0,0,0,0,0,0,0,0,0,0,0,0,0,0,0,0,0,0,0,0,0,0,0,0,0,0,0,0,0,0,0,0,0,0,0,0,0,0,0,0,0,0,0,0,0,0,0,0,0,0,0,0,0,0,0,0,0,
0,0,0,0,0,0,0,0,0,0,0,0,0,0,0,0,0,0,0,0,0,0,0,0,0,0,0,0,0,0,0,0,0,0,0,0,0,0,0,0,0,0,0,0,0,0,0,0,0,0,0,0,0,0,0,0,0,0,0,0,0,0,0,0,0,0,0,0,0,0,0,0,0,0,0,0,0,0,0,0,0,0,0,0,0,0,0,0,0,0,0,0,0,0,0,0,0,0,0,0,0,0,0,0,0,0,0,0,0,0,0,0,0,0,0,0,0,0,0,0,0,0,0,0,0,0,0,0,
0,0,0,0,0,0,0,0,0,0,0,0,0,0,0,0,0,0,0,0,0,0,0,0,0,0,0,0,0,0,0,0,0,0,0,0,0,0,0,0,0,0,0,0,0,0,0,0,0,0,0,0,0,0,0,0,0,0,0,0,0,0,0,0,0,0,0,0,0,0,0,0,0,0,0,0,0,0,0,0,0,0,0,0,0,0,0,0,0,0,0,0,0,0,0,0,0,0,0,0,0,0,0,0,0,0,0,0,0,0,0,0,0,0,0,0,0,0,0,0,0,0,0,0,0,0,0,0,
0,0,0,0,0,0,0,0,0,0,0,0,0,0,0,0,0,0,0,0,0,0,0,0,0,0,0,0,0,0,0,0,0,0,0,0,0,0,0,0,0,0,0,0,0,0,0,0,0,0,0,0,0,0,0,0,0,0,0,0,0,0,0,0,0,0,0,0,0,0,0,0,0,0,0,0,0,0,0,0,0,0,0,0,0,0,0,0,0,0,0,0,0,0,0,0,0,0,0,0,0,0,0,0,0,0,0,0,0,0,0,0,0,0,0,0,0,0,0,0,0,0,0,0,0,0,0,0,
0,0,0,0,0,0,0,0,0,0,0,0,0,0,0,0,0,0,0,0,0,0,0,0,0,0,0,0,0,0,0,0,0,0,0,0,0,0,0,0,0,0,0,0,0,0,0,0,0,0,0,0,0,0,0,0,0,0,0,0,0,0,0,0,0,0,0,0,0,0,0,0,0,0,0,0,0,0,0,0,0,0,0,0,0,0,0,0,0,0,0,0,0,0,0,0,0,0,0,0,0,0,0,0,0,0,0,0,0,0,0,0,0,0,0,0,0,0,0,0,0,0,0,0,0,0,0,0,
0,0,0,0,0,0,0,0,0,0,0,0,0,0,0,0,0,0,0,0,0,0,0,0,0,0,0,0,0,0,0,0,0,0,0,0,0,0,0,0,0,0,0,0,0,0,0,0,0,0,0,0,0,0,0,0,0,0,0,0,0,0,0,0,0,0,0,0,0,0,0,0,0,0,0,0,0,0,0,0,0,0,0,0,0,0,0,0,0,0,0,0,0,0,0,0,0,0,0,0,0,0,0,0,0,0,0,0,0,0,0,0,0,0,0,0,0,0,0,0,0,0,0,0,0,0,0,0,
0,0,0,0,0,0,0,0,0,0,0,0,0,0,0,0,0,0,0,0,0,0,0,0,0,0,0,0,0,0,0,0,0,0,0,0,0,0,0,0,0,0,0,0,0,0,0,0,0,0,0,0,0,0,0,0,0,0,0,0,0,0,0,0,0,0,0,0,0,0,0,0,0,0,0,0,0,0,0,0,0,0,0,0,0,0,0,0,0,0,0,0,0,0,0,0,0,0,0,0,0,0,0,0,0,0,0,0,0,0,0,0,0,0,0,0,0,0,0,0,0,0,0,0,0,0,0,0,
0,0,0,0,0,0,0,0,0,0,0,0,0,0,0,0,0,0,0,0,0,0,0,0,0,0,0,0,0,0,0,0,0,0,0,0,0,0,0,0,0,0,0,0,0,0,0,0,0,0,0,0,0,0,0,0,0,0,0,0,0,0,0,0,0,0,0,0,0,0,0,0,0,0,0,0,0,0,0,0,0,0,0,0,0,0,0,0,0,0,0,0,0,0,0,0,0,0,0,0,0,0,0,0,0,0,0,0,0,0,0,0,0,0,0,0,0,0,0,0,0,0,0,0,0,0,0,0,
0,0,0,0,0,0,0,0,0,0,0,0,0,0,0,0,0,0,0,0,0,0,0,0,0,0,0,0,0,0,0,0,0,0,0,0,0,0,0,0,0,0,0,0,0,0,0,0,0,0,0,0,0,0,0,0,0,0,0,0,0,0,0,0,0,0,0,0,0,0,0,0,0,0,0,0,0,0,0,0,0,0,0,0,0,0,0,0,0,0,0,0,0,0,0,0,0,0,0,0,0,0,0,0,0,0,0,0,0,0,0,0,0,0,0,0,0,0,0,0,0,0,0,0,0,0,0,0,
0,0,0,0,0,0,0,0,0,0,0,0,0,0,0,0,0,0,0,0,0,0,0,0,0,0,0,0,0,0,0,0,0,0,0,0,0,0,0,0,0,0,0,0,0,0,0,0,0,0,0,0,0,0,0,0,0,0,0,0,0,0,0,0,0,0,0,0,0,0,0,0,0,0,0,0,0,0,0,0,0,0,0,0,0,0,0,0,0,0,0,0,0,0,0,0,0,0,0,0,0,0,0,0,0,0,0,0,0,0,0,0,0,0,0,0,0,0,0,0,0,0,0,0,0,0,0,0,
0,0,0,0,0,0,0,0,0,0,0,0,0,0,0,0,0,0,0,0,0,0,0,0,0,0,0,0,0,0,0,0,0,0,0,0,0,0,0,0,0,0,0,0,0,0,0,0,0,0,0,0,0,0,0,0,0,0,0,0,0,0,0,0,0,0,0,0,0,0,0,0,0,0,0,0,0,0,0,0,0,0,0,0,0,0,0,0,0,0,0,0,0,0,0,0,0,0,0,0,0,0,0,0,0,0,0,0,0,0,0,0,0,0,0,0,0,0,0,0,0,0,0,0,0,0,0,0,
0,0,0,0,0,0,0,0,0,0,0,0,0,0,0,0,0,0,0,0,0,0,0,0,0,0,0,0,0,0,0,0,0,0,0,0,0,0,0,0,0,0,0,0,0,0,0,0,0,0,0,0,0,0,0,0,0,0,0,0,0,0,0,0,0,0,0,0,0,0,0,0,0,0,0,0,0,0,0,0,0,0,0,0,0,0,0,0,0,0,0,0,0,0,0,0,0,0,0,0,0,0,0,0,0,0,0,0,0,0,0,0,0,0,0,0,0,0,0,0,0,0,0,0,0,0,0,0,
0,0,0,0,0,0,0,0,0,0,0,0,0,0,0,0,0,0,0,0,0,0,0,0,0,0,0,0,0,0,0,0,0,0,0,0,0,0,0,0,0,0,0,0,0,0,0,0,0,0,0,0,0,0,0,0,0,0,0,0,0,0,0,0,0,0,0,0,0,0,0,0,0,0,0,0,0,0,0,0,0,0,0,0,0,0,0,0,0,0,0,0,0,0,0,0,0,0,0,0,0,0,0,0,0,0,0,0,0,0,0,0,0,0,0,0,0,0,0,0,0,0,0,0,0,0,0,0,
0,0,0,0,0,0,0,0,0,0,0,0,0,0,0,0,0,0,0,0,0,0,0,0,0,0,0,0,0,0,0,0,0,0,0,0,0,0,0,0,0,0,0,0,0,0,0,0,0,0,0,0,0,0,0,0,0,0,0,0,0,0,0,0,0,0,0,0,0,0,0,0,0,0,0,0,0,0,0,0,0,0,0,0,0,0,0,0,0,0,0,0,0,0,0,0,0,0,0,0,0,0,0,0,0,0,0,0,0,0,0,0,0,0,0,0,0,0,0,0,0,0,0,0,0,0,0,0,
0,0,0,0,0,0,0,0,0,0,0,0,0,0,0,0,0,0,0,0,0,0,0,0,0,0,0,0,0,0,0,0,0,0,0,0,0,0,0,0,0,0,0,0,0,0,0,0,0,0,0,0,0,0,0,0,0,0,0,0,0,0,0,0,0,0,0,0,0,0,0,0,0,0,0,0,0,0,0,0,0,0,0,0,0,0,0,0,0,0,0,0,0,0,0,0,0,0,0,0,0,0,0,0,0,0,0,0,0,0,0,0,0,0,0,0,0,0,0,0,0,0,0,0,0,0,0,0,
0,0,0,0,0,0,0,0,0,0,0,0,0,0,0,0,0,0,0,0,0,0,0,0,0,0,0,0,0,0,0,0,0,0,0,0,0,0,0,0,0,0,0,0,0,0,0,0,0,0,0,0,0,0,0,0,0,0,0,0,0,0,0,0,0,0,0,0,0,0,0,0,0,0,0,0,0,0,0,0,0,0,0,0,0,0,0,0,0,0,0,0,0,0,0,0,0,0,0,0,0,0,0,0,0,0,0,0,0,0,0,0,0,0,0,0,0,0,0,0,0,0,0,0,0,0,0,0,
0,0,0,0,0,0,0,0,0,0,0,0,0,0,0,0,0,0,0,0,0,0,0,0,0,0,0,0,0,0,0,0,0,0,0,0,0,0,0,0,0,0,0,0,0,0,0,0,0,0,0,0,0,0,0,0,0,0,0,0,0,0,0,0,0,0,0,0,0,0,0,0,0,0,0,0,0,0,0,0,0,0,0,0,0,0,0,0,0,0,0,0,0,0,0,0,0,0,0,0,0,0,0,0,0,0,0,0,0,0,0,0,0,0,0,0,0,0,0,0,0,0,0,0,0,0,0,0,
0,0,0,0,0,0,0,0,0,0,0,0,0,0,0,0,0,0,0,0,0,0,0,0,0,0,0,0,0,0,0,0,0,0,0,0,0,0,0,0,0,0,0,0,0,0,0,0,0,0,0,0,0,0,0,0,0,0,0,0,0,0,0,0,0,0,0,0,0,0,0,0,0,0,0,0,0,0,0,0,0,0,0,0,0,0,0,0,0,0,0,0,0,0,0,0,0,0,0,0,0,0,0,0,0,0,0,0,0,0,0,0,0,0,0,0,0,0,0,0,0,0,0,0,0,0,0,0,
0,0,0,0,0,0,0,0,0,0,0,0,0,0,0,0,0,0,0,0,0,0,0,0,0,0,0,0,0,0,0,0,0,0,0,0,0,0,0,0,0,0,0,0,0,0,0,0,0,0,0,0,0,0,0,0,0,0,0,0,0,0,0,0,0,0,0,0,0,0,0,0,0,0,0,0,0,0,0,0,0,0,0,0,0,0,0,0,0,0,0,0,0,0,0,0,0,0,0,0,0,0,0,0,0,0,0,0,0,0,0,0,0,0,0,0,0,0,0,0,0,0,0,0,0,0,0,0,
0,0,0,0,0,0,0,0,0,0,0,0,0,0,0,0,0,0,0,0,0,0,0,0,0,0,0,0,0,0,0,0,0,0,0,0,0,0,0,0,0,0,0,0,0,0,0,0,0,0,0,0,0,0,0,0,0,0,0,0,0,0,0,0,0,0,0,0,0,0,0,0,0,0,0,0,0,0,0,0,0,0,0,0,0,0,0,0,0,0,0,0,0,0,0,0,0,0,0,0,0,0,0,0,0,0,0,0,0,0,0,0,0,0,0,0,0,0,0,0,0,0,0,0,0,0,0,0,
0,0,0,0,0,0,0,0,0,0,0,0,0,0,0,0,0,0,0,0,0,0,0,0,0,0,0,0,0,0,0,0,0,0,0,0,0,0,0,0,0,0,0,0,0,0,0,0,0,0,0,0,0,0,0,0,0,0,0,0,0,0,0,0,0,0,0,0,0,0,0,0,0,0,0,0,0,0,0,0,0,0,0,0,0,0,0,0,0,0,0,0,0,0,0,0,0,0,0,0,0,0,0,0,0,0,0,0,0,0,0,0,0,0,0,0,0,0,0,0,0,0,0,0,0,0,0,0,
0,0,0,0,0,0,0,0,0,0,0,0,0,0,0,0,0,0,0,0,0,0,0,0,0,0,0,0,0,0,0,0,0,0,0,0,0,0,0,0,0,0,0,0,0,0,0,0,0,0,0,0,0,0,0,0,0,0,0,0,0,0,0,0,0,0,0,0,0,0,0,0,0,0,0,0,0,0,0,0,0,0,0,0,0,0,0,0,0,0,0,0,0,0,0,0,0,0,0,0,0,0,0,0,0,0,0,0,0,0,0,0,0,0,0,0,0,0,0,0,0,0,0,0,0,0,0,0,
0,0,0,0,0,0,0,0,0,0,0,0,0,0,0,0,0,0,0,0,0,0,0,0,0,0,0,0,0,0,0,0,0,0,0,0,0,0,0,0,0,0,0,0,0,0,0,0,0,0,0,0,0,0,0,0,0,0,0,0,0,0,0,0,0,0,0,0,0,0,0,0,0,0,0,0,0,0,0,0,0,0,0,0,0,0,0,0,0,0,0,0,0,0,0,0,0,0,0,0,0,0,0,0,0,0,0,0,0,0,0,0,0,0,0,0,0,0,0,0,0,0,0,0,0,0,0,0,
0,0,0,0,0,0,0,0,0,0,0,0,0,0,0,0,0,0,0,0,0,0,0,0,0,0,0,0,0,0,0,0,0,0,0,0,0,0,0,0,0,0,0,0,0,0,0,0,0,0,0,0,0,0,0,0,0,0,0,0,0,0,0,0,0,0,0,0,0,0,0,0,0,0,0,0,0,0,0,0,0,0,0,0,0,0,0,0,0,0,0,0,0,0,0,0,0,0,0,0,0,0,0,0,0,0,0,0,0,0,0,0,0,0,0,0,0,0,0,0,0,0,0,0,0,0,0,0,
0,0,0,0,0,0,0,0,0,0,0,0,0,0,0,0,0,0,0,0,0,0,0,0,0,0,0,0,0,0,0,0,0,0,0,0,0,0,0,0,0,0,0,0,0,0,0,0,0,0,0,0,0,0,0,0,0,0,0,0,0,0,0,0,0,0,0,0,0,0,0,0,0,0,0,0,0,0,0,0,0,0,0,0,0,0,0,0,0,0,0,0,0,0,0,0,0,0,0,0,0,0,0,0,0,0,0,0,0,0,0,0,0,0,0,0,0,0,0,0,0,0,0,0,0,0,0,0,
0,0,0,0,0,0,0,0,0,0,0,0,0,0,0,0,0,0,0,0,0,0,0,0,0,0,0,0,0,0,0,0,0,0,0,0,0,0,0,0,0,0,0,0,0,0,0,0,0,0,0,0,0,0,0,0,0,0,0,0,0,0,0,0,0,0,0,0,0,0,0,0,0,0,0,0,0,0,0,0,0,0,0,0,0,0,0,0,0,0,0,0,0,0,0,0,0,0,0,0,0,0,0,0,0,0,0,0,0,0,0,0,0,0,0,0,0,0,0,0,0,0,0,0,0,0,0,0,
0,0,0,0,0,0,0,0,0,0,0,0,0,0,0,0,0,0,0,0,0,0,0,0,0,0,0,0,0,0,0,0,0,0,0,0,0,0,0,0,0,0,0,0,0,0,0,0,0,0,0,0,0,0,0,0,0,0,0,0,0,0,0,0,0,0,0,0,0,0,0,0,0,0,0,0,0,0,0,0,0,0,0,0,0,0,0,0,0,0,0,0,0,0,0,0,0,0,0,0,0,0,0,0,0,0,0,0,0,0,0,0,0,0,0,0,0,0,0,0,0,0,0,0,0,0,0,0,
0,0,0,0,0,0,0,0,0,0,0,0,0,0,0,0,0,0,0,0,0,0,0,0,0,0,0,0,0,0,0,0,0,0,0,0,0,0,0,0,0,0,0,0,0,0,0,0,0,0,0,0,0,0,0,0,0,0,0,0,0,0,0,0,0,0,0,0,0,0,0,0,0,0,0,0,0,0,0,0,0,0,0,0,0,0,0,0,0,0,0,0,0,0,0,0,0,0,0,0,0,0,0,0,0,0,0,0,0,0,0,0,0,0,0,0,0,0,0,0,0,0,0,0,0,0,0,0,
0,0,0,0,0,0,0,0,0,0,0,0,0,0,0,0,0,0,0,0,0,0,0,0,0,0,0,0,0,0,0,0,0,0,0,0,0,0,0,0,0,0,0,0,0,0,0,0,0,0,0,0,0,0,0,0,0,0,0,0,0,0,0,0,0,0,0,0,0,0,0,0,0,0,0,0,0,0,0,0,0,0,0,0,0,0,0,0,0,0,0,0,0,0,0,0,0,0,0,0,0,0,0,0,0,0,0,0,0,0,0,0,0,0,0,0,0,0,0,0,0,0,0,0,0,0,0,0,
0,0,0,0,0,0,0,0,0,0,0,0,0,0,0,0,0,0,0,0,0,0,0,0,0,0,0,0,0,0,0,0,0,0,0,0,0,0,0,0,0,0,0,0,0,0,0,0,0,0,0,0,0,0,0,0,0,0,0,0,0,0,0,0,0,0,0,0,0,0,0,0,0,0,0,0,0,0,0,0,0,0,0,0,0,0,0,0,0,0,0,0,0,0,0,0,0,0,0,0,0,0,0,0,0,0,0,0,0,0,0,0,0,0,0,0,0,0,0,0,0,0,0,0,0,0,0,0,
0,0,0,0,0,0,0,0,0,0,0,0,0,0,0,0,0,0,0,0,0,0,0,0,0,0,0,0,0,0,0,0,0,0,0,0,0,0,0,0,0,0,0,0,0,0,0,0,0,0,0,0,0,0,0,0,0,0,0,0,0,0,0,0,0,0,0,0,0,0,0,0,0,0,0,0,0,0,0,0,0,0,0,0,0,0,0,0,0,0,0,0,0,0,0,0,0,0,0,0,0,0,0,0,0,0,0,0,0,0,0,0,0,0,0,0,0,0,0,0,0,0,0,0,0,0,0,0,
0,0,0,0,0,0,0,0,0,0,0,0,0,0,0,0,0,0,0,0,0,0,0,0,0,0,0,0,0,0,0,0,0,0,0,0,0,0,0,0,0,0,0,0,0,0,0,0,0,0,0,0,0,0,0,0,0,0,0,0,0,0,0,0,0,0,0,0,0,0,0,0,0,0,0,0,0,0,0,0,0,0,0,0,0,0,0,0,0,0,0,0,0,0,0,0,0,0,0,0,0,0,0,0,0,0,0,0,0,0,0,0,0,0,0,0,0,0,0,0,0,0,0,0,0,0,0,0,
0,0,0,0,0,0,0,0,0,0,0,0,0,0,0,0,0,0,0,0,0,0,0,0,0,0,0,0,0,0,0,0,0,0,0,0,0,0,0,0,0,0,0,0,0,0,0,0,0,0,0,0,0,0,0,0,0,0,0,0,0,0,0,0,0,0,0,0,0,0,0,0,0,0,0,0,0,0,0,0,0,0,0,0,0,0,0,0,0,0,0,0,0,0,0,0,0,0,0,0,0,0,0,0,0,0,0,0,0,0,0,0,0,0,0,0,0,0,0,0,0,0,0,0,0,0,0,0,
0,0,0,0,0,0,0,0,0,0,0,0,0,0,0,0,0,0,0,0,0,0,0,0,0,0,0,0,0,0,0,0,0,0,0,0,0,0,0,0,0,0,0,0,0,0,0,0,0,0,0,0,0,0,0,0,0,0,0,0,0,0,0,0,0,0,0,0,0,0,0,0,0,0,0,0,0,0,0,0,0,0,0,0,0,0,0,0,0,0,0,0,0,0,0,0,0,0,0,0,0,0,0,0,0,0,0,0,0,0,0,0,0,0,0,0,0,0,0,0,0,0,0,0,0,0,0,0,
0,0,0,0,0,0,0,0,0,0,0,0,0,0,0,0,0,0,0,0,0,0,0,0,0,0,0,0,0,0,0,0,0,0,0,0,0,0,0,0,0,0,0,0,0,0,0,0,0,0,0,0,0,0,0,0,0,0,0,0,0,0,0,0,0,0,0,0,0,0,0,0,0,0,0,0,0,0,0,0,0,0,0,0,0,0,0,0,0,0,0,0,0,0,0,0,0,0,0,0,0,0,0,0,0,0,0,0,0,0,0,0,0,0,0,0,0,0,0,0,0,0,0,0,0,0,0,0,
0,0,0,0,0,0,0,0,0,0,0,0,0,0,0,0,0,0,0,0,0,0,0,0,0,0,0,0,0,0,0,0,0,0,0,0,0,0,0,0,0,0,0,0,0,0,0,0,0,0,0,0,0,0,0,0,0,0,0,0,0,0,0,0,0,0,0,0,0,0,0,0,0,0,0,0,0,0,0,0,0,0,0,0,0,0,0,0,0,0,0,0,0,0,0,0,0,0,0,0,0,0,0,0,0,0,0,0,0,0,0,0,0,0,0,0,0,0,0,0,0,0,0,0,0,0,0,0,
0,0,0,0,0,0,0,0,0,0,0,0,0,0,0,0,0,0,0,0,0,0,0,0,0,0,0,0,0,0,0,0,0,0,0,0,0,0,0,0,0,0,0,0,0,0,0,0,0,0,0,0,0,0,0,0,0,0,0,0,0,0,0,0,0,0,0,0,0,0,0,0,0,0,0,0,0,0,0,0,0,0,0,0,0,0,0,0,0,0,0,0,0,0,0,0,0,0,0,0,0,0,0,0,0,0,0,0,0,0,0,0,0,0,0,0,0,0,0,0,0,0,0,0,0,0,0,0,
0,0,0,0,0,0,0,0,0,0,0,0,0,0,0,0,0,0,0,0,0,0,0,0,0,0,0,0,0,0,0,0,0,0,0,0,0,0,0,0,0,0,0,0,0,0,0,0,0,0,0,0,0,0,0,0,0,0,0,0,0,0,0,0,0,0,0,0,0,0,0,0,0,0,0,0,0,0,0,0,0,0,0,0,0,0,0,0,0,0,0,0,0,0,0,0,0,0,0,0,0,0,0,0,0,0,0,0,0,0,0,0,0,0,0,0,0,0,0,0,0,0,0,0,0,0,0,0,
0,0,0,0,0,0,0,0,0,0,0,0,0,0,0,0,0,0,0,0,0,0,0,0,0,0,0,0,0,0,0,0,0,0,0,0,0,0,0,0,0,0,0,0,0,0,0,0,0,0,0,0,0,0,0,0,0,0,0,0,0,0,0,0,0,0,0,0,0,0,0,0,0,0,0,0,0,0,0,0,0,0,0,0,0,0,0,0,0,0,0,0,0,0,0,0,0,0,0,0,0,0,0,0,0,0,0,0,0,0,0,0,0,0,0,0,0,0,0,0,0,0,0,0,0,0,0,0,
0,0,0,0,0,0,0,0,0,0,0,0,0,0,0,0,0,0,0,0,0,0,0,0,0,0,0,0,0,0,0,0,0,0,0,0,0,0,0,0,0,0,0,0,0,0,0,0,0,0,0,0,0,0,0,0,0,0,0,0,0,0,0,0,0,0,0,0,0,0,0,0,0,0,0,0,0,0,0,0,0,0,0,0,0,0,0,0,0,0,0,0,0,0,0,0,0,0,0,0,0,0,0,0,0,0,0,0,0,0,0,0,0,0,0,0,0,0,0,0,0,0,0,0,0,0,0,0,
0,0,0,0,0,0,0,0,0,0,0,0,0,0,0,0,0,0,0,0,0,0,0,0,0,0,0,0,0,0,0,0,0,0,0,0,0,0,0,0,0,0,0,0,0,0,0,0,0,0,0,0,0,0,0,0,0,0,0,0,0,0,0,0,0,0,0,0,0,0,0,0,0,0,0,0,0,0,0,0,0,0,0,0,0,0,0,0,0,0,0,0,0,0,0,0,0,0,0,0,0,0,0,0,0,0,0,0,0,0,0,0,0,0,0,0,0,0,0,0,0,0,0,0,0,0,0,0,
0,0,0,0,0,0,0,0,0,0,0,0,0,0,0,0,0,0,0,0,0,0,0,0,0,0,0,0,0,0,0,0,0,0,0,0,0,0,0,0,0,0,0,0,0,0,0,0,0,0,0,0,0,0,0,0,0,0,0,0,0,0,0,0,0,0,0,0,0,0,0,0,0,0,0,0,0,0,0,0,0,0,0,0,0,0,0,0,0,0,0,0,0,0,0,0,0,0,0,0,0,0,0,0,0,0,0,0,0,0,0,0,0,0,0,0,0,0,0,0,0,0,0,0,0,0,0,0,
0,0,0,0,0,0,0,0,0,0,0,0,0,0,0,0,0,0,0,0,0,0,0,0,0,0,0,0,0,0,0,0,0,0,0,0,0,0,0,0,0,0,0,0,0,0,0,0,0,0,0,0,0,0,0,0,0,0,0,0,0,0,0,0,0,0,0,0,0,0,0,0,0,0,0,0,0,0,0,0,0,0,0,0,0,0,0,0,0,0,0,0,0,0,0,0,0,0,0,0,0,0,0,0,0,0,0,0,0,0,0,0,0,0,0,0,0,0,0,0,0,0,0,0,0,0,0,0,
0,0,0,0,0,0,0,0,0,0,0,0,0,0,0,0,0,0,0,0,0,0,0,0,0,0,0,0,0,0,0,0,0,0,0,0,0,0,0,0,0,0,0,0,0,0,0,0,0,0,0,0,0,0,0,0,0,0,0,0,0,0,0,0,0,0,0,0,0,0,0,0,0,0,0,0,0,0,0,0,0,0,0,0,0,0,0,0,0,0,0,0,0,0,0,0,0,0,0,0,0,0,0,0,0,0,0,0,0,0,0,0,0,0,0,0,0,0,0,0,0,0,0,0,0,0,0,0,
0,0,0,0,0,0,0,0,0,0,0,0,0,0,0,0,0,0,0,0,0,0,0,0,0,0,0,0,0,0,0,0,0,0,0,0,0,0,0,0,0,0,0,0,0,0,0,0,0,0,0,0,0,0,0,0,0,0,0,0,0,0,0,0,0,0,0,0,0,0,0,0,0,0,0,0,0,0,0,0,0,0,0,0,0,0,0,0,0,0,0,0,0,0,0,0,0,0,0,0,0,0,0,0,0,0,0,0,0,0,0,0,0,0,0,0,0,0,0,0,0,0,0,0,0,0,0,0
</data>
 </layer>
 <layer id="9" name="Castle Layer 2" width="128" height="100">
  <data encoding="csv">
0,0,0,0,0,0,0,0,0,0,0,0,0,0,0,0,0,0,0,0,0,0,0,0,0,0,0,0,0,0,0,0,0,0,0,0,0,0,0,0,0,0,0,0,0,0,0,0,0,0,0,0,0,0,0,0,0,0,0,0,0,0,0,0,0,0,0,0,0,0,0,0,0,0,0,0,0,0,0,0,0,0,0,0,0,0,0,0,0,0,0,0,0,0,0,0,0,0,0,0,0,0,0,0,0,0,0,0,0,0,0,0,0,0,0,0,0,0,0,0,0,0,0,0,0,0,0,0,
0,0,0,0,0,0,0,0,0,0,0,0,0,0,0,0,0,0,0,0,0,0,0,0,0,0,0,0,0,0,0,0,0,0,0,0,0,0,0,0,0,0,0,0,0,0,0,0,0,0,0,0,0,0,0,0,0,0,0,0,0,0,0,0,0,0,0,0,0,0,0,0,0,0,0,0,0,0,0,0,0,0,0,0,0,0,0,0,0,0,0,0,0,0,0,0,0,0,0,0,0,0,0,0,0,0,0,0,0,0,0,0,0,0,0,0,0,0,0,0,0,0,0,0,0,0,0,0,
0,0,0,0,0,0,0,0,0,0,0,0,0,0,0,0,0,0,0,0,0,0,0,0,0,0,0,0,0,0,0,0,0,0,0,0,0,0,0,0,0,0,0,0,0,0,0,0,0,0,0,0,0,0,0,0,0,0,0,0,0,0,0,0,0,0,1677,1678,0,0,0,4603,4604,0,0,4603,4604,0,0,1677,1678,0,0,0,0,0,0,0,0,0,0,0,0,0,0,0,0,0,0,0,0,0,0,0,0,0,0,0,0,0,0,0,0,0,0,0,0,0,0,0,0,0,0,0,0,0,0,0,
0,0,0,0,0,0,0,0,0,0,0,0,0,0,0,0,0,0,0,0,0,0,0,0,0,0,0,0,0,0,0,0,0,0,0,0,0,0,0,0,0,0,0,0,0,0,0,0,0,0,0,0,0,0,0,0,0,0,0,0,0,0,0,0,0,0,1709,1710,0,0,0,4619,4620,0,0,4619,4620,0,0,1709,1710,0,0,0,0,0,0,0,0,0,0,0,0,0,0,0,0,0,0,0,0,0,0,0,0,0,0,0,0,0,0,0,0,0,0,0,0,0,0,0,0,0,0,0,0,0,0,0,
0,0,0,0,0,0,0,0,0,0,0,0,0,0,0,0,0,0,0,0,0,0,0,0,0,0,0,0,0,0,0,0,0,0,0,0,0,0,0,0,0,0,0,0,0,0,0,0,0,0,0,0,0,0,0,0,0,0,0,0,0,0,0,0,0,0,4710,4711,4712,0,0,4635,4636,0,0,4635,4636,0,4614,4615,4616,0,0,0,0,0,0,0,0,0,0,0,0,0,0,0,0,0,0,0,0,0,0,0,0,0,0,0,0,0,0,0,0,0,0,0,0,0,0,0,0,0,0,0,0,0,0,0,
0,0,0,0,0,0,0,0,0,0,0,0,0,0,0,0,0,0,0,0,0,0,0,0,0,0,0,0,0,0,0,0,0,0,0,0,0,0,0,0,0,0,0,0,0,0,0,0,0,0,0,0,0,0,0,0,0,0,0,0,0,0,0,0,0,0,4726,4727,4728,0,0,0,0,0,0,0,0,0,4630,4631,4632,0,0,0,0,0,0,0,0,0,0,0,0,0,0,0,0,0,0,0,0,0,0,0,0,0,0,0,0,0,0,0,0,0,0,0,0,0,0,0,0,0,0,0,0,0,0,0,
0,0,0,0,0,0,0,0,0,0,0,0,0,0,0,0,0,0,0,0,0,0,0,0,0,0,0,0,0,0,0,0,0,0,0,0,0,0,0,0,0,0,0,0,0,0,0,0,0,0,0,0,0,0,0,0,0,0,0,0,0,0,0,0,0,0,0,0,0,0,0,0,0,0,0,0,0,0,0,0,0,0,0,0,0,0,0,0,0,0,0,0,0,0,0,0,0,0,0,0,0,0,0,0,0,0,0,0,0,0,0,0,0,0,0,0,0,0,0,0,0,0,0,0,0,0,0,0,
0,0,0,0,0,0,0,0,0,0,0,0,0,0,0,0,0,0,0,0,0,0,0,0,0,0,0,0,0,0,0,0,0,0,0,0,0,0,0,0,0,0,0,0,0,0,0,0,0,0,0,0,0,0,0,0,0,0,0,0,0,0,0,0,0,1573,1574,0,0,0,1639,1640,0,2246,0,0,0,0,0,0,1573,1574,0,0,0,0,0,0,0,0,0,0,0,0,0,0,0,0,0,0,0,0,0,0,0,0,0,0,0,0,0,0,0,0,0,0,0,0,0,0,0,0,0,0,0,0,0,0,
0,0,0,0,0,0,0,0,0,0,0,0,0,0,0,0,0,0,0,0,0,0,0,0,0,0,0,0,0,0,0,0,0,0,0,0,0,0,0,0,0,0,0,0,0,0,0,0,0,0,0,0,0,0,0,0,0,0,0,0,0,0,0,0,0,1605,1606,1465,1466,1575,1671,1672,0,2259,0,1637,1638,0,1465,1466,1605,1606,0,0,0,0,0,0,0,0,0,0,0,0,0,0,0,0,0,0,0,0,0,0,0,0,0,0,0,0,0,0,0,0,0,0,0,0,0,0,0,0,0,0,0,0,0,0,
0,0,0,0,0,0,0,0,0,0,0,0,0,0,0,0,0,0,0,0,0,0,0,0,0,0,0,0,0,0,0,0,0,0,0,0,0,0,0,0,0,0,0,0,0,0,0,0,0,0,0,0,0,0,0,0,0,0,0,0,0,0,0,0,0,0,0,1497,1498,1607,1608,0,0,0,0,1669,1670,0,1497,1498,0,0,0,0,0,0,0,0,0,0,0,0,0,0,0,0,0,0,0,0,0,0,0,0,0,0,0,0,0,0,0,0,0,0,0,0,0,0,0,0,0,0,0,0,0,0,0,0,
0,0,0,0,0,0,0,0,0,0,0,0,0,0,0,0,0,0,0,0,0,0,0,0,0,0,0,0,0,0,0,0,0,0,0,0,0,0,0,0,0,0,0,0,0,0,0,0,0,0,0,0,0,0,0,0,0,0,0,0,0,0,0,0,0,0,0,0,0,0,0,0,0,0,0,0,0,0,0,0,0,0,0,0,0,0,0,0,0,0,0,0,0,0,0,0,0,0,0,0,0,0,0,0,0,0,0,0,0,0,0,0,0,0,0,0,0,0,0,0,0,0,0,0,0,0,0,0,
0,0,0,0,0,0,0,0,0,0,0,0,0,0,0,0,0,0,0,0,0,0,0,0,0,0,0,0,0,0,0,0,0,0,0,0,0,0,0,0,0,0,0,0,0,0,0,0,0,0,0,0,0,0,0,0,0,0,0,0,0,0,0,0,0,0,0,0,0,0,0,0,0,0,0,0,0,0,0,0,0,0,0,0,0,0,0,0,0,0,0,0,0,0,0,0,0,0,0,0,0,0,0,0,0,0,0,0,0,0,0,0,0,0,0,0,0,0,0,0,0,0,0,0,0,0,0,0,
0,0,0,0,0,0,0,0,0,0,0,0,0,0,0,0,0,0,0,0,0,0,0,0,0,0,0,0,0,0,0,0,0,0,0,0,0,0,0,0,0,0,0,0,0,0,0,0,0,0,0,0,0,0,0,0,0,0,0,0,0,0,0,0,0,0,0,0,0,0,0,0,0,0,0,0,0,0,0,0,0,0,0,0,0,0,0,0,0,0,0,0,0,0,0,0,0,0,0,0,0,0,0,0,0,0,0,0,0,0,0,0,0,0,0,0,0,0,0,0,0,0,0,0,0,0,0,0,
0,0,0,0,0,0,0,0,0,0,0,0,0,0,0,0,0,0,0,0,0,0,0,0,0,0,0,0,0,0,0,0,0,0,0,0,0,0,0,0,0,0,0,0,0,0,0,0,0,0,0,0,0,0,0,0,0,0,0,0,0,0,0,0,0,0,0,0,0,0,0,0,0,0,0,0,0,0,0,0,0,0,0,0,0,0,0,0,0,0,0,0,0,0,0,0,0,0,0,0,0,0,0,0,0,0,0,0,0,0,0,0,0,0,0,0,0,0,0,0,0,0,0,0,0,0,0,0,
0,0,0,0,0,0,0,0,0,0,0,0,0,0,0,0,0,0,0,0,0,0,0,0,0,0,0,0,0,0,0,0,0,0,0,0,0,0,0,0,0,0,0,0,0,0,0,0,0,0,0,0,0,0,0,0,0,0,0,0,0,0,0,0,0,0,0,0,0,0,0,0,0,0,0,0,0,0,0,0,0,0,0,0,0,0,0,0,0,0,0,0,0,0,0,0,0,0,0,0,0,0,0,0,0,0,0,0,0,0,0,0,0,0,0,0,0,0,0,0,0,0,0,0,0,0,0,0,
0,0,0,0,0,0,0,0,0,0,0,0,0,0,0,0,0,0,0,0,0,0,0,0,0,0,0,0,0,0,0,0,0,0,0,0,0,0,0,0,0,0,0,0,0,0,0,0,0,0,0,0,0,0,0,0,0,0,0,0,0,0,0,0,0,0,0,0,0,0,0,0,0,0,0,0,0,0,0,0,0,0,0,0,0,0,0,0,0,0,0,0,0,0,0,0,0,0,0,0,0,0,0,0,0,0,0,0,0,0,0,0,0,0,0,0,0,0,0,0,0,0,0,0,0,0,0,0,
0,0,0,0,0,0,0,0,0,0,0,0,0,0,0,0,0,0,0,0,0,0,0,0,0,0,0,0,0,0,0,0,0,0,0,0,0,0,0,0,0,0,0,0,0,0,0,0,0,0,0,0,0,0,0,0,0,0,0,0,0,0,0,0,0,0,0,0,0,0,0,0,0,0,0,0,0,0,0,0,0,0,0,0,0,0,0,0,0,0,0,0,0,0,0,0,0,0,0,0,0,0,0,0,0,0,0,0,0,0,0,0,0,0,0,0,0,0,0,0,0,0,0,0,0,0,0,0,
0,0,0,0,0,0,0,0,0,0,0,0,0,0,0,0,0,0,0,0,0,0,0,0,0,0,0,0,0,0,0,0,0,0,0,0,0,0,0,0,0,0,0,0,0,0,0,0,0,0,0,0,0,0,0,0,0,0,0,0,0,0,0,0,0,0,0,0,0,0,0,0,0,0,0,0,0,0,0,0,0,0,0,0,0,0,0,0,0,0,0,0,0,0,0,0,0,0,0,0,0,0,0,0,0,0,0,0,0,0,0,0,0,0,0,0,0,0,0,0,0,0,0,0,0,0,0,0,
0,0,0,0,0,0,0,0,0,0,0,0,0,0,0,0,0,0,0,0,0,0,0,0,0,0,0,0,0,0,0,0,0,0,0,0,0,0,0,0,0,0,0,0,0,0,0,0,0,0,0,0,0,0,0,0,0,0,0,0,0,0,0,0,0,0,0,0,0,0,0,0,0,0,0,0,0,0,0,0,0,0,0,0,0,0,0,0,0,0,0,0,0,0,0,0,0,0,0,0,0,0,0,0,0,0,0,0,0,0,0,0,0,0,0,0,0,0,0,0,0,0,0,0,0,0,0,0,
0,0,0,0,0,0,0,0,0,0,0,0,0,0,0,0,0,0,0,0,0,0,0,0,0,0,0,0,0,0,0,0,0,0,0,0,0,0,0,0,0,0,0,0,0,0,0,0,0,0,0,0,0,0,0,0,0,0,0,0,0,0,0,0,0,0,0,0,0,0,0,0,0,0,0,0,0,0,0,0,0,0,0,0,0,0,0,0,0,0,0,0,0,0,0,0,0,0,0,0,0,0,0,0,0,0,0,0,0,0,0,0,0,0,0,0,0,0,0,0,0,0,0,0,0,0,0,0,
0,0,0,0,0,0,0,0,0,0,0,0,0,0,0,0,0,0,0,0,0,0,0,0,0,0,0,0,0,0,0,0,0,0,0,0,0,0,0,0,0,0,0,0,0,0,0,0,0,0,0,0,0,0,0,0,0,0,0,0,0,0,0,0,0,0,0,0,0,0,0,0,0,0,0,0,0,0,0,0,0,0,0,0,0,0,0,0,0,0,0,0,0,0,0,0,0,0,0,0,0,0,0,0,0,0,0,0,0,0,0,0,0,0,0,0,0,0,0,0,0,0,0,0,0,0,0,0,
0,0,0,0,0,0,0,0,0,0,0,0,0,0,0,0,0,0,0,0,0,0,0,0,0,0,0,0,0,0,0,0,0,0,0,0,0,0,0,0,0,0,0,0,0,0,0,0,0,0,0,0,0,0,0,0,0,0,0,0,0,0,0,0,0,0,0,0,0,0,0,0,0,0,0,0,0,0,0,0,0,0,0,0,0,0,0,0,0,0,0,0,0,0,0,0,0,0,0,0,0,0,0,0,0,0,0,0,0,0,0,0,0,0,0,0,0,0,0,0,0,0,0,0,0,0,0,0,
0,0,0,0,0,0,0,0,0,0,0,0,0,0,0,0,0,0,0,0,0,0,0,0,0,0,0,0,0,0,0,0,0,0,0,0,0,0,0,0,0,0,0,0,0,0,0,0,0,0,0,0,0,0,0,0,0,0,0,0,0,0,0,0,0,0,0,0,0,0,0,0,0,0,0,0,0,0,0,0,0,0,0,0,0,0,0,0,0,0,0,0,0,0,0,0,0,0,0,0,0,0,0,0,0,0,0,0,0,0,0,0,0,0,0,0,0,0,0,0,0,0,0,0,0,0,0,0,
0,0,0,0,0,0,0,0,0,0,0,0,0,0,0,0,0,0,0,0,0,0,0,0,0,0,0,0,0,0,0,0,0,0,0,0,0,0,0,0,0,0,0,0,0,0,0,0,0,0,0,0,0,0,0,0,0,0,0,0,0,0,0,0,0,0,0,0,0,0,0,0,0,0,0,0,0,0,0,0,0,0,0,0,0,0,0,0,0,0,0,0,0,0,0,0,0,0,0,0,0,0,0,0,0,0,0,0,0,0,0,0,0,0,0,0,0,0,0,0,0,0,0,0,0,0,0,0,
0,0,0,0,0,0,0,0,0,0,0,0,0,0,0,0,0,0,0,0,0,0,0,0,0,0,0,0,0,0,0,0,0,0,0,0,0,0,0,0,0,0,0,0,0,0,0,0,0,0,0,0,0,0,0,0,0,0,0,0,0,0,0,0,0,0,0,0,0,0,0,0,0,0,0,0,0,0,0,0,0,0,0,0,0,0,0,0,0,0,0,0,0,0,0,0,0,0,0,0,0,0,0,0,0,0,0,0,0,0,0,0,0,0,0,0,0,0,0,0,0,0,0,0,0,0,0,0,
0,0,0,0,0,0,0,0,0,0,0,0,0,0,0,0,0,0,0,0,0,0,0,0,0,0,0,0,0,0,0,0,0,0,0,0,0,0,0,0,0,0,0,0,0,0,0,0,0,0,0,0,0,0,0,0,0,0,0,0,0,0,0,0,0,0,0,0,0,0,0,0,0,0,0,0,0,0,0,0,0,0,0,0,0,0,0,0,0,0,0,0,0,0,0,0,0,0,0,0,0,0,0,0,0,0,0,0,0,0,0,0,0,0,0,0,0,0,0,0,0,0,0,0,0,0,0,0,
0,0,0,0,0,0,0,0,0,0,0,0,0,0,0,0,0,0,0,0,0,0,0,0,0,0,0,0,0,0,0,0,0,0,0,0,0,0,0,0,0,0,0,0,0,0,0,0,0,0,0,0,0,0,0,0,0,0,0,0,0,0,0,0,0,0,0,0,0,0,0,0,0,0,0,0,0,0,0,0,0,0,0,0,0,0,0,0,0,0,0,0,0,0,0,0,0,0,0,0,0,0,0,0,0,0,0,0,0,0,0,0,0,0,0,0,0,0,0,0,0,0,0,0,0,0,0,0,
0,0,0,0,0,0,0,0,0,0,0,0,0,0,0,0,0,0,0,0,0,0,0,0,0,0,0,0,0,0,0,0,0,0,0,0,0,0,0,0,0,0,0,0,0,0,0,0,0,0,0,0,0,0,0,0,0,0,0,0,0,0,0,0,0,0,0,0,0,0,0,0,0,0,0,0,0,0,0,0,0,0,0,0,0,0,0,0,0,0,0,0,0,0,0,0,0,0,0,0,0,0,0,0,0,0,0,0,0,0,0,0,0,0,0,0,0,0,0,0,0,0,0,0,0,0,0,0,
0,0,0,0,0,0,0,0,0,0,0,0,0,0,0,0,0,0,0,0,0,0,0,0,0,0,0,0,0,0,0,0,0,0,0,0,0,0,0,0,0,0,0,0,0,0,0,0,0,0,0,0,0,0,0,0,0,0,0,0,0,0,0,0,0,0,0,0,0,0,0,0,0,0,0,0,0,0,0,0,0,0,0,0,0,0,0,0,0,0,0,0,0,0,0,0,0,0,0,0,0,0,0,0,0,0,0,0,0,0,0,0,0,0,0,0,0,0,0,0,0,0,0,0,0,0,0,0,
0,0,0,0,0,0,0,0,0,0,0,0,0,0,0,0,0,0,0,0,0,0,0,0,0,0,0,0,0,0,0,0,0,0,0,0,0,0,0,0,0,0,0,0,0,0,0,0,0,0,0,0,0,0,0,0,0,0,0,0,0,0,0,0,0,0,0,0,0,0,0,0,0,0,0,0,0,0,0,0,0,0,0,0,0,0,0,0,0,0,0,0,0,0,0,0,0,0,0,0,0,0,0,0,0,0,0,0,0,0,0,0,0,0,0,0,0,0,0,0,0,0,0,0,0,0,0,0,
0,0,0,0,0,0,0,0,0,0,0,0,0,0,0,0,0,0,0,0,0,0,0,0,0,0,0,0,0,0,0,0,0,0,0,0,0,0,0,0,0,0,0,0,0,0,0,0,0,0,0,0,0,0,0,0,0,0,0,0,0,0,0,0,0,0,0,0,0,0,0,0,0,0,0,0,0,0,0,0,0,0,0,0,0,0,0,0,0,0,0,0,0,0,0,0,0,0,0,0,0,0,0,0,0,0,0,0,0,0,0,0,0,0,0,0,0,0,0,0,0,0,0,0,0,0,0,0,
0,0,0,0,0,0,0,0,0,0,0,0,0,0,0,0,0,0,0,0,0,0,0,0,0,0,0,0,0,0,0,0,0,0,0,0,0,0,0,0,0,0,0,0,0,0,0,0,0,0,0,0,0,0,0,0,0,0,0,0,0,0,0,0,0,0,0,0,0,0,0,0,0,0,0,0,0,0,0,0,0,0,0,0,0,0,0,0,0,0,0,0,0,0,0,0,0,0,0,0,0,0,0,0,0,0,0,0,0,0,0,0,0,0,0,0,0,0,0,0,0,0,0,0,0,0,0,0,
0,0,0,0,0,0,0,0,0,0,0,0,0,0,0,0,0,0,0,0,0,0,0,0,0,0,0,0,0,0,0,0,0,0,0,0,0,0,0,0,0,0,0,0,0,0,0,0,0,0,0,0,0,0,0,0,0,0,0,0,0,0,0,0,0,0,0,0,0,0,0,0,0,0,0,0,0,0,0,0,0,0,0,0,0,0,0,0,0,0,0,0,0,0,0,0,0,0,0,0,0,0,0,0,0,0,0,0,0,0,0,0,0,0,0,0,0,0,0,0,0,0,0,0,0,0,0,0,
0,0,0,0,0,0,0,0,0,0,0,0,0,0,0,0,0,0,0,0,0,0,0,0,0,0,0,0,0,0,0,0,0,0,0,0,0,0,0,0,0,0,0,0,0,0,0,0,0,0,0,0,0,0,0,0,0,0,0,0,0,0,0,0,0,0,0,0,0,0,0,0,0,0,0,0,0,0,0,0,0,0,0,0,0,0,0,0,0,0,0,0,0,0,0,0,0,0,0,0,0,0,0,0,0,0,0,0,0,0,0,0,0,0,0,0,0,0,0,0,0,0,0,0,0,0,0,0,
0,0,0,0,0,0,0,0,0,0,0,0,0,0,0,0,0,0,0,0,0,0,0,0,0,0,0,0,0,0,0,0,0,0,0,0,0,0,0,0,0,0,0,0,0,0,0,0,0,0,0,0,0,0,0,0,0,0,0,0,0,0,0,0,0,0,0,0,0,0,0,0,0,0,0,0,0,0,0,0,0,0,0,0,0,0,0,0,0,0,0,0,0,0,0,0,0,0,0,0,0,0,0,0,0,0,0,0,0,0,0,0,0,0,0,0,0,0,0,0,0,0,0,0,0,0,0,0,
0,0,0,0,0,0,0,0,0,0,0,0,0,0,0,0,0,0,0,0,0,0,0,0,0,0,0,0,0,0,0,0,0,0,0,0,0,0,0,0,0,0,0,0,0,0,0,0,0,0,0,0,0,0,0,0,0,0,0,0,0,0,0,0,0,0,0,0,0,0,0,0,0,0,0,0,0,0,0,0,0,0,0,0,0,0,0,0,0,0,0,0,0,0,0,0,0,0,0,0,0,0,0,0,0,0,0,0,0,0,0,0,0,0,0,0,0,0,0,0,0,0,0,0,0,0,0,0,
0,0,0,0,0,0,0,0,0,0,0,0,0,0,0,0,0,0,0,0,0,0,0,0,0,0,0,0,0,0,0,0,0,0,0,0,0,0,0,0,0,0,0,0,0,0,0,0,0,0,0,0,0,0,0,0,0,0,0,0,0,0,0,0,0,0,0,0,0,0,0,0,0,0,0,0,0,0,0,0,0,0,0,0,0,0,0,0,0,0,0,0,0,0,0,0,0,0,0,0,0,0,0,0,0,0,0,0,0,0,0,0,0,0,0,0,0,0,0,0,0,0,0,0,0,0,0,0,
0,0,0,0,0,0,0,0,0,0,0,0,0,0,0,0,0,0,0,0,0,0,0,0,0,0,0,0,0,0,0,0,0,0,0,0,0,0,0,0,0,0,0,0,0,0,0,0,0,0,0,0,0,0,0,0,0,0,0,0,0,0,0,0,0,0,0,0,0,0,0,0,0,0,0,0,0,0,0,0,0,0,0,0,0,0,0,0,0,0,0,0,0,0,0,0,0,0,0,0,0,0,0,0,0,0,0,0,0,0,0,0,0,0,0,0,0,0,0,0,0,0,0,0,0,0,0,0,
0,0,0,0,0,0,0,0,0,0,0,0,0,0,0,0,0,0,0,0,0,0,0,0,0,0,0,0,0,0,0,0,0,0,0,0,0,0,0,0,0,0,0,0,0,0,0,0,0,0,0,0,0,0,0,0,0,0,0,0,0,0,0,0,0,0,0,0,0,0,0,0,0,0,0,0,0,0,0,0,0,0,0,0,0,0,0,0,0,0,0,0,0,0,0,0,0,0,0,0,0,0,0,0,0,0,0,0,0,0,0,0,0,0,0,0,0,0,0,0,0,0,0,0,0,0,0,0,
0,0,0,0,0,0,0,0,0,0,0,0,0,0,0,0,0,0,0,0,0,0,0,0,0,0,0,0,0,0,0,0,0,0,0,0,0,0,0,0,0,0,0,0,0,0,0,0,0,0,0,0,0,0,0,0,0,0,0,0,0,0,0,0,0,0,0,0,0,0,0,0,0,0,0,0,0,0,0,0,0,0,0,0,0,0,0,0,0,0,0,0,0,0,0,0,0,0,0,0,0,0,0,0,0,0,0,0,0,0,0,0,0,0,0,0,0,0,0,0,0,0,0,0,0,0,0,0,
0,0,0,0,0,0,0,0,0,0,0,0,0,0,0,0,0,0,0,0,0,0,0,0,0,0,0,0,0,0,0,0,0,0,0,0,0,0,0,0,0,0,0,0,0,0,0,0,0,0,0,0,0,0,0,0,0,0,0,0,0,0,0,0,0,0,0,0,0,0,0,0,0,0,0,0,0,0,0,0,0,0,0,0,0,0,0,0,0,0,0,0,0,0,0,0,0,0,0,0,0,0,0,0,0,0,0,0,0,0,0,0,0,0,0,0,0,0,0,0,0,0,0,0,0,0,0,0,
0,0,0,0,0,0,0,0,0,0,0,0,0,0,0,0,0,0,0,0,0,0,0,0,0,0,0,0,0,0,0,0,0,0,0,0,0,0,0,0,0,0,0,0,0,0,0,0,0,0,0,0,0,0,0,0,0,0,0,0,0,0,0,0,0,0,0,0,0,0,0,0,0,0,0,0,0,0,0,0,0,0,0,0,0,0,0,0,0,0,0,0,0,0,0,0,0,0,0,0,0,0,0,0,0,0,0,0,0,0,0,0,0,0,0,0,0,0,0,0,0,0,0,0,0,0,0,0,
0,0,0,0,0,0,0,0,0,0,0,0,0,0,0,0,0,0,0,0,0,0,0,0,0,0,0,0,0,0,0,0,0,0,0,0,0,0,0,0,0,0,0,0,0,0,0,0,0,0,0,0,0,0,0,0,0,0,0,0,0,0,0,0,0,0,0,0,0,0,0,0,0,0,0,0,0,0,0,0,0,0,0,0,0,0,0,0,0,0,0,0,0,0,0,0,0,0,0,0,0,0,0,0,0,0,0,0,0,0,0,0,0,0,0,0,0,0,0,0,0,0,0,0,0,0,0,0,
0,0,0,0,0,0,0,0,0,0,0,0,0,0,0,0,0,0,0,0,0,0,0,0,0,0,0,0,0,0,0,0,0,0,0,0,0,0,0,0,0,0,0,0,0,0,0,0,0,0,0,0,0,0,0,0,0,0,0,0,0,0,0,0,0,0,0,0,0,0,0,0,0,0,0,0,0,0,0,0,0,0,0,0,0,0,0,0,0,0,0,0,0,0,0,0,0,0,0,0,0,0,0,0,0,0,0,0,0,0,0,0,0,0,0,0,0,0,0,0,0,0,0,0,0,0,0,0,
0,0,0,0,0,0,0,0,0,0,0,0,0,0,0,0,0,0,0,0,0,0,0,0,0,0,0,0,0,0,0,0,0,0,0,0,0,0,0,0,0,0,0,0,0,0,0,0,0,0,0,0,0,0,0,0,0,0,0,0,0,0,0,0,0,0,0,0,0,0,0,0,0,0,0,0,0,0,0,0,0,0,0,0,0,0,0,0,0,0,0,0,0,0,0,0,0,0,0,0,0,0,0,0,0,0,0,0,0,0,0,0,0,0,0,0,0,0,0,0,0,0,0,0,0,0,0,0,
0,0,0,0,0,0,0,0,0,0,0,0,0,0,0,0,0,0,0,0,0,0,0,0,0,0,0,0,0,0,0,0,0,0,0,0,0,0,0,0,0,0,0,0,0,0,0,0,0,0,0,0,0,0,0,0,0,0,0,0,0,0,0,0,0,0,0,0,0,0,0,0,0,0,0,0,0,0,0,0,0,0,0,0,0,0,0,0,0,0,0,0,0,0,0,0,0,0,0,0,0,0,0,0,0,0,0,0,0,0,0,0,0,0,0,0,0,0,0,0,0,0,0,0,0,0,0,0,
0,0,0,0,0,0,0,0,0,0,0,0,0,0,0,0,0,0,0,0,0,0,0,0,0,0,0,0,0,0,0,0,0,0,0,0,0,0,0,0,0,0,0,0,0,0,0,0,0,0,0,0,0,0,0,0,0,0,0,0,0,0,0,0,0,0,0,0,0,0,0,0,0,0,0,0,0,0,0,0,0,0,0,0,0,0,0,0,0,0,0,0,0,0,0,0,0,0,0,0,0,0,0,0,0,0,0,0,0,0,0,0,0,0,0,0,0,0,0,0,0,0,0,0,0,0,0,0,
0,0,0,0,0,0,0,0,0,0,0,0,0,0,0,0,0,0,0,0,0,0,0,0,0,0,0,0,0,0,0,0,0,0,0,0,0,0,0,0,0,0,0,0,0,0,0,0,0,0,0,0,0,0,0,0,0,0,0,0,0,0,0,0,0,0,0,0,0,0,0,0,0,0,0,0,0,0,0,0,0,0,0,0,0,0,0,0,0,0,0,0,0,0,0,0,0,0,0,0,0,0,0,0,0,0,0,0,0,0,0,0,0,0,0,0,0,0,0,0,0,0,0,0,0,0,0,0,
0,0,0,0,0,0,0,0,0,0,0,0,0,0,0,0,0,0,0,0,0,0,0,0,0,0,0,0,0,0,0,0,0,0,0,0,0,0,0,0,0,0,0,0,0,0,0,0,0,0,0,0,0,0,0,0,0,0,0,0,0,0,0,0,0,0,0,0,0,0,0,0,0,0,0,0,0,0,0,0,0,0,0,0,0,0,0,0,0,0,0,0,0,0,0,0,0,0,0,0,0,0,0,0,0,0,0,0,0,0,0,0,0,0,0,0,0,0,0,0,0,0,0,0,0,0,0,0,
0,0,0,0,0,0,0,0,0,0,0,0,0,0,0,0,0,0,0,0,0,0,0,0,0,0,0,0,0,0,0,0,0,0,0,0,0,0,0,0,0,0,0,0,0,0,0,0,0,0,0,0,0,0,0,0,0,0,0,0,0,0,0,0,0,0,0,0,0,0,0,0,0,0,0,0,0,0,0,0,0,0,0,0,0,0,0,0,0,0,0,0,0,0,0,0,0,0,0,0,0,0,0,0,0,0,0,0,0,0,0,0,0,0,0,0,0,0,0,0,0,0,0,0,0,0,0,0,
0,0,0,0,0,0,0,0,0,0,0,0,0,0,0,0,0,0,0,0,0,0,0,0,0,0,0,0,0,0,0,0,0,0,0,0,0,0,0,0,0,0,0,0,0,0,0,0,0,0,0,0,0,0,0,0,0,0,0,0,0,0,0,0,0,0,0,0,0,0,0,0,0,0,0,0,0,0,0,0,0,0,0,0,0,0,0,0,0,0,0,0,0,0,0,0,0,0,0,0,0,0,0,0,0,0,0,0,0,0,0,0,0,0,0,0,0,0,0,0,0,0,0,0,0,0,0,0,
0,0,0,0,0,0,0,0,0,0,0,0,0,0,0,0,0,0,0,0,0,0,0,0,0,0,0,0,0,0,0,0,0,0,0,0,0,0,0,0,0,0,0,0,0,0,0,0,0,0,0,0,0,0,0,0,0,0,0,0,0,0,0,0,0,0,0,0,0,0,0,0,0,0,0,0,0,0,0,0,0,0,0,0,0,0,0,0,0,0,0,0,0,0,0,0,0,0,0,0,0,0,0,0,0,0,0,0,0,0,0,0,0,0,0,0,0,0,0,0,0,0,0,0,0,0,0,0,
0,0,0,0,0,0,0,0,0,0,0,0,0,0,0,0,0,0,0,0,0,0,0,0,0,0,0,0,0,0,0,0,0,0,0,0,0,0,0,0,0,0,0,0,0,0,0,0,0,0,0,0,0,0,0,0,0,0,0,0,0,0,0,0,0,0,0,0,0,0,0,0,0,0,0,0,0,0,0,0,0,0,0,0,0,0,0,0,0,0,0,0,0,0,0,0,0,0,0,0,0,0,0,0,0,0,0,0,0,0,0,0,0,0,0,0,0,0,0,0,0,0,0,0,0,0,0,0,
0,0,0,0,0,0,0,0,0,0,0,0,0,0,0,0,0,0,0,0,0,0,0,0,0,0,0,0,0,0,0,0,0,0,0,0,0,0,0,0,0,0,0,0,0,0,0,0,0,0,0,0,0,0,0,0,0,0,0,0,0,0,0,0,0,0,0,0,0,0,0,0,0,0,0,0,0,0,0,0,0,0,0,0,0,0,0,0,0,0,0,0,0,0,0,0,0,0,0,0,0,0,0,0,0,0,0,0,0,0,0,0,0,0,0,0,0,0,0,0,0,0,0,0,0,0,0,0,
0,0,0,0,0,0,0,0,0,0,0,0,0,0,0,0,0,0,0,0,0,0,0,0,0,0,0,0,0,0,0,0,0,0,0,0,0,0,0,0,0,0,0,0,0,0,0,0,0,0,0,0,0,0,0,0,0,0,0,0,0,0,0,0,0,0,0,0,0,0,0,0,0,0,0,0,0,0,0,0,0,0,0,0,0,0,0,0,0,0,0,0,0,0,0,0,0,0,0,0,0,0,0,0,0,0,0,0,0,0,0,0,0,0,0,0,0,0,0,0,0,0,0,0,0,0,0,0,
0,0,0,0,0,0,0,0,0,0,0,0,0,0,0,0,0,0,0,0,0,0,0,0,0,0,0,0,0,0,0,0,0,0,0,0,0,0,0,0,0,0,0,0,0,0,0,0,0,0,0,0,0,0,0,0,0,0,0,0,0,0,0,0,0,0,0,0,0,0,0,0,0,0,0,0,0,0,0,0,0,0,0,0,0,0,0,0,0,0,0,0,0,0,0,0,0,0,0,0,0,0,0,0,0,0,0,0,0,0,0,0,0,0,0,0,0,0,0,0,0,0,0,0,0,0,0,0,
0,0,0,0,0,0,0,0,0,0,0,0,0,0,0,0,0,0,0,0,0,0,0,0,0,0,0,0,0,0,0,0,0,0,0,0,0,0,0,0,0,0,0,0,0,0,0,0,0,0,0,0,0,0,0,0,0,0,0,0,0,0,0,0,0,0,0,0,0,0,0,0,0,0,0,0,0,0,0,0,0,0,0,0,0,0,0,0,0,0,0,0,0,0,0,0,0,0,0,0,0,0,0,0,0,0,0,0,0,0,0,0,0,0,0,0,0,0,0,0,0,0,0,0,0,0,0,0,
0,0,0,0,0,0,0,0,0,0,0,0,0,0,0,0,0,0,0,0,0,0,0,0,0,0,0,0,0,0,0,0,0,0,0,0,0,0,0,0,0,0,0,0,0,0,0,0,0,0,0,0,0,0,0,0,0,0,0,0,0,0,0,0,0,0,0,0,0,0,0,0,0,0,0,0,0,0,0,0,0,0,0,0,0,0,0,0,0,0,0,0,0,0,0,0,0,0,0,0,0,0,0,0,0,0,0,0,0,0,0,0,0,0,0,0,0,0,0,0,0,0,0,0,0,0,0,0,
0,0,0,0,0,0,0,0,0,0,0,0,0,0,0,0,0,0,0,0,0,0,0,0,0,0,0,0,0,0,0,0,0,0,0,0,0,0,0,0,0,0,0,0,0,0,0,0,0,0,0,0,0,0,0,0,0,0,0,0,0,0,0,0,0,0,0,0,0,0,0,0,0,0,0,0,0,0,0,0,0,0,0,0,0,0,0,0,0,0,0,0,0,0,0,0,0,0,0,0,0,0,0,0,0,0,0,0,0,0,0,0,0,0,0,0,0,0,0,0,0,0,0,0,0,0,0,0,
0,0,0,0,0,0,0,0,0,0,0,0,0,0,0,0,0,0,0,0,0,0,0,0,0,0,0,0,0,0,0,0,0,0,0,0,0,0,0,0,0,0,0,0,0,0,0,0,0,0,0,0,0,0,0,0,0,0,0,0,0,0,0,0,0,0,0,0,0,0,0,0,0,0,0,0,0,0,0,0,0,0,0,0,0,0,0,0,0,0,0,0,0,0,0,0,0,0,0,0,0,0,0,0,0,0,0,0,0,0,0,0,0,0,0,0,0,0,0,0,0,0,0,0,0,0,0,0,
0,0,0,0,0,0,0,0,0,0,0,0,0,0,0,0,0,0,0,0,0,0,0,0,0,0,0,0,0,0,0,0,0,0,0,0,0,0,0,0,0,0,0,0,0,0,0,0,0,0,0,0,0,0,0,0,0,0,0,0,0,0,0,0,0,0,0,0,0,0,0,0,0,0,0,0,0,0,0,0,0,0,0,0,0,0,0,0,0,0,0,0,0,0,0,0,0,0,0,0,0,0,0,0,0,0,0,0,0,0,0,0,0,0,0,0,0,0,0,0,0,0,0,0,0,0,0,0,
0,0,0,0,0,0,0,0,0,0,0,0,0,0,0,0,0,0,0,0,0,0,0,0,0,0,0,0,0,0,0,0,0,0,0,0,0,0,0,0,0,0,0,0,0,0,0,0,0,0,0,0,0,0,0,0,0,0,0,0,0,0,0,0,0,0,0,0,0,0,0,0,0,0,0,0,0,0,0,0,0,0,0,0,0,0,0,0,0,0,0,0,0,0,0,0,0,0,0,0,0,0,0,0,0,0,0,0,0,0,0,0,0,0,0,0,0,0,0,0,0,0,0,0,0,0,0,0,
0,0,0,0,0,0,0,0,0,0,0,0,0,0,0,0,0,0,0,0,0,0,0,0,0,0,0,0,0,0,0,0,0,0,0,0,0,0,0,0,0,0,0,0,0,0,0,0,0,0,0,0,0,0,0,0,0,0,0,0,0,0,0,0,0,0,0,0,0,0,0,0,0,0,0,0,0,0,0,0,0,0,0,0,0,0,0,0,0,0,0,0,0,0,0,0,0,0,0,0,0,0,0,0,0,0,0,0,0,0,0,0,0,0,0,0,0,0,0,0,0,0,0,0,0,0,0,0,
0,0,0,0,0,0,0,0,0,0,0,0,0,0,0,0,0,0,0,0,0,0,0,0,0,0,0,0,0,0,0,0,0,0,0,0,0,0,0,0,0,0,0,0,0,0,0,0,0,0,0,0,0,0,0,0,0,0,0,0,0,0,0,0,0,0,0,0,0,0,0,0,0,0,0,0,0,0,0,0,0,0,0,0,0,0,0,0,0,0,0,0,0,0,0,0,0,0,0,0,0,0,0,0,0,0,0,0,0,0,0,0,0,0,0,0,0,0,0,0,0,0,0,0,0,0,0,0,
0,0,0,0,0,0,0,0,0,0,0,0,0,0,0,0,0,0,0,0,0,0,0,0,0,0,0,0,0,0,0,0,0,0,0,0,0,0,0,0,0,0,0,0,0,0,0,0,0,0,0,0,0,0,0,0,0,0,0,0,0,0,0,0,0,0,0,0,0,0,0,0,0,0,0,0,0,0,0,0,0,0,0,0,0,0,0,0,0,0,0,0,0,0,0,0,0,0,0,0,0,0,0,0,0,0,0,0,0,0,0,0,0,0,0,0,0,0,0,0,0,0,0,0,0,0,0,0,
0,0,0,0,0,0,0,0,0,0,0,0,0,0,0,0,0,0,0,0,0,0,0,0,0,0,0,0,0,0,0,0,0,0,0,0,0,0,0,0,0,0,0,0,0,0,0,0,0,0,0,0,0,0,0,0,0,0,0,0,0,0,0,0,0,0,0,0,0,0,0,0,0,0,0,0,0,0,0,0,0,0,0,0,0,0,0,0,0,0,0,0,0,0,0,0,0,0,0,0,0,0,0,0,0,0,0,0,0,0,0,0,0,0,0,0,0,0,0,0,0,0,0,0,0,0,0,0,
0,0,0,0,0,0,0,0,0,0,0,0,0,0,0,0,0,0,0,0,0,0,0,0,0,0,0,0,0,0,0,0,0,0,0,0,0,0,0,0,0,0,0,0,0,0,0,0,0,0,0,0,0,0,0,0,0,0,0,0,0,0,0,0,0,0,0,0,0,0,0,0,0,0,0,0,0,0,0,0,0,0,0,0,0,0,0,0,0,0,0,0,0,0,0,0,0,0,0,0,0,0,0,0,0,0,0,0,0,0,0,0,0,0,0,0,0,0,0,0,0,0,0,0,0,0,0,0,
0,0,0,0,0,0,0,0,0,0,0,0,0,0,0,0,0,0,0,0,0,0,0,0,0,0,0,0,0,0,0,0,0,0,0,0,0,0,0,0,0,0,0,0,0,0,0,0,0,0,0,0,0,0,0,0,0,0,0,0,0,0,0,0,0,0,0,0,0,0,0,0,0,0,0,0,0,0,0,0,0,0,0,0,0,0,0,0,0,0,0,0,0,0,0,0,0,0,0,0,0,0,0,0,0,0,0,0,0,0,0,0,0,0,0,0,0,0,0,0,0,0,0,0,0,0,0,0,
0,0,0,0,0,0,0,0,0,0,0,0,0,0,0,0,0,0,0,0,0,0,0,0,0,0,0,0,0,0,0,0,0,0,0,0,0,0,0,0,0,0,0,0,0,0,0,0,0,0,0,0,0,0,0,0,0,0,0,0,0,0,0,0,0,0,0,0,0,0,0,0,0,0,0,0,0,0,0,0,0,0,0,0,0,0,0,0,0,0,0,0,0,0,0,0,0,0,0,0,0,0,0,0,0,0,0,0,0,0,0,0,0,0,0,0,0,0,0,0,0,0,0,0,0,0,0,0,
0,0,0,0,0,0,0,0,0,0,0,0,0,0,0,0,0,0,0,0,0,0,0,0,0,0,0,0,0,0,0,0,0,0,0,0,0,0,0,0,0,0,0,0,0,0,0,0,0,0,0,0,0,0,0,0,0,0,0,0,0,0,0,0,0,0,0,0,0,0,0,0,0,0,0,0,0,0,0,0,0,0,0,0,0,0,0,0,0,0,0,0,0,0,0,0,0,0,0,0,0,0,0,0,0,0,0,0,0,0,0,0,0,0,0,0,0,0,0,0,0,0,0,0,0,0,0,0,
0,0,0,0,0,0,0,0,0,0,0,0,0,0,0,0,0,0,0,0,0,0,0,0,0,0,0,0,0,0,0,0,0,0,0,0,0,0,0,0,0,0,0,0,0,0,0,0,0,0,0,0,0,0,0,0,0,0,0,0,0,0,0,0,0,0,0,0,0,0,0,0,0,0,0,0,0,0,0,0,0,0,0,0,0,0,0,0,0,0,0,0,0,0,0,0,0,0,0,0,0,0,0,0,0,0,0,0,0,0,0,0,0,0,0,0,0,0,0,0,0,0,0,0,0,0,0,0,
0,0,0,0,0,0,0,0,0,0,0,0,0,0,0,0,0,0,0,0,0,0,0,0,0,0,0,0,0,0,0,0,0,0,0,0,0,0,0,0,0,0,0,0,0,0,0,0,0,0,0,0,0,0,0,0,0,0,0,0,0,0,0,0,0,0,0,0,0,0,0,0,0,0,0,0,0,0,0,0,0,0,0,0,0,0,0,0,0,0,0,0,0,0,0,0,0,0,0,0,0,0,0,0,0,0,0,0,0,0,0,0,0,0,0,0,0,0,0,0,0,0,0,0,0,0,0,0,
0,0,0,0,0,0,0,0,0,0,0,0,0,0,0,0,0,0,0,0,0,0,0,0,0,0,0,0,0,0,0,0,0,0,0,0,0,0,0,0,0,0,0,0,0,0,0,0,0,0,0,0,0,0,0,0,0,0,0,0,0,0,0,0,0,0,0,0,0,0,0,0,0,0,0,0,0,0,0,0,0,0,0,0,0,0,0,0,0,0,0,0,0,0,0,0,0,0,0,0,0,0,0,0,0,0,0,0,0,0,0,0,0,0,0,0,0,0,0,0,0,0,0,0,0,0,0,0,
0,0,0,0,0,0,0,0,0,0,0,0,0,0,0,0,0,0,0,0,0,0,0,0,0,0,0,0,0,0,0,0,0,0,0,0,0,0,0,0,0,0,0,0,0,0,0,0,0,0,0,0,0,0,0,0,0,0,0,0,0,0,0,0,0,0,0,0,0,0,0,0,0,0,0,0,0,0,0,0,0,0,0,0,0,0,0,0,0,0,0,0,0,0,0,0,0,0,0,0,0,0,0,0,0,0,0,0,0,0,0,0,0,0,0,0,0,0,0,0,0,0,0,0,0,0,0,0,
0,0,0,0,0,0,0,0,0,0,0,0,0,0,0,0,0,0,0,0,0,0,0,0,0,0,0,0,0,0,0,0,0,0,0,0,0,0,0,0,0,0,0,0,0,0,0,0,0,0,0,0,0,0,0,0,0,0,0,0,0,0,0,0,0,0,0,0,0,0,0,0,0,0,0,0,0,0,0,0,0,0,0,0,0,0,0,0,0,0,0,0,0,0,0,0,0,0,0,0,0,0,0,0,0,0,0,0,0,0,0,0,0,0,0,0,0,0,0,0,0,0,0,0,0,0,0,0,
0,0,0,0,0,0,0,0,0,0,0,0,0,0,0,0,0,0,0,0,0,0,0,0,0,0,0,0,0,0,0,0,0,0,0,0,0,0,0,0,0,0,0,0,0,0,0,0,0,0,0,0,0,0,0,0,0,0,0,0,0,0,0,0,0,0,0,0,0,0,0,0,0,0,0,0,0,0,0,0,0,0,0,0,0,0,0,0,0,0,0,0,0,0,0,0,0,0,0,0,0,0,0,0,0,0,0,0,0,0,0,0,0,0,0,0,0,0,0,0,0,0,0,0,0,0,0,0,
0,0,0,0,0,0,0,0,0,0,0,0,0,0,0,0,0,0,0,0,0,0,0,0,0,0,0,0,0,0,0,0,0,0,0,0,0,0,0,0,0,0,0,0,0,0,0,0,0,0,0,0,0,0,0,0,0,0,0,0,0,0,0,0,0,0,0,0,0,0,0,0,0,0,0,0,0,0,0,0,0,0,0,0,0,0,0,0,0,0,0,0,0,0,0,0,0,0,0,0,0,0,0,0,0,0,0,0,0,0,0,0,0,0,0,0,0,0,0,0,0,0,0,0,0,0,0,0,
0,0,0,0,0,0,0,0,0,0,0,0,0,0,0,0,0,0,0,0,0,0,0,0,0,0,0,0,0,0,0,0,0,0,0,0,0,0,0,0,0,0,0,0,0,0,0,0,0,0,0,0,0,0,0,0,0,0,0,0,0,0,0,0,0,0,0,0,0,0,0,0,0,0,0,0,0,0,0,0,0,0,0,0,0,0,0,0,0,0,0,0,0,0,0,0,0,0,0,0,0,0,0,0,0,0,0,0,0,0,0,0,0,0,0,0,0,0,0,0,0,0,0,0,0,0,0,0,
0,0,0,0,0,0,0,0,0,0,0,0,0,0,0,0,0,0,0,0,0,0,0,0,0,0,0,0,0,0,0,0,0,0,0,0,0,0,0,0,0,0,0,0,0,0,0,0,0,0,0,0,0,0,0,0,0,0,0,0,0,0,0,0,0,0,0,0,0,0,0,0,0,0,0,0,0,0,0,0,0,0,0,0,0,0,0,0,0,0,0,0,0,0,0,0,0,0,0,0,0,0,0,0,0,0,0,0,0,0,0,0,0,0,0,0,0,0,0,0,0,0,0,0,0,0,0,0,
0,0,0,0,0,0,0,0,0,0,0,0,0,0,0,0,0,0,0,0,0,0,0,0,0,0,0,0,0,0,0,0,0,0,0,0,0,0,0,0,0,0,0,0,0,0,0,0,0,0,0,0,0,0,0,0,0,0,0,0,0,0,0,0,0,0,0,0,0,0,0,0,0,0,0,0,0,0,0,0,0,0,0,0,0,0,0,0,0,0,0,0,0,0,0,0,0,0,0,0,0,0,0,0,0,0,0,0,0,0,0,0,0,0,0,0,0,0,0,0,0,0,0,0,0,0,0,0,
0,0,0,0,0,0,0,0,0,0,0,0,0,0,0,0,0,0,0,0,0,0,0,0,0,0,0,0,0,0,0,0,0,0,0,0,0,0,0,0,0,0,0,0,0,0,0,0,0,0,0,0,0,0,0,0,0,0,0,0,0,0,0,0,0,0,0,0,0,0,0,0,0,0,0,0,0,0,0,0,0,0,0,0,0,0,0,0,0,0,0,0,0,0,0,0,0,0,0,0,0,0,0,0,0,0,0,0,0,0,0,0,0,0,0,0,0,0,0,0,0,0,0,0,0,0,0,0,
0,0,0,0,0,0,0,0,0,0,0,0,0,0,0,0,0,0,0,0,0,0,0,0,0,0,0,0,0,0,0,0,0,0,0,0,0,0,0,0,0,0,0,0,0,0,0,0,0,0,0,0,0,0,0,0,0,0,0,0,0,0,0,0,0,0,0,0,0,0,0,0,0,0,0,0,0,0,0,0,0,0,0,0,0,0,0,0,0,0,0,0,0,0,0,0,0,0,0,0,0,0,0,0,0,0,0,0,0,0,0,0,0,0,0,0,0,0,0,0,0,0,0,0,0,0,0,0,
0,0,0,0,0,0,0,0,0,0,0,0,0,0,0,0,0,0,0,0,0,0,0,0,0,0,0,0,0,0,0,0,0,0,0,0,0,0,0,0,0,0,0,0,0,0,0,0,0,0,0,0,0,0,0,0,0,0,0,0,0,0,0,0,0,0,0,0,0,0,0,0,0,0,0,0,0,0,0,0,0,0,0,0,0,0,0,0,0,0,0,0,0,0,0,0,0,0,0,0,0,0,0,0,0,0,0,0,0,0,0,0,0,0,0,0,0,0,0,0,0,0,0,0,0,0,0,0,
0,0,0,0,0,0,0,0,0,0,0,0,0,0,0,0,0,0,0,0,0,0,0,0,0,0,0,0,0,0,0,0,0,0,0,0,0,0,0,0,0,0,0,0,0,0,0,0,0,0,0,0,0,0,0,0,0,0,0,0,0,0,0,0,0,0,0,0,0,0,0,0,0,0,0,0,0,0,0,0,0,0,0,0,0,0,0,0,0,0,0,0,0,0,0,0,0,0,0,0,0,0,0,0,0,0,0,0,0,0,0,0,0,0,0,0,0,0,0,0,0,0,0,0,0,0,0,0,
0,0,0,0,0,0,0,0,0,0,0,0,0,0,0,0,0,0,0,0,0,0,0,0,0,0,0,0,0,0,0,0,0,0,0,0,0,0,0,0,0,0,0,0,0,0,0,0,0,0,0,0,0,0,0,0,0,0,0,0,0,0,0,0,0,0,0,0,0,0,0,0,0,0,0,0,0,0,0,0,0,0,0,0,0,0,0,0,0,0,0,0,0,0,0,0,0,0,0,0,0,0,0,0,0,0,0,0,0,0,0,0,0,0,0,0,0,0,0,0,0,0,0,0,0,0,0,0,
0,0,0,0,0,0,0,0,0,0,0,0,0,0,0,0,0,0,0,0,0,0,0,0,0,0,0,0,0,0,0,0,0,0,0,0,0,0,0,0,0,0,0,0,0,0,0,0,0,0,0,0,0,0,0,0,0,0,0,0,0,0,0,0,0,0,0,0,0,0,0,0,0,0,0,0,0,0,0,0,0,0,0,0,0,0,0,0,0,0,0,0,0,0,0,0,0,0,0,0,0,0,0,0,0,0,0,0,0,0,0,0,0,0,0,0,0,0,0,0,0,0,0,0,0,0,0,0,
0,0,0,0,0,0,0,0,0,0,0,0,0,0,0,0,0,0,0,0,0,0,0,0,0,0,0,0,0,0,0,0,0,0,0,0,0,0,0,0,0,0,0,0,0,0,0,0,0,0,0,0,0,0,0,0,0,0,0,0,0,0,0,0,0,0,0,0,0,0,0,0,0,0,0,0,0,0,0,0,0,0,0,0,0,0,0,0,0,0,0,0,0,0,0,0,0,0,0,0,0,0,0,0,0,0,0,0,0,0,0,0,0,0,0,0,0,0,0,0,0,0,0,0,0,0,0,0,
0,0,0,0,0,0,0,0,0,0,0,0,0,0,0,0,0,0,0,0,0,0,0,0,0,0,0,0,0,0,0,0,0,0,0,0,0,0,0,0,0,0,0,0,0,0,0,0,0,0,0,0,0,0,0,0,0,0,0,0,0,0,0,0,0,0,0,0,0,0,0,0,0,0,0,0,0,0,0,0,0,0,0,0,0,0,0,0,0,0,0,0,0,0,0,0,0,0,0,0,0,0,0,0,0,0,0,0,0,0,0,0,0,0,0,0,0,0,0,0,0,0,0,0,0,0,0,0,
0,0,0,0,0,0,0,0,0,0,0,0,0,0,0,0,0,0,0,0,0,0,0,0,0,0,0,0,0,0,0,0,0,0,0,0,0,0,0,0,0,0,0,0,0,0,0,0,0,0,0,0,0,0,0,0,0,0,0,0,0,0,0,0,0,0,0,0,0,0,0,0,0,0,0,0,0,0,0,0,0,0,0,0,0,0,0,0,0,0,0,0,0,0,0,0,0,0,0,0,0,0,0,0,0,0,0,0,0,0,0,0,0,0,0,0,0,0,0,0,0,0,0,0,0,0,0,0,
0,0,0,0,0,0,0,0,0,0,0,0,0,0,0,0,0,0,0,0,0,0,0,0,0,0,0,0,0,0,0,0,0,0,0,0,0,0,0,0,0,0,0,0,0,0,0,0,0,0,0,0,0,0,0,0,0,0,0,0,0,0,0,0,0,0,0,0,0,0,0,0,0,0,0,0,0,0,0,0,0,0,0,0,0,0,0,0,0,0,0,0,0,0,0,0,0,0,0,0,0,0,0,0,0,0,0,0,0,0,0,0,0,0,0,0,0,0,0,0,0,0,0,0,0,0,0,0,
0,0,0,0,0,0,0,0,0,0,0,0,0,0,0,0,0,0,0,0,0,0,0,0,0,0,0,0,0,0,0,0,0,0,0,0,0,0,0,0,0,0,0,0,0,0,0,0,0,0,0,0,0,0,0,0,0,0,0,0,0,0,0,0,0,0,0,0,0,0,0,0,0,0,0,0,0,0,0,0,0,0,0,0,0,0,0,0,0,0,0,0,0,0,0,0,0,0,0,0,0,0,0,0,0,0,0,0,0,0,0,0,0,0,0,0,0,0,0,0,0,0,0,0,0,0,0,0,
0,0,0,0,0,0,0,0,0,0,0,0,0,0,0,0,0,0,0,0,0,0,0,0,0,0,0,0,0,0,0,0,0,0,0,0,0,0,0,0,0,0,0,0,0,0,0,0,0,0,0,0,0,0,0,0,0,0,0,0,0,0,0,0,0,0,0,0,0,0,0,0,0,0,0,0,0,0,0,0,0,0,0,0,0,0,0,0,0,0,0,0,0,0,0,0,0,0,0,0,0,0,0,0,0,0,0,0,0,0,0,0,0,0,0,0,0,0,0,0,0,0,0,0,0,0,0,0,
0,0,0,0,0,0,0,0,0,0,0,0,0,0,0,0,0,0,0,0,0,0,0,0,0,0,0,0,0,0,0,0,0,0,0,0,0,0,0,0,0,0,0,0,0,0,0,0,0,0,0,0,0,0,0,0,0,0,0,0,0,0,0,0,0,0,0,0,0,0,0,0,0,0,0,0,0,0,0,0,0,0,0,0,0,0,0,0,0,0,0,0,0,0,0,0,0,0,0,0,0,0,0,0,0,0,0,0,0,0,0,0,0,0,0,0,0,0,0,0,0,0,0,0,0,0,0,0,
0,0,0,0,0,0,0,0,0,0,0,0,0,0,0,0,0,0,0,0,0,0,0,0,0,0,0,0,0,0,0,0,0,0,0,0,0,0,0,0,0,0,0,0,0,0,0,0,0,0,0,0,0,0,0,0,0,0,0,0,0,0,0,0,0,0,0,0,0,0,0,0,0,0,0,0,0,0,0,0,0,0,0,0,0,0,0,0,0,0,0,0,0,0,0,0,0,0,0,0,0,0,0,0,0,0,0,0,0,0,0,0,0,0,0,0,0,0,0,0,0,0,0,0,0,0,0,0,
0,0,0,0,0,0,0,0,0,0,0,0,0,0,0,0,0,0,0,0,0,0,0,0,0,0,0,0,0,0,0,0,0,0,0,0,0,0,0,0,0,0,0,0,0,0,0,0,0,0,0,0,0,0,0,0,0,0,0,0,0,0,0,0,0,0,0,0,0,0,0,0,0,0,0,0,0,0,0,0,0,0,0,0,0,0,0,0,0,0,0,0,0,0,0,0,0,0,0,0,0,0,0,0,0,0,0,0,0,0,0,0,0,0,0,0,0,0,0,0,0,0,0,0,0,0,0,0,
0,0,0,0,0,0,0,0,0,0,0,0,0,0,0,0,0,0,0,0,0,0,0,0,0,0,0,0,0,0,0,0,0,0,0,0,0,0,0,0,0,0,0,0,0,0,0,0,0,0,0,0,0,0,0,0,0,0,0,0,0,0,0,0,0,0,0,0,0,0,0,0,0,0,0,0,0,0,0,0,0,0,0,0,0,0,0,0,0,0,0,0,0,0,0,0,0,0,0,0,0,0,0,0,0,0,0,0,0,0,0,0,0,0,0,0,0,0,0,0,0,0,0,0,0,0,0,0,
0,0,0,0,0,0,0,0,0,0,0,0,0,0,0,0,0,0,0,0,0,0,0,0,0,0,0,0,0,0,0,0,0,0,0,0,0,0,0,0,0,0,0,0,0,0,0,0,0,0,0,0,0,0,0,0,0,0,0,0,0,0,0,0,0,0,0,0,0,0,0,0,0,0,0,0,0,0,0,0,0,0,0,0,0,0,0,0,0,0,0,0,0,0,0,0,0,0,0,0,0,0,0,0,0,0,0,0,0,0,0,0,0,0,0,0,0,0,0,0,0,0,0,0,0,0,0,0,
0,0,0,0,0,0,0,0,0,0,0,0,0,0,0,0,0,0,0,0,0,0,0,0,0,0,0,0,0,0,0,0,0,0,0,0,0,0,0,0,0,0,0,0,0,0,0,0,0,0,0,0,0,0,0,0,0,0,0,0,0,0,0,0,0,0,0,0,0,0,0,0,0,0,0,0,0,0,0,0,0,0,0,0,0,0,0,0,0,0,0,0,0,0,0,0,0,0,0,0,0,0,0,0,0,0,0,0,0,0,0,0,0,0,0,0,0,0,0,0,0,0,0,0,0,0,0,0,
0,0,0,0,0,0,0,0,0,0,0,0,0,0,0,0,0,0,0,0,0,0,0,0,0,0,0,0,0,0,0,0,0,0,0,0,0,0,0,0,0,0,0,0,0,0,0,0,0,0,0,0,0,0,0,0,0,0,0,0,0,0,0,0,0,0,0,0,0,0,0,0,0,0,0,0,0,0,0,0,0,0,0,0,0,0,0,0,0,0,0,0,0,0,0,0,0,0,0,0,0,0,0,0,0,0,0,0,0,0,0,0,0,0,0,0,0,0,0,0,0,0,0,0,0,0,0,0,
0,0,0,0,0,0,0,0,0,0,0,0,0,0,0,0,0,0,0,0,0,0,0,0,0,0,0,0,0,0,0,0,0,0,0,0,0,0,0,0,0,0,0,0,0,0,0,0,0,0,0,0,0,0,0,0,0,0,0,0,0,0,0,0,0,0,0,0,0,0,0,0,0,0,0,0,0,0,0,0,0,0,0,0,0,0,0,0,0,0,0,0,0,0,0,0,0,0,0,0,0,0,0,0,0,0,0,0,0,0,0,0,0,0,0,0,0,0,0,0,0,0,0,0,0,0,0,0
</data>
 </layer>
</map>
