<?xml version="1.0" encoding="UTF-8"?>
<map version="1.10" tiledversion="1.12.2" orientation="orthogonal" renderorder="right-down" width="40" height="40" tilewidth="16" tileheight="16" infinite="0" nextlayerid="7" nextobjectid="1">
 <tileset firstgid="1" source="../tsx/mainlevbuild.tsx"/>
 <tileset firstgid="1703" source="../tsx/decorative.tsx"/>
 <layer id="2" name="tiles" width="40" height="40" locked="1">
  <data encoding="csv">
1481,1482,1483,1484,1481,1482,1483,1484,1481,1482,1483,1484,1481,1482,1483,1484,1481,1482,1483,1484,1481,1482,1483,1484,1481,1482,1483,1484,1481,1482,1483,1484,1481,1482,1483,1484,1481,1482,1483,1484,
1518,1519,1520,1521,1518,1519,1520,1521,1518,1519,1520,1521,1518,1519,1520,1521,1518,1519,1520,1521,1518,1519,1520,1521,1518,1519,1520,1521,1518,1519,1520,1521,1518,1519,1520,1521,1518,1519,1520,1521,
1555,1556,1557,1558,1555,1556,1557,1558,1555,1556,1557,1558,1555,1556,1557,1558,1555,1556,1557,1558,1555,1556,1557,1558,1555,1556,1557,1558,1555,1556,1557,1558,1555,1556,1557,1558,1555,1556,1557,1558,
1592,1593,1594,1595,1592,1593,1594,1595,1592,1593,1594,1595,1592,1593,1594,1595,1592,1593,1594,1595,1592,1593,1594,1595,1592,1593,1594,1595,1592,1593,1594,1595,1592,1593,1594,1595,1592,1593,1594,1595,
1481,1482,1483,1484,1481,1482,1483,1484,1481,1482,1483,1484,1481,1482,1483,1484,1481,1482,1483,1484,1481,1482,1483,1484,1481,1482,1483,1484,1481,1482,1483,1484,1481,1482,1483,1484,1481,1482,1483,1484,
1518,1519,1520,1521,1518,1519,1520,1521,1518,1519,1520,1521,1518,1519,1520,1521,1518,1519,1520,1521,1518,1519,1520,1521,1518,1519,1520,1521,1518,1519,1520,1521,1518,1519,1520,1521,1518,1519,1520,1521,
1555,1556,1557,1558,1555,1556,1557,1558,1555,1556,1557,1558,1555,1556,1557,1558,1555,1556,1557,1558,1555,1556,1557,1558,1555,1556,1557,1558,1555,1556,1557,1558,1555,1556,1557,1558,1555,1556,1557,1558,
1592,1593,1594,1595,1592,1593,1594,1595,1592,1593,1594,1595,1592,1593,1594,1595,1592,1593,1594,1595,1592,1593,1594,1595,1592,1593,1594,1595,1592,1593,1594,1595,1592,1593,1594,1595,1592,1593,1594,1595,
1481,1482,1483,1484,1481,1482,1483,1484,1481,1482,1483,1484,1481,1482,1483,1484,1481,1482,1483,1484,1481,1482,1483,1484,1481,1482,1483,1484,1481,1482,1483,1484,1481,1482,1483,1484,1481,1482,1483,1484,
1518,1519,1520,1521,1518,1519,1520,1521,1518,1519,1520,1521,1518,1519,1520,1521,1518,1519,1520,1521,1518,1519,1520,1521,1518,1519,1520,1521,1518,1519,1520,1521,1518,1519,1520,1521,1518,1519,1520,1521,
1555,1556,1557,1558,1555,1556,1557,1558,1555,1556,1557,1558,1555,1556,1557,1558,1555,1556,1557,1558,1555,1556,1557,1558,1555,1556,1557,1558,1555,1556,1557,1558,1555,1556,1557,1558,1555,1556,1557,1558,
1592,1593,1594,1595,1592,1593,1594,1595,1592,1593,1594,1595,1592,1593,1594,1595,1592,1593,1594,1595,1592,1593,1594,1595,1592,1593,1594,1595,1592,1593,1594,1595,1592,1593,1594,1595,1592,1593,1594,1595,
1481,1482,1483,1484,1481,1482,1483,1484,1481,1482,1483,1484,1481,1482,1483,1484,1481,1482,1483,1484,1481,1482,1483,1484,1481,1482,1483,1484,1481,1482,1483,1484,1481,1482,1483,1484,1481,1482,1483,1484,
1518,1519,1520,1521,1518,1519,1520,1521,1518,1519,1520,1521,1518,1519,1520,1521,1518,1519,1520,1521,1518,1519,1520,1521,1518,1519,1520,1521,1518,1519,1520,1521,1518,1519,1520,1521,1518,1519,1520,1521,
1555,1556,1557,1558,1555,1556,1557,1558,1555,1556,1557,1558,1555,1556,1557,1558,1555,1556,1557,1558,1555,1556,1557,1558,1555,1556,1557,1558,1555,1556,1557,1558,1555,1556,1557,1558,1555,1556,1557,1558,
1592,1593,1594,1595,1592,1593,1594,1595,1592,1593,1594,1595,1592,1593,1594,1595,1592,1593,1594,1595,1592,1593,1594,1595,1592,1593,1594,1595,1592,1593,1594,1595,1592,1593,1594,1595,1592,1593,1594,1595,
1481,1482,1483,1484,1481,1482,1483,1484,1481,1482,1483,1484,1481,1482,1483,1484,1481,1482,1483,1484,1481,1482,1483,1484,1481,1482,1483,1484,1481,1482,1483,1484,1481,1482,1483,1484,1481,1482,1483,1484,
1518,1519,1520,1521,1518,1519,1520,1521,1518,1519,1520,1521,1518,1519,1520,1521,1518,1519,1520,1521,1518,1519,1520,1521,1518,1519,1520,1521,1518,1519,1520,1521,1518,1519,1520,1521,1518,1519,1520,1521,
1555,1556,1557,1558,1555,1556,1557,1558,1555,1556,1557,1558,1555,1556,1557,1558,1555,1556,1557,1558,1555,1556,1557,1558,1555,1556,1557,1558,1555,1556,1557,1558,1555,1556,1557,1558,1555,1556,1557,1558,
1592,1593,1594,1595,1592,1593,1594,1595,1592,1593,1594,1595,1592,1593,1594,1595,1592,1593,1594,1595,1592,1593,1594,1595,1592,1593,1594,1595,1592,1593,1594,1595,1592,1593,1594,1595,1592,1593,1594,1595,
1481,1482,1483,1484,1481,1482,1483,1484,1481,1482,1483,1484,1481,1482,1483,1484,1481,1482,1483,1484,1481,1482,1483,1484,1481,1482,1483,1484,1481,1482,1483,1484,1481,1482,1483,1484,1481,1482,1483,1484,
1518,1519,1520,1521,1518,1519,1520,1521,1518,1519,1520,1521,1518,1519,1520,1521,1518,1519,1520,1521,1518,1519,1520,1521,1518,1519,1520,1521,1518,1519,1520,1521,1518,1519,1520,1521,1518,1519,1520,1521,
1555,1556,1557,1558,1555,1556,1557,1558,1555,1556,1557,1558,1555,1556,1557,1558,1555,1556,1557,1558,1555,1556,1557,1558,1555,1556,1557,1558,1555,1556,1557,1558,1555,1556,1557,1558,1555,1556,1557,1558,
1592,1593,1594,1595,1592,1593,1594,1595,1592,1593,1594,1595,1592,1593,1594,1595,1592,1593,1594,1595,1592,1593,1594,1595,1592,1593,1594,1595,1592,1593,1594,1595,1592,1593,1594,1595,1592,1593,1594,1595,
1481,1482,1483,1484,1481,1482,1483,1484,1481,1482,1483,1484,1481,1482,1483,1484,1481,1482,1483,1484,1481,1482,1483,1484,1481,1482,1483,1484,1481,1482,1483,1484,1481,1482,1483,1484,1481,1482,1483,1484,
1518,1519,1520,1521,1518,1519,1520,1521,1518,1519,1520,1521,1518,1519,1520,1521,1518,1519,1520,1521,1518,1519,1520,1521,1518,1519,1520,1521,1518,1519,1520,1521,1518,1519,1520,1521,1518,1519,1520,1521,
1555,1556,1557,1558,1555,1556,1557,1558,1555,1556,1557,1558,1555,1556,1557,1558,1555,1556,1557,1558,1555,1556,1557,1558,1555,1556,1557,1558,1555,1556,1557,1558,1555,1556,1557,1558,1555,1556,1557,1558,
1592,1593,1594,1595,1592,1593,1594,1595,1592,1593,1594,1595,1592,1593,1594,1595,1592,1593,1594,1595,1592,1593,1594,1595,1592,1593,1594,1595,1592,1593,1594,1595,1592,1593,1594,1595,1592,1593,1594,1595,
1481,1482,1483,1484,1481,1482,1483,1484,1481,1482,1483,1484,1481,1482,1483,1484,1481,1482,1483,1484,1481,1482,1483,1484,1481,1482,1483,1484,1481,1482,1483,1484,1481,1482,1483,1484,1481,1482,1483,1484,
1518,1519,1520,1521,1518,1519,1520,1521,1518,1519,1520,1521,1518,1519,1520,1521,1518,1519,1520,1521,1518,1519,1520,1521,1518,1519,1520,1521,1518,1519,1520,1521,1518,1519,1520,1521,1518,1519,1520,1521,
1555,1556,1557,1558,1555,1556,1557,1558,1555,1556,1557,1558,1555,1556,1557,1558,1555,1556,1557,1558,1555,1556,1557,1558,1555,1556,1557,1558,1555,1556,1557,1558,1555,1556,1557,1558,1555,1556,1557,1558,
1592,1593,1594,1595,1592,1593,1594,1595,1592,1593,1594,1595,1592,1593,1594,1595,1592,1593,1594,1595,1592,1593,1594,1595,1592,1593,1594,1595,1592,1593,1594,1595,1592,1593,1594,1595,1592,1593,1594,1595,
1481,1482,1483,1484,1481,1482,1483,1484,1481,1482,1483,1484,1481,1482,1483,1484,1481,1482,1483,1484,1481,1482,1483,1484,1481,1482,1483,1484,1481,1482,1483,1484,1481,1482,1483,1484,1481,1482,1483,1484,
1518,1519,1520,1521,1518,1519,1520,1521,1518,1519,1520,1521,1518,1519,1520,1521,1518,1519,1520,1521,1518,1519,1520,1521,1518,1519,1520,1521,1518,1519,1520,1521,1518,1519,1520,1521,1518,1519,1520,1521,
1555,1556,1557,1558,1555,1556,1557,1558,1555,1556,1557,1558,1555,1556,1557,1558,1555,1556,1557,1558,1555,1556,1557,1558,1555,1556,1557,1558,1555,1556,1557,1558,1555,1556,1557,1558,1555,1556,1557,1558,
1592,1593,1594,1595,1592,1593,1594,1595,1592,1593,1594,1595,1592,1593,1594,1595,1592,1593,1594,1595,1592,1593,1594,1595,1592,1593,1594,1595,1592,1593,1594,1595,1592,1593,1594,1595,1592,1593,1594,1595,
1481,1482,1483,1484,1481,1482,1483,1484,1481,1482,1483,1484,1481,1482,1483,1484,1481,1482,1483,1484,1481,1482,1483,1484,1481,1482,1483,1484,1481,1482,1483,1484,1481,1482,1483,1484,1481,1482,1483,1484,
1518,1519,1520,1521,1518,1519,1520,1521,1518,1519,1520,1521,1518,1519,1520,1521,1518,1519,1520,1521,1518,1519,1520,1521,1518,1519,1520,1521,1518,1519,1520,1521,1518,1519,1520,1521,1518,1519,1520,1521,
1555,1556,1557,1558,1555,1556,1557,1558,1555,1556,1557,1558,1555,1556,1557,1558,1555,1556,1557,1558,1555,1556,1557,1558,1555,1556,1557,1558,1555,1556,1557,1558,1555,1556,1557,1558,1555,1556,1557,1558,
1592,1593,1594,1595,1592,1593,1594,1595,1592,1593,1594,1595,1592,1593,1594,1595,1592,1593,1594,1595,1592,1593,1594,1595,1592,1593,1594,1595,1592,1593,1594,1595,1592,1593,1594,1595,1592,1593,1594,1595
</data>
 </layer>
 <layer id="4" name="darkness" width="40" height="40" locked="1">
  <data encoding="csv">
82,82,82,82,82,82,82,82,82,82,82,82,82,82,82,82,82,82,82,82,82,82,82,82,82,82,82,82,82,82,82,82,82,82,82,82,82,82,82,45,
83,0,0,0,0,0,0,0,0,0,0,0,0,0,0,0,0,0,0,0,0,0,0,0,0,0,0,0,0,0,0,0,0,0,0,0,0,0,0,45,
83,0,0,0,0,0,0,0,0,0,0,0,0,0,0,0,0,0,0,0,0,0,0,0,0,0,0,0,0,0,0,0,0,0,0,0,0,0,0,45,
83,0,0,0,0,0,0,0,0,0,0,0,0,0,0,0,0,0,0,0,0,0,0,0,0,0,0,0,0,0,0,0,0,0,0,0,0,0,0,45,
83,0,0,0,0,0,0,0,0,0,0,0,0,0,0,0,0,0,0,0,0,0,0,0,0,0,0,0,0,0,0,0,0,0,0,0,0,0,0,45,
83,0,0,0,0,0,0,0,0,0,0,0,0,0,0,0,0,0,0,0,0,0,0,0,0,0,0,0,0,0,0,0,0,0,0,0,0,0,0,45,
83,0,0,0,0,0,0,0,0,0,0,0,0,0,0,0,0,0,0,0,0,0,0,0,0,0,0,0,0,0,0,0,0,0,0,0,0,0,0,45,
83,0,0,0,0,0,0,0,0,0,0,0,0,0,0,0,0,0,0,0,0,0,0,0,0,0,0,0,0,0,0,0,0,0,0,0,0,0,0,45,
83,0,0,0,0,0,0,0,0,0,0,0,0,0,0,0,0,0,0,0,0,0,0,0,0,0,0,0,0,0,0,0,0,0,0,0,0,0,0,45,
83,0,0,0,0,0,0,0,0,0,0,0,0,0,0,0,0,0,0,0,0,0,0,0,0,0,0,0,0,0,0,0,0,0,0,0,0,0,0,82,
83,0,0,0,0,0,0,0,0,0,0,0,0,0,0,0,0,0,0,0,0,0,0,0,0,0,0,0,0,0,0,0,0,0,0,0,0,0,0,45,
83,0,0,0,0,0,0,0,0,0,0,0,0,0,0,0,0,0,0,0,0,0,0,0,0,0,0,0,0,0,0,0,0,0,0,0,0,0,0,45,
83,0,0,0,0,0,0,0,0,0,0,0,0,0,0,0,0,0,0,0,0,0,0,0,0,0,0,0,0,0,0,0,0,0,0,0,0,0,0,45,
83,0,0,0,0,0,0,0,0,0,0,0,0,0,0,0,0,0,0,0,0,0,0,0,0,0,0,0,0,0,0,0,0,0,0,0,0,0,0,45,
83,0,0,0,0,0,0,0,0,0,0,0,0,0,0,0,0,0,0,0,0,0,0,0,0,0,0,0,0,0,0,0,0,0,0,0,0,0,0,45,
83,0,0,0,0,0,0,0,0,0,0,0,0,0,0,0,0,0,0,0,0,0,0,0,0,0,0,0,0,0,0,0,0,0,0,0,0,0,0,45,
83,0,0,0,0,0,0,0,0,0,0,0,0,0,0,0,0,0,0,0,0,0,0,0,0,0,0,0,0,0,0,0,0,0,0,0,0,0,0,45,
83,0,0,0,0,0,0,0,0,0,0,0,0,0,0,0,0,0,0,0,0,0,0,0,0,0,0,0,0,0,0,0,0,0,0,0,0,0,0,45,
83,1341,1342,0,0,0,0,0,0,0,0,0,0,0,0,0,0,0,0,0,0,0,0,0,0,0,0,0,0,0,0,0,0,0,0,0,0,1341,1342,46,
45,1341,1342,0,0,0,0,0,0,0,0,0,0,0,0,0,0,0,0,0,0,0,0,0,0,0,0,0,0,0,0,0,0,0,0,0,0,1341,1342,83,
45,1378,1379,0,0,0,0,0,0,0,0,0,0,0,0,0,0,0,0,0,0,0,0,0,0,0,0,0,0,0,0,0,0,0,0,0,0,1378,1379,83,
45,1415,1416,0,0,0,0,0,0,0,0,0,0,0,0,0,0,0,0,0,0,0,0,0,0,0,0,0,0,0,0,0,0,0,0,0,0,1415,1416,46,
45,46,83,0,0,0,0,0,0,0,0,0,0,0,0,0,0,0,0,0,0,0,0,0,0,0,0,0,0,0,0,0,0,0,0,0,0,45,46,46,
45,46,83,0,0,0,0,0,0,0,0,0,0,0,0,0,0,0,0,0,0,0,0,0,0,0,0,0,0,0,0,0,0,0,0,0,0,45,45,46,
45,46,83,0,0,0,0,0,0,0,0,0,0,0,0,0,0,0,0,0,0,0,0,0,0,0,0,0,0,0,0,0,0,0,0,0,0,82,45,46,
45,46,83,0,0,0,0,0,0,0,0,0,0,0,0,0,0,0,0,0,0,0,0,0,0,0,0,0,0,0,0,0,0,0,0,0,45,82,45,46,
45,46,83,0,0,0,0,0,0,0,0,0,0,0,0,0,0,0,0,0,0,0,0,0,0,0,0,0,0,0,0,0,0,0,0,0,82,82,45,46,
45,46,83,0,0,0,0,0,0,0,0,0,0,0,0,0,0,0,0,0,0,0,0,0,0,0,0,0,0,0,0,0,0,0,0,0,82,83,45,46,
45,46,83,0,0,0,0,0,0,0,0,0,0,0,0,0,0,0,0,0,0,0,0,0,0,0,0,0,0,0,0,0,0,0,0,0,82,83,45,45,
45,46,83,0,0,0,0,0,0,0,0,0,0,0,0,0,0,0,0,0,0,0,0,0,0,0,0,0,0,0,0,0,0,0,0,0,0,82,82,45,
45,46,83,0,0,0,0,0,0,0,0,0,0,0,0,0,0,0,0,0,0,0,0,0,0,0,0,0,0,0,0,0,0,0,0,0,0,82,83,45,
45,46,83,1341,1342,1343,1344,1345,1341,1342,1343,1341,1342,1343,1344,1345,0,0,0,0,0,0,0,0,1341,1341,1341,1341,1341,1341,1341,1341,1341,1342,1343,1344,1345,46,46,45,
45,46,46,1341,1342,1343,1344,1345,1343,1344,1345,1341,1342,1343,1344,1345,0,0,0,0,0,0,0,0,1341,1342,1343,1344,1345,1341,1342,1343,1341,1342,1343,1344,1345,83,83,45,
45,46,46,1378,1379,1380,1381,1382,1380,1381,1382,1378,1379,1380,1381,1382,0,0,0,0,0,0,0,0,1378,1379,1380,1381,1382,1378,1379,1380,1378,1379,1380,1381,1382,82,83,82,
82,83,46,1415,1416,1417,1418,1419,1417,1418,1419,1415,1416,1417,1418,1419,0,0,0,0,0,0,0,0,1415,1416,1417,1418,1419,1415,1416,1417,1415,1416,1417,1418,1419,83,45,46,
83,83,46,82,83,82,82,45,82,82,82,45,46,46,45,46,0,0,0,0,0,0,0,0,1415,1416,1417,1418,1419,1415,1416,1417,1415,1416,1417,1418,1419,83,46,46,
82,83,46,82,83,45,46,46,46,46,46,46,46,46,45,46,0,0,0,0,0,0,0,0,45,46,83,83,83,83,83,83,83,83,83,83,83,83,83,46,
82,83,46,82,83,45,46,83,83,83,83,83,83,83,45,46,0,0,0,0,0,0,0,0,45,46,45,45,45,46,46,46,46,46,46,46,46,46,83,46,
82,83,46,82,83,46,46,46,46,46,46,46,46,46,46,46,0,0,0,0,0,0,0,0,45,45,82,45,82,83,83,83,83,83,83,83,83,83,83,46,
82,83,46,82,83,83,83,83,83,83,83,83,83,83,83,83,0,0,0,0,0,0,0,0,82,82,82,82,82,82,82,82,82,82,82,82,82,83,83,83
</data>
 </layer>
 <layer id="1" name="walls" width="40" height="40" locked="1">
  <data encoding="csv">
0,0,0,0,0,0,0,0,0,0,0,0,0,0,0,0,0,0,0,0,0,0,0,0,0,0,0,0,0,0,0,0,0,0,0,0,0,0,0,0,
0,268,267,268,269,270,271,272,273,274,267,268,269,270,1029,1030,273,274,267,268,269,270,271,272,1029,1030,267,268,269,270,271,272,273,274,269,270,271,269,268,0,
0,118,304,304,304,304,304,304,304,304,304,304,304,304,1066,1067,304,304,304,304,304,304,304,305,1066,1067,305,304,304,304,304,304,304,304,304,304,304,305,127,0,
0,118,341,341,341,341,341,341,341,341,341,341,341,341,1103,1104,341,341,341,341,341,341,341,342,1103,1104,342,341,341,341,341,341,341,341,341,341,341,342,127,0,
0,118,341,341,341,341,341,341,341,341,341,341,341,341,1140,1141,341,341,341,341,341,341,341,342,1140,1141,341,341,341,341,341,341,341,341,341,341,341,342,127,0,
0,118,341,342,342,342,342,342,342,342,342,342,342,342,1103,1104,378,378,378,378,378,378,378,379,1103,1104,378,378,378,378,378,378,378,378,378,378,378,379,127,0,
0,118,341,341,341,341,341,341,341,341,341,341,341,341,1103,1104,341,341,341,341,341,341,341,342,1103,1104,341,341,341,341,341,341,341,341,341,341,341,342,127,0,
0,118,378,378,378,378,378,378,378,378,378,378,378,378,1140,1141,378,378,378,378,378,378,378,379,1140,1141,378,378,378,378,378,378,378,378,378,378,378,379,127,0,
0,118,0,0,0,0,0,0,0,0,0,0,0,1176,1177,1178,1179,0,0,0,0,0,0,1176,1177,1178,1179,0,0,0,0,0,0,0,0,0,0,0,127,0,
0,118,0,0,0,0,0,0,0,0,0,0,0,0,0,0,0,0,0,0,0,0,0,0,0,0,0,0,0,0,0,0,0,0,0,0,0,0,127,0,
0,118,0,0,0,0,0,0,0,0,0,0,0,0,0,0,0,0,0,0,0,0,0,0,0,0,0,0,0,0,0,0,0,0,0,0,0,0,127,0,
0,118,0,0,0,0,0,0,0,0,0,0,0,0,0,0,0,0,0,0,0,0,0,0,0,0,0,0,0,0,0,0,0,0,0,0,0,0,127,0,
0,118,0,0,0,0,0,0,0,0,0,0,0,0,0,0,0,0,0,0,0,0,0,0,0,0,0,0,0,0,0,0,0,0,0,0,0,0,127,0,
0,118,0,0,0,0,0,0,0,0,0,0,0,0,0,0,0,0,0,0,0,0,0,0,0,0,0,0,0,0,0,0,0,0,0,0,0,0,127,0,
0,118,0,0,0,0,0,0,0,0,0,0,0,0,0,0,0,0,0,0,0,0,0,0,0,0,0,0,0,0,0,0,0,0,0,0,0,0,127,0,
0,118,0,0,0,0,0,0,0,0,0,0,0,0,0,0,0,0,0,0,0,0,0,0,0,0,0,0,0,0,0,0,0,0,0,0,0,0,127,0,
0,229,0,0,0,0,0,0,0,0,0,0,0,0,0,0,0,0,0,0,0,0,0,0,0,0,0,0,0,0,0,0,0,0,0,0,0,0,127,0,
0,268,268,269,268,269,268,1026,268,269,268,1026,268,269,268,1026,0,0,0,0,0,0,0,0,1026,268,269,268,1026,268,269,268,1026,268,269,268,269,268,268,0,
0,0,0,2147483701,342,2147483989,342,1063,2147483989,2147483989,2147483989,1063,2147483989,2147483989,2147483989,1063,0,0,0,0,0,0,0,0,1063,341,341,341,1063,341,341,341,1063,2147483990,341,2147483990,3221225701,0,0,0,
0,0,0,2147483738,342,2147483989,342,1063,2147483989,2147483989,2147483989,1063,2147483989,2147483989,2147483989,1063,0,0,0,0,0,0,0,0,1063,341,341,341,1063,341,341,341,1063,2147483990,341,2147483990,3221225664,0,0,0,
0,0,0,2147483775,342,2147483989,342,1100,2147483989,2147483989,2147483989,1100,2147483989,2147483989,2147483989,1100,0,0,0,0,0,0,0,0,1100,341,341,341,1100,341,341,341,1100,2147483990,341,2147483990,3221225627,0,0,0,
0,0,0,2147483812,342,2147483989,342,1100,2147483989,2147483989,2147483989,1100,2147483989,2147483989,342,1100,0,0,0,0,0,0,0,0,1100,2147483990,341,341,1100,341,341,341,1100,2147483990,341,2147483990,3221225590,0,0,0,
0,0,0,2147483849,342,2147483989,342,1137,2147483989,2147483989,2147483989,1137,2147483989,2147483989,342,1137,0,0,0,0,0,0,0,0,1137,2147483990,341,341,1137,341,341,341,1137,2147483990,341,2147483990,3221225553,0,0,0,
0,0,0,2147483886,0,0,1173,1174,1175,0,1173,1174,1175,0,1173,1174,1175,0,0,0,0,0,0,1173,1174,1175,0,1173,1174,1175,0,1173,1174,1175,0,0,3221225516,0,0,0,
0,0,0,2147483701,0,0,0,0,0,0,0,0,0,0,0,0,0,0,0,0,0,0,0,0,0,0,0,0,0,0,0,0,0,0,0,0,3221225701,0,0,0,
0,0,0,2147483738,0,0,0,0,0,0,0,0,0,0,0,0,0,0,0,0,0,0,0,0,0,0,0,0,0,0,0,0,0,0,0,0,3221225664,0,0,0,
0,0,0,2147483775,0,0,0,0,0,0,0,0,0,0,0,0,0,0,0,0,0,0,0,0,0,0,0,0,0,0,0,0,0,0,0,0,3221225627,0,0,0,
0,0,0,2147483812,0,0,0,0,0,0,0,0,0,0,0,0,0,0,0,0,0,0,0,0,0,0,0,0,0,0,0,0,0,0,0,0,3221225590,0,0,0,
0,0,0,2147483849,0,0,0,0,0,0,0,0,0,0,0,0,0,0,0,0,0,0,0,0,0,0,0,0,0,0,0,0,0,0,0,0,3221225553,0,0,0,
0,0,0,2147483886,0,0,0,0,0,0,0,0,0,0,0,0,0,0,0,0,0,0,0,0,0,0,0,0,0,0,0,0,0,0,0,0,3221225516,0,0,0,
0,0,487,269,1073742091,1073742092,1073742093,1073742094,1073742095,1073742096,1073742097,1073742098,1073742095,1073742096,1073742097,1073742098,3221225738,0,0,0,0,0,0,3221225747,1073742098,1073742091,1073742092,1073742093,1073742094,1073742095,1073742096,1073742097,1073742098,272,273,274,269,0,0,0,
0,0,0,0,0,0,0,0,0,0,0,0,0,0,0,0,53,0,0,0,0,0,0,2147483701,0,0,0,0,0,0,0,0,0,0,0,0,0,0,0,0,
0,0,0,0,0,0,0,0,0,0,0,0,0,0,0,0,90,0,0,0,0,0,0,2147483738,0,0,0,0,0,0,0,0,0,0,0,0,0,0,0,0,
0,0,0,0,0,0,0,0,0,0,0,0,0,0,0,0,127,0,0,0,0,0,0,2147483775,0,0,0,0,0,0,0,0,0,0,0,0,0,0,0,0,
0,0,0,0,0,0,0,0,0,0,0,0,0,0,0,0,164,0,0,0,0,0,0,2147483812,0,0,0,0,0,0,0,0,0,0,0,0,0,0,0,0,
0,0,0,0,0,0,0,0,0,0,0,0,0,0,0,0,201,0,0,0,0,0,0,2147483849,0,0,0,0,0,0,0,0,0,0,0,0,0,0,0,0,
0,0,0,0,0,0,0,0,0,0,0,0,0,0,0,0,238,0,0,0,0,0,0,2147483886,0,0,0,0,0,0,0,0,0,0,0,0,0,0,0,0,
0,0,0,0,0,0,0,0,0,0,0,0,0,0,0,0,201,0,0,0,0,0,0,2147483849,0,0,0,0,0,0,0,0,0,0,0,0,0,0,0,0,
0,0,0,0,0,0,0,0,0,0,0,0,0,0,0,0,238,0,0,0,0,0,0,2147483886,0,0,0,0,0,0,0,0,0,0,0,0,0,0,0,0,
0,0,0,0,0,0,0,0,0,0,0,0,0,0,0,0,201,0,0,0,0,0,0,2147483849,0,0,0,0,0,0,0,0,0,0,0,0,0,0,0,0
</data>
 </layer>
 <layer id="6" name="window prop" width="40" height="40">
  <data encoding="csv">
0,0,0,0,0,0,0,0,0,0,0,0,0,0,0,0,0,249,250,251,252,253,254,0,0,0,0,0,0,0,0,0,0,0,0,0,0,0,0,0,
0,0,280,281,0,280,281,0,280,281,0,280,281,0,0,0,0,286,287,288,289,290,291,0,0,0,0,280,281,0,280,281,0,280,281,0,280,281,0,0,
0,0,317,318,0,317,318,0,317,318,0,317,318,0,0,0,0,323,324,288,289,327,328,0,0,0,0,317,318,0,317,318,0,317,318,0,317,318,0,0,
0,0,354,355,0,354,355,0,354,355,0,354,355,0,0,0,0,360,361,325,326,364,365,0,0,0,0,354,355,0,354,355,0,354,355,0,354,355,0,0,
0,0,354,355,0,354,355,0,354,355,0,354,355,0,0,0,0,397,324,288,289,327,402,0,0,0,0,354,355,0,354,355,0,354,355,0,354,355,0,0,
0,0,391,392,0,391,392,0,391,392,0,391,392,0,0,0,0,0,324,325,326,327,0,0,0,0,0,391,392,0,391,392,0,391,392,0,391,392,0,0,
0,0,0,0,0,0,0,0,0,0,0,0,0,0,0,0,0,0,361,362,363,364,0,0,0,0,0,0,0,0,0,0,0,0,0,0,0,0,0,0,
0,0,0,0,0,0,0,0,0,0,0,0,0,0,0,0,0,0,398,399,400,401,0,0,0,0,0,0,0,0,0,0,0,0,0,0,0,0,0,0,
0,0,0,0,0,0,0,0,0,0,0,0,0,0,0,0,0,0,0,0,0,0,0,0,0,0,0,0,0,0,0,0,0,0,0,0,0,0,0,0,
0,0,0,0,0,0,0,0,0,0,0,0,0,0,0,0,0,0,0,0,0,0,0,0,0,0,0,0,0,0,0,0,0,0,0,0,0,0,0,0,
0,0,0,0,0,0,0,0,0,0,0,0,0,0,0,0,0,0,0,0,0,0,0,0,0,0,0,0,0,0,0,0,0,0,0,0,0,0,0,0,
0,0,0,0,0,0,0,0,0,0,0,0,0,0,0,0,0,0,0,0,0,0,0,0,0,0,0,0,0,0,0,0,0,0,0,0,0,0,0,0,
0,0,0,0,0,0,0,0,0,0,0,0,0,0,0,0,0,0,0,0,0,0,0,0,0,0,0,0,0,0,0,0,0,0,0,0,0,0,0,0,
0,0,0,0,0,0,0,0,0,0,0,0,0,0,0,0,0,0,0,0,0,0,0,0,0,0,0,0,0,0,0,0,0,0,0,0,0,0,0,0,
0,0,0,0,0,0,0,0,0,0,0,0,0,0,0,0,0,0,0,0,0,0,0,0,0,0,0,0,0,0,0,0,0,0,0,0,0,0,0,0,
0,0,0,0,0,0,0,0,0,0,0,0,0,0,0,0,0,0,0,0,0,0,0,0,0,0,0,0,0,0,0,0,0,0,0,0,0,0,0,0,
0,0,0,0,0,0,0,0,0,0,0,0,0,0,0,0,0,0,0,0,0,0,0,0,0,0,0,0,0,0,0,0,0,0,0,0,0,0,0,0,
0,0,0,0,0,0,0,0,0,0,0,0,0,0,0,0,0,0,0,0,0,0,0,0,0,0,0,0,0,0,0,0,0,0,0,0,0,0,0,0,
0,0,0,0,0,0,0,0,0,0,0,0,0,0,0,0,0,0,0,0,0,0,0,0,0,0,0,0,0,0,0,0,0,0,0,0,0,0,0,0,
0,0,0,0,0,0,0,0,0,0,0,0,0,0,0,0,0,0,0,0,0,0,0,0,0,0,0,0,0,0,0,0,0,0,0,0,0,0,0,0,
0,0,0,0,0,0,0,0,0,0,0,0,0,0,0,0,0,0,0,0,0,0,0,0,0,0,0,0,0,0,0,0,0,0,0,0,0,0,0,0,
0,0,0,0,0,0,0,0,0,0,0,0,0,0,0,0,0,0,0,0,0,0,0,0,0,0,0,0,0,0,0,0,0,0,0,0,0,0,0,0,
0,0,0,0,0,0,0,0,0,0,0,0,0,0,0,0,0,0,0,0,0,0,0,0,0,0,0,0,0,0,0,0,0,0,0,0,0,0,0,0,
0,0,0,0,0,0,0,0,0,0,0,0,0,0,0,0,0,0,0,0,0,0,0,0,0,0,0,0,0,0,0,0,0,0,0,0,0,0,0,0,
0,0,0,0,0,0,0,0,0,0,0,0,0,0,0,0,0,0,0,0,0,0,0,0,0,0,0,0,0,0,0,0,0,0,0,0,0,0,0,0,
0,0,0,0,0,0,0,0,0,0,0,0,0,0,0,0,0,0,0,0,0,0,0,0,0,0,0,0,0,0,0,0,0,0,0,0,0,0,0,0,
0,0,0,0,0,0,0,0,0,0,0,0,0,0,0,0,0,0,0,0,0,0,0,0,0,0,0,0,0,0,0,0,0,0,0,0,0,0,0,0,
0,0,0,0,0,0,0,0,0,0,0,0,0,0,0,0,0,0,0,0,0,0,0,0,0,0,0,0,0,0,0,0,0,0,0,0,0,0,0,0,
0,0,0,0,0,0,0,0,0,0,0,0,0,0,0,0,0,0,0,0,0,0,0,0,0,0,0,0,0,0,0,0,0,0,0,0,0,0,0,0,
0,0,0,0,0,0,0,0,0,0,0,0,0,0,0,0,0,0,0,0,0,0,0,0,0,0,0,0,0,0,0,0,0,0,0,0,0,0,0,0,
0,0,0,0,0,0,0,0,0,0,0,0,0,0,0,0,0,0,0,0,0,0,0,0,0,0,0,0,0,0,0,0,0,0,0,0,0,0,0,0,
0,0,0,0,0,0,0,0,0,0,0,0,0,0,0,0,0,0,0,0,0,0,0,0,0,0,0,0,0,0,0,0,0,0,0,0,0,0,0,0,
0,0,0,0,0,0,0,0,0,0,0,0,0,0,0,0,0,0,0,0,0,0,0,0,0,0,0,0,0,0,0,0,0,0,0,0,0,0,0,0,
0,0,0,0,0,0,0,0,0,0,0,0,0,0,0,0,0,0,0,0,0,0,0,0,0,0,0,0,0,0,0,0,0,0,0,0,0,0,0,0,
0,0,0,0,0,0,0,0,0,0,0,0,0,0,0,0,0,0,0,0,0,0,0,0,0,0,0,0,0,0,0,0,0,0,0,0,0,0,0,0,
0,0,0,0,0,0,0,0,0,0,0,0,0,0,0,0,0,0,0,0,0,0,0,0,0,0,0,0,0,0,0,0,0,0,0,0,0,0,0,0,
0,0,0,0,0,0,0,0,0,0,0,0,0,0,0,0,0,0,0,0,0,0,0,0,0,0,0,0,0,0,0,0,0,0,0,0,0,0,0,0,
0,0,0,0,0,0,0,0,0,0,0,0,0,0,0,0,0,0,0,0,0,0,0,0,0,0,0,0,0,0,0,0,0,0,0,0,0,0,0,0,
0,0,0,0,0,0,0,0,0,0,0,0,0,0,0,0,0,0,0,0,0,0,0,0,0,0,0,0,0,0,0,0,0,0,0,0,0,0,0,0,
0,0,0,0,0,0,0,0,0,0,0,0,0,0,0,0,0,0,0,0,0,0,0,0,0,0,0,0,0,0,0,0,0,0,0,0,0,0,0,0
</data>
 </layer>
 <layer id="5" name="torch/lmap" width="40" height="40">
  <data encoding="csv">
0,0,0,0,0,0,0,0,0,0,0,0,0,0,0,0,0,0,0,0,0,0,0,0,0,0,0,0,0,0,0,0,0,0,0,0,0,0,0,0,
0,0,0,0,0,0,0,0,0,0,0,0,0,0,0,0,0,0,0,0,0,0,0,0,0,0,0,0,0,0,0,0,0,0,0,0,0,0,0,0,
0,0,0,0,0,0,0,0,0,0,0,0,0,0,0,0,0,0,0,0,0,0,0,0,0,0,0,0,0,0,0,0,0,0,0,0,0,0,0,0,
0,0,0,0,0,0,0,0,0,0,0,0,0,0,0,0,0,0,0,0,0,0,0,0,0,0,0,0,0,0,0,0,0,0,0,0,0,0,0,0,
0,0,0,0,0,0,0,0,0,0,0,0,0,0,0,0,0,0,0,0,0,0,0,0,0,0,0,0,0,0,0,0,0,0,0,0,0,0,0,0,
0,0,0,0,0,0,0,0,0,0,0,0,0,0,0,0,0,0,0,0,0,0,0,0,0,0,0,0,0,0,0,0,0,0,0,0,0,0,0,0,
0,0,0,0,0,0,0,0,0,0,0,0,0,0,0,0,0,0,0,0,0,0,0,0,0,0,0,0,0,0,0,0,0,0,0,0,0,0,0,0,
0,0,0,0,0,0,0,0,0,0,0,0,0,0,0,0,0,0,0,0,0,0,0,0,0,0,0,0,0,0,0,0,0,0,0,0,0,0,0,0,
0,0,0,0,0,0,0,0,0,0,0,0,0,0,0,0,0,0,0,0,0,0,0,0,0,0,0,0,0,0,0,0,0,0,0,0,0,0,0,0,
0,0,0,0,0,0,0,0,0,0,0,0,0,0,0,0,0,0,0,0,0,0,0,0,0,0,0,0,0,0,0,0,0,0,0,0,0,0,0,0,
0,0,0,0,0,0,0,0,0,0,0,0,0,0,0,0,0,0,0,0,0,0,0,0,0,0,0,0,0,0,0,0,0,0,0,0,0,0,0,0,
0,0,0,0,0,0,0,0,0,0,0,0,0,0,0,0,0,0,0,0,0,0,0,0,0,0,0,0,0,0,0,0,0,0,0,0,0,0,0,0,
0,0,0,0,0,0,0,0,0,0,0,0,0,0,0,0,0,0,0,0,0,0,0,0,0,0,0,0,0,0,0,0,0,0,0,0,0,0,0,0,
0,0,0,0,0,0,0,0,0,0,0,0,0,0,0,0,0,0,0,0,0,0,0,0,0,0,0,0,0,0,0,0,0,0,0,0,0,0,0,0,
0,0,0,0,0,0,0,0,0,0,0,0,0,0,0,0,0,0,0,0,0,0,0,0,0,0,0,0,0,0,0,0,0,0,0,0,0,0,0,0,
0,0,0,0,0,0,0,0,0,0,0,0,0,0,0,0,0,0,0,0,0,0,0,0,0,0,0,0,0,0,0,0,0,0,0,0,0,0,0,0,
0,0,0,0,0,0,0,0,0,0,0,0,0,0,0,0,0,0,0,0,0,0,0,0,0,0,0,0,0,0,0,0,0,0,0,0,0,0,0,0,
0,0,0,0,0,0,0,0,0,0,0,0,0,0,0,0,0,0,0,0,0,0,0,0,0,0,0,0,0,0,0,0,0,0,0,0,0,0,0,0,
0,0,0,0,0,0,0,0,0,0,0,0,0,0,0,0,0,0,0,0,0,0,0,0,0,0,0,0,0,0,0,0,0,0,0,0,0,0,0,0,
0,0,0,0,0,0,0,0,0,1890,0,0,0,1890,0,0,0,0,0,0,0,0,0,0,0,0,1890,0,0,0,1890,0,0,0,0,0,0,0,0,0,
0,0,0,0,0,0,0,0,0,1922,0,0,0,1922,0,0,0,0,0,0,0,0,0,0,0,0,1922,0,0,0,1922,0,0,0,0,0,0,0,0,0,
0,0,0,0,0,0,0,0,0,0,0,0,0,0,0,0,0,0,0,0,0,0,0,0,0,0,0,0,0,0,0,0,0,0,0,0,0,0,0,0,
0,0,0,0,0,0,0,0,0,0,0,0,0,0,0,0,0,0,0,0,0,0,0,0,0,0,0,0,0,0,0,0,0,0,0,0,0,0,0,0,
0,0,0,0,0,0,0,0,0,0,0,0,0,0,0,0,0,0,0,0,0,0,0,0,0,0,0,0,0,0,0,0,0,0,0,0,0,0,0,0,
0,0,0,0,0,0,0,0,0,0,0,0,0,0,0,0,0,0,0,0,0,0,0,0,0,0,0,0,0,0,0,0,0,0,0,0,0,0,0,0,
0,0,0,0,0,0,0,0,0,0,0,0,0,0,0,0,0,0,0,0,0,0,0,0,0,0,0,0,0,0,0,0,0,0,0,0,0,0,0,0,
0,0,0,0,0,0,0,0,0,0,0,0,0,0,0,0,0,0,0,0,0,0,0,0,0,0,0,0,0,0,0,0,0,0,0,0,0,0,0,0,
0,0,0,0,0,0,0,0,0,0,0,0,0,0,0,0,0,0,0,0,0,0,0,0,0,0,0,0,0,0,0,0,0,0,0,0,0,0,0,0,
0,0,0,0,0,0,0,0,0,0,0,0,0,0,0,0,0,0,0,0,0,0,0,0,0,0,0,0,0,0,0,0,0,0,0,0,0,0,0,0,
0,0,0,0,0,0,0,0,0,0,0,0,0,0,0,0,0,0,0,0,0,0,0,0,0,0,0,0,0,0,0,0,0,0,0,0,0,0,0,0,
0,0,0,0,0,0,0,0,0,0,0,0,0,0,0,0,0,0,0,0,0,0,0,0,0,0,0,0,0,0,0,0,0,0,0,0,0,0,0,0,
0,0,0,0,0,0,0,0,0,0,0,0,0,0,0,0,0,0,0,0,0,0,0,0,0,0,0,0,0,0,0,0,0,0,0,0,0,0,0,0,
0,0,0,0,0,0,0,0,0,0,0,0,0,0,0,0,0,0,0,0,0,0,0,0,0,0,0,0,0,0,0,0,0,0,0,0,0,0,0,0,
0,0,0,0,0,0,0,0,0,0,0,0,0,0,0,0,0,0,0,0,0,0,0,0,0,0,0,0,0,0,0,0,0,0,0,0,0,0,0,0,
0,0,0,0,0,0,0,0,0,0,0,0,0,0,0,0,0,0,0,0,0,0,0,0,0,0,0,0,0,0,0,0,0,0,0,0,0,0,0,0,
0,0,0,0,0,0,0,0,0,0,0,0,0,0,0,0,0,0,0,0,0,0,0,0,0,0,0,0,0,0,0,0,0,0,0,0,0,0,0,0,
0,0,0,0,0,0,0,0,0,0,0,0,0,0,0,0,0,0,0,0,0,0,0,0,0,0,0,0,0,0,0,0,0,0,0,0,0,0,0,0,
0,0,0,0,0,0,0,0,0,0,0,0,0,0,0,0,0,0,0,0,0,0,0,0,0,0,0,0,0,0,0,0,0,0,0,0,0,0,0,0,
0,0,0,0,0,0,0,0,0,0,0,0,0,0,0,0,0,0,0,0,0,0,0,0,0,0,0,0,0,0,0,0,0,0,0,0,0,0,0,0,
0,0,0,0,0,0,0,0,0,0,0,0,0,0,0,0,0,0,0,0,0,0,0,0,0,0,0,0,0,0,0,0,0,0,0,0,0,0,0,0
</data>
 </layer>
</map>
