<?xml version="1.0" encoding="UTF-8"?>
<map version="1.10" tiledversion="1.12.2" orientation="orthogonal" renderorder="right-down" width="40" height="40" tilewidth="16" tileheight="16" infinite="0" nextlayerid="7" nextobjectid="1">
 <tileset firstgid="1" source="../tsx/mainlevbuild.tsx"/>
 <layer id="3" name="floor" width="40" height="40" locked="1">
  <data encoding="csv">
1485,1486,1487,1488,1485,1486,1487,1488,1485,1486,1487,1488,1485,1486,1487,1488,1485,1486,1487,1488,1485,1486,1487,1488,1485,1486,1487,1488,1485,1486,1487,1488,1485,1486,1487,1488,1485,1486,1487,1488,
1522,1523,1524,1525,1522,1523,1524,1525,1522,1523,1524,1525,1522,1523,1524,1525,1522,1523,1524,1525,1522,1523,1524,1525,1522,1523,1524,1525,1522,1523,1524,1525,1522,1523,1524,1525,1522,1523,1524,1525,
1559,1560,1561,1562,1559,1560,1561,1562,1559,1560,1561,1562,1559,1560,1561,1562,1559,1560,1561,1562,1559,1560,1561,1562,1559,1560,1561,1562,1559,1560,1561,1562,1559,1560,1561,1562,1559,1560,1561,1562,
1596,1597,1598,1599,1596,1597,1598,1599,1596,1597,1598,1599,1596,1597,1598,1599,1596,1597,1598,1599,1596,1597,1598,1599,1596,1597,1598,1599,1596,1597,1598,1599,1596,1597,1598,1599,1596,1597,1598,1599,
1485,1486,1487,1488,1485,1486,1487,1488,1485,1486,1487,1488,1485,1486,1487,1488,1485,1486,1487,1488,1485,1486,1487,1488,1485,1486,1487,1488,1485,1486,1487,1488,1485,1486,1487,1488,1485,1486,1487,1488,
1522,1523,1524,1525,1522,1523,1524,1525,1522,1523,1524,1525,1522,1523,1524,1525,1522,1523,1524,1525,1522,1523,1524,1525,1522,1523,1524,1525,1522,1523,1524,1525,1522,1523,1524,1525,1522,1523,1524,1525,
1559,1560,1561,1562,1559,1560,1561,1562,1559,1560,1561,1562,1559,1560,1561,1562,1559,1560,1561,1562,1559,1560,1561,1562,1559,1560,1561,1562,1559,1560,1561,1562,1559,1560,1561,1562,1559,1560,1561,1562,
1596,1597,1598,1599,1596,1597,1598,1599,1596,1597,1598,1599,1596,1597,1598,1599,1596,1597,1598,1599,1596,1597,1598,1599,1596,1597,1598,1599,1596,1597,1598,1599,1596,1597,1598,1599,1596,1597,1598,1599,
1485,1486,1487,1488,1485,1486,1487,1488,1485,1486,1487,1488,1485,1486,1487,1488,1485,1486,1487,1488,1485,1486,1487,1488,1485,1486,1487,1488,1485,1486,1487,1488,1485,1486,1487,1488,1485,1486,1487,1488,
1522,1523,1524,1525,1522,1523,1524,1525,1522,1523,1524,1525,1522,1523,1524,1525,1522,1523,1524,1525,1522,1523,1524,1525,1522,1523,1524,1525,1522,1523,1524,1525,1522,1523,1524,1525,1522,1523,1524,1525,
1559,1560,1561,1562,1559,1560,1561,1562,1559,1560,1561,1562,1559,1560,1561,1562,1559,1560,1561,1562,1559,1560,1561,1562,1559,1560,1561,1562,1559,1560,1561,1562,1559,1560,1561,1562,1559,1560,1561,1562,
1596,1597,1598,1599,1596,1597,1598,1599,1596,1597,1598,1599,1596,1597,1598,1599,1596,1597,1598,1599,1596,1597,1598,1599,1596,1597,1598,1599,1596,1597,1598,1599,1596,1597,1598,1599,1596,1597,1598,1599,
1485,1486,1487,1488,1485,1486,1487,1488,1485,1486,1487,1488,1485,1486,1487,1488,1485,1486,1487,1488,1485,1486,1487,1488,1485,1486,1487,1488,1485,1486,1487,1488,1485,1486,1487,1488,1485,1486,1487,1488,
1522,1523,1524,1525,1522,1523,1524,1525,1522,1523,1524,1525,1522,1523,1524,1525,1522,1523,1524,1525,1522,1523,1524,1525,1522,1523,1524,1525,1522,1523,1524,1525,1522,1523,1524,1525,1522,1523,1524,1525,
1559,1560,1561,1562,1559,1560,1561,1562,1559,1560,1561,1562,1559,1560,1561,1562,1559,1560,1561,1562,1559,1560,1561,1562,1559,1560,1561,1562,1559,1560,1561,1562,1559,1560,1561,1562,1559,1560,1561,1562,
1596,1597,1598,1599,1596,1597,1598,1599,1596,1597,1598,1599,1596,1597,1598,1599,1596,1597,1598,1599,1596,1597,1598,1599,1596,1597,1598,1599,1596,1597,1598,1599,1596,1597,1598,1599,1596,1597,1598,1599,
1485,1486,1487,1488,1485,1486,1487,1488,1485,1486,1487,1488,1485,1486,1487,1488,1485,1486,1487,1488,1485,1486,1487,1488,1485,1486,1487,1488,1485,1486,1487,1488,1485,1486,1487,1488,1485,1486,1487,1488,
1522,1523,1524,1525,1522,1523,1524,1525,1522,1523,1524,1525,1522,1523,1524,1525,1522,1523,1524,1525,1522,1523,1524,1525,1522,1523,1524,1525,1522,1523,1524,1525,1522,1523,1524,1525,1522,1523,1524,1525,
1559,1560,1561,1562,1559,1560,1561,1562,1559,1560,1561,1562,1559,1560,1561,1562,1559,1560,1561,1562,1559,1560,1561,1562,1559,1560,1561,1562,1559,1560,1561,1562,1559,1560,1561,1562,1559,1560,1561,1562,
1596,1597,1598,1599,1596,1597,1598,1599,1596,1597,1598,1599,1596,1597,1598,1599,1596,1597,1598,1599,1596,1597,1598,1599,1596,1597,1598,1599,1596,1597,1598,1599,1596,1597,1598,1599,1596,1597,1598,1599,
1485,1486,1487,1488,1485,1486,1487,1488,1485,1486,1487,1488,1485,1486,1487,1488,1485,1486,1487,1488,1485,1486,1487,1488,1485,1486,1487,1488,1485,1486,1487,1488,1485,1486,1487,1488,1485,1486,1487,1488,
1522,1523,1524,1525,1522,1523,1524,1525,1522,1523,1524,1525,1522,1523,1524,1525,1522,1523,1524,1525,1522,1523,1524,1525,1522,1523,1524,1525,1522,1523,1524,1525,1522,1523,1524,1525,1522,1523,1524,1525,
1559,1560,1561,1562,1559,1560,1561,1562,1559,1560,1561,1562,1559,1560,1561,1562,1559,1560,1561,1562,1559,1560,1561,1562,1559,1560,1561,1562,1559,1560,1561,1562,1559,1560,1561,1562,1559,1560,1561,1562,
1596,1597,1598,1599,1596,1597,1598,1599,1596,1597,1598,1599,1596,1597,1598,1599,1596,1597,1598,1599,1596,1597,1598,1599,1596,1597,1598,1599,1596,1597,1598,1599,1596,1597,1598,1599,1596,1597,1598,1599,
1485,1486,1487,1488,1485,1486,1487,1488,1485,1486,1487,1488,1485,1486,1487,1488,1485,1486,1487,1488,1485,1486,1487,1488,1485,1486,1487,1488,1485,1486,1487,1488,1485,1486,1487,1488,1485,1486,1487,1488,
1522,1523,1524,1525,1522,1523,1524,1525,1522,1523,1524,1525,1522,1523,1524,1525,1522,1523,1524,1525,1522,1523,1524,1525,1522,1523,1524,1525,1522,1523,1524,1525,1522,1523,1524,1525,1522,1523,1524,1525,
1559,1560,1561,1562,1559,1560,1561,1562,1559,1560,1561,1562,1559,1560,1561,1562,1559,1560,1561,1562,1559,1560,1561,1562,1559,1560,1561,1562,1559,1560,1561,1562,1559,1560,1561,1562,1559,1560,1561,1562,
1596,1597,1598,1599,1596,1597,1598,1599,1596,1597,1598,1599,1596,1597,1598,1599,1596,1597,1598,1599,1596,1597,1598,1599,1596,1597,1598,1599,1596,1597,1598,1599,1596,1597,1598,1599,1596,1597,1598,1599,
1485,1486,1487,1488,1485,1486,1487,1488,1485,1486,1487,1488,1485,1486,1487,1488,1485,1486,1487,1488,1485,1486,1487,1488,1485,1486,1487,1488,1485,1486,1487,1488,1485,1486,1487,1488,1485,1486,1487,1488,
1522,1523,1524,1525,1522,1523,1524,1525,1522,1523,1524,1525,1522,1523,1524,1525,1522,1523,1524,1525,1522,1523,1524,1525,1522,1523,1524,1525,1522,1523,1524,1525,1522,1523,1524,1525,1522,1523,1524,1525,
1559,1560,1561,1562,1559,1560,1561,1562,1559,1560,1561,1562,1559,1560,1561,1562,1559,1560,1561,1562,1559,1560,1561,1562,1559,1560,1561,1562,1559,1560,1561,1562,1559,1560,1561,1562,1559,1560,1561,1562,
1596,1597,1598,1599,1596,1597,1598,1599,1596,1597,1598,1599,1596,1597,1598,1599,1596,1597,1598,1599,1596,1597,1598,1599,1596,1597,1598,1599,1596,1597,1598,1599,1596,1597,1598,1599,1596,1597,1598,1599,
1485,1486,1487,1488,1485,1486,1487,1488,1485,1486,1487,1488,1485,1486,1487,1488,1485,1486,1487,1488,1485,1486,1487,1488,1485,1486,1487,1488,1485,1486,1487,1488,1485,1486,1487,1488,1485,1486,1487,1488,
1522,1523,1524,1525,1522,1523,1524,1525,1522,1523,1524,1525,1522,1523,1524,1525,1522,1523,1524,1525,1522,1523,1524,1525,1522,1523,1524,1525,1522,1523,1524,1525,1522,1523,1524,1525,1522,1523,1524,1525,
1559,1560,1561,1562,1559,1560,1561,1562,1559,1560,1561,1562,1559,1560,1561,1562,1559,1560,1561,1562,1559,1560,1561,1562,1559,1560,1561,1562,1559,1560,1561,1562,1559,1560,1561,1562,1559,1560,1561,1562,
1596,1597,1598,1599,1596,1597,1598,1599,1596,1597,1598,1599,1596,1597,1598,1599,1596,1597,1598,1599,1596,1597,1598,1599,1596,1597,1598,1599,1596,1597,1598,1599,1596,1597,1598,1599,1596,1597,1598,1599,
1485,1486,1487,1488,1485,1486,1487,1488,1485,1486,1487,1488,1485,1486,1487,1488,1485,1486,1487,1488,1485,1486,1487,1488,1485,1486,1487,1488,1485,1486,1487,1488,1485,1486,1487,1488,1485,1486,1487,1488,
1522,1523,1524,1525,1522,1523,1524,1525,1522,1523,1524,1525,1522,1523,1524,1525,1522,1523,1524,1525,1522,1523,1524,1525,1522,1523,1524,1525,1522,1523,1524,1525,1522,1523,1524,1525,1522,1523,1524,1525,
1559,1560,1561,1562,1559,1560,1561,1562,1559,1560,1561,1562,1559,1560,1561,1562,1559,1560,1561,1562,1559,1560,1561,1562,1559,1560,1561,1562,1559,1560,1561,1562,1559,1560,1561,1562,1559,1560,1561,1562,
1596,1597,1598,1599,1596,1597,1598,1599,1596,1597,1598,1599,1596,1597,1598,1599,1596,1597,1598,1599,1596,1597,1598,1599,1596,1597,1598,1599,1596,1597,1598,1599,1596,1597,1598,1599,1596,1597,1598,1599
</data>
 </layer>
 <layer id="6" name="walls" width="40" height="40" locked="1">
  <data encoding="csv">
0,0,0,0,0,0,0,0,0,0,0,0,0,0,0,0,0,0,0,0,0,0,0,0,0,0,0,0,0,0,0,0,0,0,0,0,0,0,0,0,
0,0,0,0,0,0,0,0,0,0,0,0,0,0,0,0,0,0,0,0,0,0,0,0,0,0,0,0,0,0,0,0,0,0,0,0,0,0,0,0,
0,0,0,0,0,0,0,0,0,0,0,0,0,0,0,0,0,0,0,0,0,0,0,0,0,0,0,0,0,0,0,0,0,0,0,0,0,0,0,0,
0,0,0,0,0,0,0,0,0,0,0,0,0,0,0,0,0,0,0,0,0,0,0,0,0,0,0,0,0,0,0,0,0,0,0,0,0,0,0,0,
0,0,0,0,0,0,0,0,0,0,0,0,0,0,0,0,0,0,0,0,0,0,0,0,0,0,0,0,0,0,0,0,0,0,0,0,0,0,0,0,
0,0,0,0,0,0,0,0,0,0,0,0,0,0,0,0,0,0,0,0,0,0,0,0,0,0,0,0,0,0,0,0,0,0,0,0,0,0,0,0,
0,0,0,341,342,341,342,341,342,342,342,342,342,0,0,341,342,341,342,341,342,342,342,342,342,0,0,341,342,341,342,341,341,342,342,342,342,0,0,0,
0,0,0,378,379,378,379,341,341,341,342,379,379,0,0,378,379,378,379,341,341,341,342,379,379,0,0,378,379,378,379,341,341,341,342,379,379,0,0,0,
0,0,0,341,341,341,342,378,378,378,379,378,379,0,0,341,341,341,342,378,378,378,379,378,379,0,0,341,341,341,342,378,378,341,341,378,379,0,0,0,
0,0,0,341,378,341,341,341,341,341,341,378,379,0,0,341,378,341,341,341,341,341,341,378,379,0,0,341,378,341,341,341,341,341,341,378,379,0,0,0,
0,0,0,378,379,378,379,378,379,378,379,378,379,0,0,378,379,378,379,378,379,378,379,378,379,0,0,378,379,378,379,378,379,341,379,378,379,0,0,0,
0,0,0,415,416,415,416,415,416,415,416,415,416,0,0,415,416,415,416,415,416,415,416,415,416,0,0,415,416,415,416,415,416,415,416,415,416,0,0,0,
0,0,0,0,0,0,0,0,0,0,0,0,0,0,0,0,0,0,0,0,0,0,0,0,0,0,0,0,0,0,0,0,0,0,0,0,0,0,0,0,
0,0,0,0,0,0,0,0,0,0,0,0,0,0,0,0,0,0,0,0,0,0,0,0,0,0,0,0,0,0,0,0,0,0,0,0,0,0,0,0,
0,0,0,0,0,0,0,0,0,0,0,0,0,0,0,0,0,0,0,0,0,0,0,0,0,0,0,0,0,0,0,0,0,0,0,0,0,0,0,0,
0,0,0,0,0,0,0,0,0,0,0,0,0,0,0,0,0,0,0,0,0,0,0,0,0,0,0,0,0,0,0,0,0,0,0,0,0,0,0,0,
0,0,0,0,0,0,0,0,0,0,0,0,0,0,0,0,0,0,0,0,0,0,0,0,0,0,0,0,0,0,0,0,0,0,0,0,0,0,0,0,
0,0,0,0,0,0,0,0,0,0,0,0,0,0,0,0,0,0,0,0,0,0,0,0,0,0,0,0,0,0,0,0,0,0,0,0,0,0,0,0,
0,0,0,0,0,0,0,0,0,0,0,0,0,0,0,0,0,0,0,0,0,0,0,0,0,0,0,0,0,0,0,0,0,0,0,0,0,0,0,0,
0,0,0,0,0,0,0,0,0,0,0,0,0,0,0,0,0,0,0,0,0,0,0,0,0,0,0,0,0,0,0,0,0,0,0,0,0,0,0,0,
0,0,0,0,0,0,0,0,0,0,0,0,0,0,0,0,0,0,0,0,0,0,0,0,0,0,0,0,0,0,0,0,0,0,0,0,0,0,0,0,
0,0,0,0,0,0,0,0,0,0,0,0,0,0,0,0,0,0,0,0,0,0,0,0,0,0,0,0,0,0,0,0,0,0,0,0,0,0,0,0,
0,0,0,0,0,0,0,0,0,0,0,0,0,0,0,0,0,0,0,0,0,0,0,0,0,0,0,0,0,0,0,0,0,0,0,0,0,0,0,0,
0,0,0,0,0,0,0,0,0,0,0,0,0,0,0,0,0,0,0,0,0,0,0,0,0,0,0,0,0,0,0,0,0,0,0,0,0,0,0,0,
0,0,0,0,0,0,0,0,0,0,0,0,0,0,0,0,0,0,0,0,0,0,0,0,0,0,0,0,0,0,0,0,0,0,0,0,0,0,0,0,
0,0,0,0,0,0,0,0,0,0,0,0,0,0,0,0,0,0,0,0,0,0,0,0,0,0,0,0,0,0,0,0,0,0,0,0,0,0,0,0,
0,0,0,0,0,0,0,0,0,0,0,0,0,0,0,0,0,0,0,0,0,0,0,0,0,0,0,0,0,0,0,0,0,0,0,0,0,0,0,0,
0,0,0,0,0,0,0,0,0,0,0,0,0,0,0,0,0,0,0,0,0,0,0,0,0,0,0,0,0,0,0,0,0,0,0,0,0,0,0,0,
0,0,0,0,0,0,0,0,0,0,0,0,0,0,0,0,0,0,0,0,0,0,0,0,0,0,0,0,0,0,0,0,0,0,0,0,0,0,0,0,
0,0,0,0,0,0,0,0,0,0,0,0,0,0,0,0,0,0,0,0,0,0,0,0,0,0,0,0,0,0,0,0,0,0,0,0,0,0,0,0,
0,0,0,0,0,0,0,0,0,0,0,0,0,0,0,0,0,0,0,0,0,0,0,0,0,0,0,0,0,0,0,0,0,0,0,0,0,0,0,0,
0,0,0,0,0,0,0,0,0,0,0,0,0,0,0,0,0,0,0,0,0,0,0,0,0,0,0,0,0,0,0,0,0,0,0,0,0,0,0,0,
0,0,0,0,0,0,0,0,0,0,0,0,0,0,0,0,0,0,0,0,0,0,0,0,0,0,0,0,0,0,0,0,0,0,0,0,0,0,0,0,
0,0,0,0,0,0,0,0,0,0,0,0,0,0,0,0,0,0,0,0,0,0,0,0,0,0,0,0,0,0,0,0,0,0,0,0,0,0,0,0,
0,0,0,0,0,0,0,0,0,0,0,0,0,0,0,0,0,0,0,0,0,0,0,0,0,0,0,0,0,0,0,0,0,0,0,0,0,0,0,0,
0,0,0,0,0,0,0,0,0,0,0,0,0,0,0,0,0,0,0,0,0,0,0,0,0,0,0,0,0,0,0,0,0,0,0,0,0,0,0,0,
0,0,0,0,0,0,0,0,0,0,0,0,0,0,0,0,0,0,0,0,0,0,0,0,0,0,0,0,0,0,0,0,0,0,0,0,0,0,0,0,
0,0,0,0,0,0,0,0,0,0,0,0,0,0,0,0,0,0,0,0,0,0,0,0,0,0,0,0,0,0,0,0,0,0,0,0,0,0,0,0,
0,0,0,0,0,0,0,0,0,0,0,0,0,0,0,0,0,0,0,0,0,0,0,0,0,0,0,0,0,0,0,0,0,0,0,0,0,0,0,0,
0,0,0,0,0,0,0,0,0,0,0,0,0,0,0,0,0,0,0,0,0,0,0,0,0,0,0,0,0,0,0,0,0,0,0,0,0,0,0,0
</data>
 </layer>
 <layer id="4" name="darkness" width="40" height="40" locked="1">
  <data encoding="csv">
45,45,45,45,45,45,45,45,82,82,82,82,45,45,45,82,82,82,82,82,45,46,45,45,45,45,45,45,46,47,48,45,45,45,45,45,46,47,48,49,
82,82,82,82,82,82,82,82,119,119,119,119,82,82,82,119,119,119,119,119,45,45,82,82,82,82,82,82,83,84,85,82,82,82,82,82,83,84,85,86,
119,119,119,119,119,119,119,119,156,156,156,156,119,119,119,156,156,156,156,156,82,82,119,119,119,119,119,119,120,121,122,119,119,119,119,119,120,121,122,45,
156,156,156,156,156,156,156,156,193,193,193,193,156,156,156,193,193,193,193,193,119,119,156,156,156,156,156,156,157,158,159,156,156,156,156,156,157,158,159,45,
193,193,193,193,193,193,193,193,193,194,195,196,193,193,193,193,194,195,196,197,156,156,193,193,193,193,193,193,194,195,196,193,193,193,193,193,194,195,196,45,
0,0,0,0,0,0,0,0,0,0,0,0,0,0,0,0,0,0,0,0,193,193,193,194,195,196,197,198,199,0,0,0,0,0,0,0,0,0,82,83,
0,0,0,0,0,0,0,0,0,0,0,0,0,0,0,0,0,0,0,0,0,0,0,0,0,0,0,0,0,0,0,0,0,0,0,0,0,0,119,120,
0,0,0,0,0,119,119,120,0,0,0,0,0,0,0,0,0,0,0,0,0,0,0,0,0,0,0,0,0,0,0,0,82,83,83,0,0,0,156,157,
0,0,0,0,119,120,156,119,120,0,0,0,0,0,0,0,0,0,0,0,0,0,0,0,0,0,0,0,0,0,0,82,83,119,120,83,0,0,193,194,
0,0,0,0,156,157,120,156,157,0,0,0,0,0,0,0,0,0,0,0,0,0,0,0,0,0,0,0,0,0,0,119,120,156,157,120,0,0,82,83,
0,0,0,0,156,157,157,156,157,0,0,0,0,0,0,0,0,0,0,0,0,0,0,0,0,0,0,0,0,0,0,156,157,156,156,157,0,0,119,120,
0,0,0,0,0,0,0,0,0,0,0,0,0,0,0,0,0,0,0,0,0,0,0,0,0,0,0,0,0,0,0,0,0,0,0,0,0,0,156,157,
0,0,0,0,0,0,0,0,0,0,0,0,0,0,0,0,0,0,0,0,0,0,0,0,0,0,0,0,0,0,0,0,0,0,0,0,0,0,82,83,
0,0,0,0,0,0,0,0,0,0,0,0,0,0,0,0,0,0,0,0,0,0,0,0,0,0,0,0,0,0,0,0,0,0,0,0,0,0,82,83,
0,0,0,0,0,0,0,0,0,0,0,0,0,0,0,0,0,0,0,0,0,0,0,0,0,0,0,0,0,0,0,0,0,0,0,0,0,0,82,83,
0,0,0,0,0,0,0,0,0,0,0,0,0,0,0,0,0,0,0,0,0,0,0,0,0,0,0,0,0,0,0,0,0,0,0,0,0,0,82,83,
0,0,0,0,0,0,0,0,0,0,0,0,0,0,0,0,0,0,0,0,0,0,0,0,0,0,0,0,0,0,0,0,0,0,0,0,0,0,82,83,
0,0,0,0,0,0,0,0,0,0,0,0,0,0,0,0,0,0,0,0,0,0,0,0,0,0,0,0,0,0,0,0,0,0,0,0,0,0,82,83,
0,0,0,0,0,0,0,0,0,0,0,0,0,0,0,0,0,0,0,0,0,0,0,0,0,0,0,0,0,0,0,0,0,0,0,0,0,0,82,83,
0,0,0,0,0,0,0,0,0,0,0,0,0,0,0,0,0,0,0,0,0,0,0,0,0,0,0,0,0,0,0,0,0,0,0,0,0,0,82,83,
0,0,0,0,0,0,0,0,0,0,0,0,0,0,0,0,0,0,0,0,0,0,0,0,0,0,0,0,0,0,0,0,0,0,0,0,0,82,83,84,
0,0,0,0,0,0,0,0,0,0,0,0,0,0,0,0,0,0,0,0,0,0,0,0,0,0,0,0,0,0,0,0,0,0,0,0,0,82,83,84,
0,0,0,0,0,0,0,0,0,0,0,0,0,0,0,0,0,0,0,0,0,0,0,0,0,0,0,0,0,0,0,0,0,0,0,0,0,82,82,83,
0,0,0,0,0,0,0,0,0,0,0,0,0,0,0,0,0,0,0,0,0,0,0,0,0,0,0,0,0,0,0,0,0,0,0,0,0,119,82,83,
0,0,0,0,0,0,0,0,0,0,0,0,0,0,0,0,0,0,0,0,0,0,0,0,0,0,0,0,0,0,0,0,0,0,0,0,0,156,82,83,
0,0,0,0,0,0,0,0,0,0,0,0,0,0,0,0,0,0,0,0,0,0,0,0,0,0,0,0,0,0,0,0,0,0,0,0,0,193,82,83,
0,0,0,0,0,0,0,0,0,0,0,0,0,0,0,0,0,0,0,0,0,0,0,0,0,0,0,0,0,0,0,0,0,0,0,0,0,0,82,83,
0,0,0,0,0,0,0,0,0,0,0,0,0,0,0,0,0,0,0,0,0,0,0,0,0,0,0,0,0,0,0,0,0,0,0,0,0,0,82,83,
0,0,0,0,0,0,0,0,0,0,0,0,0,0,0,0,0,0,0,0,0,0,0,0,0,0,0,0,0,0,0,0,0,0,0,0,0,82,83,84,
0,0,0,0,0,0,0,0,0,0,0,0,0,0,0,0,0,0,0,0,0,0,0,0,0,0,0,0,0,0,0,0,0,0,0,0,0,82,83,84,
0,0,0,0,0,0,0,0,0,0,0,0,0,0,0,0,0,0,0,0,0,0,0,0,0,0,0,0,0,0,0,0,0,0,0,0,0,82,83,84,
0,0,0,0,0,0,0,0,0,0,0,0,0,0,0,0,0,0,0,0,0,0,0,0,0,0,0,0,0,0,0,0,0,0,0,0,0,82,83,84,
0,0,0,0,0,0,0,0,0,0,0,0,0,0,0,0,0,0,0,0,0,0,0,0,0,0,0,0,0,0,0,0,0,0,0,0,0,82,82,83,
0,0,0,0,0,0,0,0,0,0,0,0,0,0,0,0,0,0,0,0,0,0,0,0,0,0,0,0,0,0,0,0,0,0,0,0,0,119,82,83,
0,0,0,0,0,0,0,0,0,0,0,0,0,0,0,0,0,0,0,0,0,0,0,0,0,0,0,0,0,0,0,0,0,0,0,0,0,156,82,82,
0,0,0,0,0,0,0,0,0,0,0,0,0,0,0,0,0,0,0,0,0,0,0,0,0,0,0,0,0,0,0,0,0,0,0,0,0,193,119,82,
0,0,0,0,0,0,0,0,0,0,0,0,0,0,0,0,0,0,0,0,0,0,0,0,0,0,0,0,0,0,0,0,0,0,0,0,0,0,156,119,
0,0,0,0,0,0,0,0,0,0,0,0,0,0,0,0,0,0,0,0,0,0,0,0,0,0,0,0,0,0,0,0,0,0,0,0,0,0,193,156,
0,0,0,0,0,0,0,0,0,0,0,0,0,0,0,0,0,45,46,47,48,49,50,51,0,0,0,0,0,0,0,0,0,0,0,0,0,0,45,193,
0,0,0,0,0,0,0,0,0,0,0,0,0,0,0,0,0,82,83,84,85,86,87,88,51,51,51,51,45,45,46,47,48,49,50,51,51,46,47,48
</data>
 </layer>
 <layer id="1" name="Tile Layer 1" width="40" height="40" locked="1">
  <data encoding="csv">
0,0,0,0,0,0,0,0,0,0,0,0,0,0,0,0,0,0,0,0,0,0,0,0,0,0,0,0,0,0,0,0,0,0,0,0,0,0,0,0,
0,0,0,0,0,0,0,0,0,0,0,0,0,0,0,0,0,0,0,0,0,0,0,0,0,0,0,0,0,0,0,0,0,0,0,0,0,0,0,0,
0,0,0,0,0,0,0,0,0,0,0,0,0,0,0,0,0,0,0,0,0,0,0,0,0,0,0,0,0,0,0,0,0,0,0,0,0,0,0,0,
0,0,0,0,0,0,0,0,0,0,0,0,0,0,0,0,0,0,0,0,0,0,0,0,0,0,0,0,0,0,0,0,0,0,0,0,0,0,0,0,
0,0,0,0,0,0,0,0,0,0,0,0,0,0,0,0,0,0,0,0,0,0,0,0,0,0,0,0,0,0,0,0,0,0,0,0,0,0,0,0,
85,86,267,268,269,270,271,272,273,274,267,268,269,270,271,272,267,268,269,270,271,272,273,274,268,269,270,271,272,273,274,267,268,269,270,271,267,267,0,0,
122,123,81,0,0,0,0,0,0,0,0,0,0,0,0,0,0,0,0,0,0,0,0,0,0,0,0,0,0,0,0,0,0,0,0,0,0,127,0,0,
159,160,118,0,0,0,0,0,0,0,0,0,0,0,0,0,0,0,0,0,0,0,0,0,0,0,0,0,0,0,0,0,0,0,0,0,0,164,0,0,
85,86,155,0,0,0,0,0,0,0,0,0,0,0,0,0,0,0,0,0,0,0,0,0,0,0,0,0,0,0,0,0,0,0,0,0,0,90,0,0,
85,86,192,0,0,0,0,0,0,0,0,0,0,0,0,0,0,0,0,0,0,0,0,0,0,0,0,0,0,0,0,0,0,0,0,0,0,127,0,0,
85,86,118,0,0,0,0,0,0,0,0,0,0,0,0,0,0,0,0,0,0,0,0,0,0,0,0,0,0,0,0,0,0,0,0,0,0,164,0,0,
85,86,155,0,0,0,0,0,0,0,0,0,0,0,0,0,0,0,0,0,0,0,0,0,0,0,0,0,0,0,0,0,0,0,0,0,0,127,0,0,
85,86,192,0,0,0,0,0,0,0,0,0,0,0,0,0,0,0,0,0,0,0,0,0,0,0,0,0,0,0,0,0,0,0,0,0,0,90,0,0,
85,86,81,0,0,0,0,0,0,0,0,0,0,0,0,0,0,0,0,0,0,0,0,0,0,0,0,0,0,0,0,0,0,0,0,0,0,127,0,0,
85,86,118,0,0,0,0,0,0,0,0,0,0,0,0,0,0,0,0,0,0,0,0,0,0,0,0,0,0,0,0,0,0,0,0,0,0,164,0,0,
85,86,155,0,0,0,0,0,0,0,0,0,0,0,0,0,0,0,0,0,0,0,0,0,0,0,0,0,0,0,0,0,0,0,0,0,0,90,0,0,
85,86,192,0,0,0,0,0,0,0,0,0,0,0,0,0,0,0,0,0,0,0,0,0,0,0,0,0,0,0,0,0,0,0,0,0,0,127,0,0,
85,86,118,0,0,0,0,0,0,0,0,0,0,0,0,0,0,0,0,0,0,0,0,0,0,0,0,0,0,0,0,0,0,0,0,0,0,164,0,0,
85,86,155,0,0,0,0,0,0,0,0,0,0,0,0,0,0,0,0,0,0,0,0,0,0,0,0,0,0,0,0,0,0,0,0,0,0,90,0,0,
85,86,192,0,0,0,0,0,0,0,0,0,0,0,0,0,0,0,0,0,0,0,0,0,0,0,0,0,0,0,0,0,0,0,0,0,0,127,0,0,
85,86,81,0,0,0,0,0,0,0,0,0,0,0,0,0,0,0,0,0,0,0,0,0,0,0,0,0,0,0,0,0,0,0,0,0,0,164,0,0,
85,86,81,0,0,0,0,0,0,0,0,0,0,0,0,0,0,0,0,0,0,0,0,0,0,0,0,0,0,0,0,0,0,0,0,0,0,90,0,0,
86,86,81,0,0,0,0,0,0,0,0,0,0,0,0,0,0,0,0,0,0,0,0,0,0,0,0,0,0,0,0,0,0,0,0,0,0,127,0,0,
86,123,118,0,0,0,0,0,0,0,0,0,0,0,0,0,0,0,0,0,0,0,0,0,0,0,0,0,0,0,0,0,0,0,0,0,0,164,0,0,
86,160,155,0,0,0,0,0,0,0,0,0,0,0,0,0,0,0,0,0,0,0,0,0,0,0,0,0,0,0,0,0,0,0,0,0,0,90,0,0,
86,197,192,0,0,0,0,0,0,0,0,0,0,0,0,0,0,0,0,0,0,0,0,0,0,0,0,0,0,0,0,0,0,0,0,0,0,127,0,0,
85,86,118,0,0,0,0,0,0,0,0,0,0,0,0,0,0,0,0,0,0,0,0,0,0,0,0,0,0,0,0,0,0,0,0,0,0,164,0,0,
85,86,155,0,0,0,0,0,0,0,0,0,0,0,0,0,0,0,0,0,0,0,0,0,0,0,0,0,0,0,0,0,0,0,0,0,0,90,0,0,
85,86,192,0,0,0,0,0,0,0,0,0,0,0,0,0,0,0,0,0,0,0,0,0,0,0,0,0,0,0,0,0,0,0,0,0,0,127,0,0,
85,86,81,0,0,0,0,0,0,0,0,0,0,0,0,0,0,0,0,0,0,0,0,0,0,0,0,0,0,0,0,0,0,0,0,0,0,164,0,0,
85,86,118,0,0,0,0,0,0,0,0,0,0,0,0,0,0,0,0,0,0,0,0,0,0,0,0,0,0,0,0,0,0,0,0,0,0,90,0,0,
85,86,155,0,0,0,0,0,0,0,0,0,0,0,0,0,0,0,0,0,0,0,0,0,0,0,0,0,0,0,0,0,0,0,0,0,0,127,0,0,
85,86,192,0,0,0,0,0,0,0,0,0,0,0,0,0,0,0,0,0,0,0,0,0,0,0,0,0,0,0,0,0,0,0,0,0,0,164,0,0,
85,86,81,0,0,0,0,0,0,0,0,0,0,0,0,0,0,0,0,0,0,0,0,0,0,0,0,0,0,0,0,0,0,0,0,0,0,90,0,0,
85,86,118,0,0,0,0,0,0,0,0,0,0,0,0,0,0,0,0,0,0,0,0,0,0,0,0,0,0,0,0,0,0,0,0,0,0,127,0,0,
85,86,155,0,0,0,0,0,0,0,0,0,0,0,0,0,0,0,0,0,0,0,0,0,0,0,0,0,0,0,0,0,0,0,0,0,0,90,0,0,
85,86,192,0,0,0,0,0,0,0,0,0,0,0,0,0,0,0,0,0,0,0,0,0,0,0,0,0,0,0,0,0,0,0,0,0,0,127,0,0,
85,86,229,0,0,0,0,0,0,0,0,0,0,0,0,0,0,0,0,0,0,0,0,0,0,0,0,0,0,0,0,0,0,0,0,0,0,164,0,0,
85,86,266,267,268,269,270,271,267,268,269,270,271,272,267,268,269,0,0,0,0,0,0,2147483917,2147483916,2147483915,269,270,271,272,273,274,269,270,271,272,273,274,0,0,
82,82,82,82,82,82,82,82,82,82,82,82,82,82,83,84,85,86,0,0,0,0,0,0,0,0,0,0,0,0,0,0,0,0,0,0,0,0,0,0
</data>
 </layer>
 <layer id="2" name="pillars" width="40" height="40" locked="1">
  <data encoding="csv">
0,0,0,0,0,0,0,0,0,0,0,0,0,0,0,0,0,0,0,0,0,0,0,0,0,0,0,0,0,0,0,0,0,0,0,0,0,0,0,0,
0,0,0,0,0,0,0,0,0,0,0,0,0,0,0,0,0,0,0,0,0,0,0,0,0,0,0,0,0,0,0,0,0,0,0,0,0,0,0,0,
0,0,0,0,0,0,0,0,0,0,0,0,0,0,0,0,0,0,0,0,0,0,0,0,0,0,0,0,0,0,0,0,0,0,0,0,0,0,0,0,
0,0,0,0,0,0,0,0,0,0,0,0,0,0,0,0,0,0,0,0,0,0,0,0,0,0,0,0,0,0,0,0,0,0,0,0,0,0,0,0,
0,0,0,0,0,0,0,0,0,0,0,0,0,0,0,0,0,0,0,0,0,0,0,0,0,0,0,0,0,0,0,0,0,0,0,0,0,0,0,0,
0,0,0,0,0,0,0,0,0,0,0,0,0,505,506,0,0,0,0,0,0,0,0,0,0,505,506,0,0,0,0,0,0,0,0,0,0,0,0,0,
0,0,0,0,0,0,0,0,0,0,0,0,0,542,543,0,0,0,0,0,0,0,0,0,0,542,543,0,0,0,0,0,0,0,0,0,0,0,0,0,
0,0,0,0,0,0,0,0,0,0,0,0,0,579,580,0,0,0,0,0,0,0,0,0,0,579,580,0,0,0,0,0,0,0,0,0,0,0,0,0,
0,0,0,0,0,0,0,0,0,0,0,0,0,616,617,0,0,0,0,0,0,0,0,0,0,616,617,0,0,0,0,0,0,0,0,0,0,0,0,0,
0,0,0,0,0,0,0,0,0,0,0,0,0,616,617,0,0,0,0,0,0,0,0,0,0,616,617,0,0,0,0,0,0,0,0,0,0,0,0,0,
0,0,0,0,0,0,0,0,0,0,0,0,0,616,617,0,0,0,0,0,0,0,0,0,0,616,617,0,0,0,0,0,0,0,0,0,0,0,0,0,
0,0,0,0,0,0,0,0,0,0,0,0,0,653,654,0,0,0,0,0,0,0,0,0,0,653,654,0,0,0,0,0,0,0,0,0,0,0,0,0,
0,0,0,0,0,0,0,0,0,0,0,0,0,0,0,0,0,0,0,0,0,0,0,0,0,0,0,0,0,0,0,0,0,0,0,0,0,0,0,0,
0,0,0,0,0,0,0,0,0,0,0,0,0,0,0,0,0,0,0,0,0,0,0,0,0,0,0,0,0,0,0,0,0,0,0,0,0,0,0,0,
0,0,0,0,0,0,0,0,0,0,0,0,0,0,0,0,0,0,0,0,0,0,0,0,0,0,0,0,0,0,0,0,0,0,0,0,0,0,0,0,
0,0,0,0,0,0,0,0,0,0,0,0,0,0,0,0,0,0,0,0,0,0,0,0,0,0,0,0,0,0,0,0,0,0,0,0,0,0,0,0,
0,0,0,0,0,0,0,0,0,0,0,0,0,0,0,0,0,0,0,0,0,0,0,0,0,0,0,0,0,0,0,0,0,0,0,0,0,0,0,0,
0,0,0,0,0,0,0,0,0,0,0,0,0,0,0,0,0,0,0,0,0,0,0,0,0,0,0,0,0,0,0,0,0,0,0,0,0,0,0,0,
0,0,0,0,0,0,0,0,0,0,0,0,0,0,0,0,0,0,0,0,0,0,0,0,0,0,0,0,0,0,0,0,0,0,0,0,0,0,0,0,
0,0,0,0,0,0,0,0,0,0,0,0,0,0,0,0,0,0,0,0,0,0,0,0,0,0,0,0,0,0,0,0,0,0,0,0,0,0,0,0,
0,0,0,0,0,0,0,0,0,0,0,0,0,0,0,0,0,0,0,0,0,0,0,0,0,0,0,0,0,0,0,0,0,0,0,0,0,0,0,0,
0,0,0,0,0,0,0,0,0,0,0,0,0,0,0,0,0,0,0,0,0,0,0,0,0,0,0,0,0,0,0,0,0,0,0,0,0,0,0,0,
0,0,0,0,0,0,0,0,0,0,0,0,0,0,0,0,0,0,0,0,0,0,0,0,0,0,0,0,0,0,0,0,0,0,0,0,0,0,0,0,
0,0,0,0,0,0,0,0,0,0,0,0,0,0,0,0,0,0,0,0,0,0,0,0,0,0,0,0,0,0,0,0,0,0,0,0,0,0,0,0,
0,0,0,0,0,0,0,0,0,0,0,0,0,0,0,0,0,0,0,0,0,0,0,0,0,0,0,0,0,0,0,0,0,0,0,0,0,0,0,0,
0,0,0,0,0,0,0,0,0,0,0,0,0,0,0,0,0,0,0,0,0,0,0,0,0,0,0,0,0,0,0,0,0,0,0,0,0,0,0,0,
0,0,0,0,0,0,0,0,0,0,0,0,0,0,0,0,0,0,0,0,0,0,0,0,0,0,0,0,0,0,0,0,0,0,0,0,0,0,0,0,
0,0,0,0,0,0,0,0,0,0,0,0,0,0,0,0,0,0,0,0,0,0,0,0,0,0,0,0,0,0,0,0,0,0,0,0,0,0,0,0,
0,0,0,0,0,0,0,0,0,0,0,0,0,0,0,0,0,0,0,0,0,0,0,0,0,0,0,0,0,0,0,0,0,0,0,0,0,0,0,0,
0,0,0,0,0,0,0,0,0,0,0,0,0,0,0,0,0,0,0,0,0,0,0,0,0,0,0,0,0,0,0,0,0,0,0,0,0,0,0,0,
0,0,0,0,0,0,0,0,0,0,0,0,0,0,0,0,0,0,0,0,0,0,0,0,0,0,0,0,0,0,0,0,0,0,0,0,0,0,0,0,
0,0,0,0,0,0,0,0,0,0,0,0,0,0,0,0,0,0,0,0,0,0,0,0,0,0,0,0,0,0,0,0,0,0,0,0,0,0,0,0,
0,0,0,0,0,0,0,0,0,0,0,0,0,0,0,0,0,0,0,0,0,0,0,0,0,0,0,0,0,0,0,0,0,0,0,0,0,0,0,0,
0,0,0,0,0,0,0,0,0,0,0,0,0,0,0,0,0,0,0,0,0,0,0,0,0,0,0,0,0,0,0,0,0,0,0,0,0,0,0,0,
0,0,0,0,0,0,0,0,0,0,0,0,0,0,0,0,0,0,0,0,0,0,0,0,0,0,0,0,0,0,0,0,0,0,0,0,0,0,0,0,
0,0,0,0,0,0,0,0,0,0,0,0,0,0,0,0,0,0,0,0,0,0,0,0,0,0,0,0,0,0,0,0,0,0,0,0,0,0,0,0,
0,0,0,0,0,0,0,0,0,0,0,0,0,0,0,0,0,0,0,0,0,0,0,0,0,0,0,0,0,0,0,0,0,0,0,0,0,0,0,0,
0,0,0,0,0,0,0,0,0,0,0,0,0,0,0,0,0,0,0,0,0,0,0,0,0,0,0,0,0,0,0,0,0,0,0,0,0,0,0,0,
0,0,0,0,0,0,0,0,0,0,0,0,0,0,0,0,0,0,0,0,0,0,0,0,0,0,0,0,0,0,0,0,0,0,0,0,0,0,0,0,
0,0,0,0,0,0,0,0,0,0,0,0,0,0,0,0,0,0,0,0,0,0,0,0,0,0,0,0,0,0,0,0,0,0,0,0,0,0,0,0
</data>
 </layer>
 <layer id="5" name="passage" width="40" height="40" locked="1">
  <data encoding="csv">
0,0,0,0,0,0,0,0,0,0,0,0,0,0,0,0,0,0,0,0,0,0,0,0,0,0,0,0,0,0,0,0,0,0,0,0,0,0,0,0,
0,0,0,0,0,0,0,0,0,0,0,0,0,0,0,0,0,0,0,0,0,0,0,0,0,0,0,0,0,0,0,0,0,0,0,0,0,0,0,0,
0,0,0,0,0,0,0,0,0,0,0,0,0,0,0,0,0,0,0,0,0,0,0,0,0,0,0,0,0,0,0,0,0,0,0,0,0,0,0,0,
0,0,0,0,0,0,0,0,0,0,0,0,0,0,0,0,0,0,0,0,0,0,0,0,0,0,0,0,0,0,0,0,0,0,0,0,0,0,0,0,
0,0,0,0,0,0,0,0,0,0,0,0,0,0,0,0,0,0,0,0,0,0,0,0,0,0,0,0,0,0,0,0,0,0,0,0,0,0,0,0,
0,0,0,0,0,0,0,0,0,0,0,0,0,0,0,0,0,0,0,0,0,0,0,0,0,0,0,0,0,0,0,0,0,0,0,0,0,0,0,0,
0,0,0,0,488,489,490,491,492,0,0,0,0,0,0,0,0,0,0,0,0,0,0,0,0,0,0,0,0,0,0,488,489,490,491,492,0,0,0,0,
0,0,0,0,525,526,527,528,529,0,0,0,0,0,0,0,0,0,0,0,0,0,0,0,0,0,0,0,0,0,0,525,526,527,528,529,0,0,0,0,
0,0,0,0,562,563,564,565,566,0,0,0,0,0,0,0,0,0,0,0,0,0,0,0,0,0,0,0,0,0,0,562,563,564,565,566,0,0,0,0,
0,0,0,0,599,600,601,602,603,0,0,0,0,0,0,0,0,0,0,0,0,0,0,0,0,0,0,0,0,0,0,599,600,601,602,603,0,0,0,0,
0,0,0,0,636,637,638,639,640,0,0,0,0,0,0,0,0,0,0,0,0,0,0,0,0,0,0,0,0,0,0,636,637,638,639,640,0,0,0,0,
0,0,0,0,673,674,675,676,677,0,0,0,0,0,0,0,0,0,0,0,0,0,0,0,0,0,0,0,0,0,0,673,674,675,676,677,0,0,0,0,
0,0,0,0,710,711,712,713,714,0,0,0,0,0,0,0,0,0,0,0,0,0,0,0,0,0,0,0,0,0,0,710,711,712,713,714,0,0,0,0,
0,0,0,0,0,0,0,0,0,0,0,0,0,0,0,0,0,0,0,0,0,0,0,0,0,0,0,0,0,0,0,0,0,0,0,0,0,0,0,0,
0,0,0,0,0,0,0,0,0,0,0,0,0,0,0,0,0,0,0,0,0,0,0,0,0,0,0,0,0,0,0,0,0,0,0,0,0,0,0,0,
0,0,0,0,0,0,0,0,0,0,0,0,0,0,0,0,0,0,0,0,0,0,0,0,0,0,0,0,0,0,0,0,0,0,0,0,0,0,0,0,
0,0,0,0,0,0,0,0,0,0,0,0,0,0,0,0,0,0,0,0,0,0,0,0,0,0,0,0,0,0,0,0,0,0,0,0,0,0,0,0,
0,0,0,0,0,0,0,0,0,0,0,0,0,0,0,0,0,0,0,0,0,0,0,0,0,0,0,0,0,0,0,0,0,0,0,0,0,0,0,0,
0,0,0,0,0,0,0,0,0,0,0,0,0,0,0,0,0,0,0,0,0,0,0,0,0,0,0,0,0,0,0,0,0,0,0,0,0,0,0,0,
0,0,0,0,0,0,0,0,0,0,0,0,0,0,0,0,0,0,0,0,0,0,0,0,0,0,0,0,0,0,0,0,0,0,0,0,0,0,0,0,
0,0,0,0,0,0,0,0,0,0,0,0,0,0,0,0,0,0,0,0,0,0,0,0,0,0,0,0,0,0,0,0,0,0,0,0,0,0,0,0,
0,0,0,0,0,0,0,0,0,0,0,0,0,0,0,0,0,0,0,0,0,0,0,0,0,0,0,0,0,0,0,0,0,0,0,0,0,0,0,0,
0,0,0,0,0,0,0,0,0,0,0,0,0,0,0,0,0,0,0,0,0,0,0,0,0,0,0,0,0,0,0,0,0,0,0,0,0,0,0,0,
0,0,0,0,0,0,0,0,0,0,0,0,0,0,0,0,0,0,0,0,0,0,0,0,0,0,0,0,0,0,0,0,0,0,0,0,0,0,0,0,
0,0,0,0,0,0,0,0,0,0,0,0,0,0,0,0,0,0,0,0,0,0,0,0,0,0,0,0,0,0,0,0,0,0,0,0,0,0,0,0,
0,0,0,0,0,0,0,0,0,0,0,0,0,0,0,0,0,0,0,0,0,0,0,0,0,0,0,0,0,0,0,0,0,0,0,0,0,0,0,0,
0,0,0,0,0,0,0,0,0,0,0,0,0,0,0,0,0,0,0,0,0,0,0,0,0,0,0,0,0,0,0,0,0,0,0,0,0,0,0,0,
0,0,0,0,0,0,0,0,0,0,0,0,0,0,0,0,0,0,0,0,0,0,0,0,0,0,0,0,0,0,0,0,0,0,0,0,0,0,0,0,
0,0,0,0,0,0,0,0,0,0,0,0,0,0,0,0,0,0,0,0,0,0,0,0,0,0,0,0,0,0,0,0,0,0,0,0,0,0,0,0,
0,0,0,0,0,0,0,0,0,0,0,0,0,0,0,0,0,0,0,0,0,0,0,0,0,0,0,0,0,0,0,0,0,0,0,0,0,0,0,0,
0,0,0,0,0,0,0,0,0,0,0,0,0,0,0,0,0,0,0,0,0,0,0,0,0,0,0,0,0,0,0,0,0,0,0,0,0,0,0,0,
0,0,0,0,0,0,0,0,0,0,0,0,0,0,0,0,0,0,0,0,0,0,0,0,0,0,0,0,0,0,0,0,0,0,0,0,0,0,0,0,
0,0,0,0,0,0,0,0,0,0,0,0,0,0,0,0,0,0,0,0,0,0,0,0,0,0,0,0,0,0,0,0,0,0,0,0,0,0,0,0,
0,0,0,0,0,0,0,0,0,0,0,0,0,0,0,0,0,0,0,0,0,0,0,0,0,0,0,0,0,0,0,0,0,0,0,0,0,0,0,0,
0,0,0,0,0,0,0,0,0,0,0,0,0,0,0,0,0,0,0,0,0,0,0,0,0,0,0,0,0,0,0,0,0,0,0,0,0,0,0,0,
0,0,0,0,0,0,0,0,0,0,0,0,0,0,0,0,0,0,0,0,0,0,0,0,0,0,0,0,0,0,0,0,0,0,0,0,0,0,0,0,
0,0,0,0,0,0,0,0,0,0,0,0,0,0,0,0,0,0,0,0,0,0,0,0,0,0,0,0,0,0,0,0,0,0,0,0,0,0,0,0,
0,0,0,0,0,0,0,0,0,0,0,0,0,0,0,0,0,0,0,0,0,0,0,0,0,0,0,0,0,0,0,0,0,0,0,0,0,0,0,0,
0,0,0,0,0,0,0,0,0,0,0,0,0,0,0,0,0,0,0,0,0,0,0,0,0,0,0,0,0,0,0,0,0,0,0,0,0,0,0,0,
0,0,0,0,0,0,0,0,0,0,0,0,0,0,0,0,0,0,0,0,0,0,0,0,0,0,0,0,0,0,0,0,0,0,0,0,0,0,0,0
</data>
 </layer>
</map>
