<?xml version="1.0" encoding="UTF-8"?>
<map version="1.10" tiledversion="1.12.2" orientation="orthogonal" renderorder="right-down" width="40" height="40" tilewidth="16" tileheight="16" infinite="0" nextlayerid="8" nextobjectid="1">
 <tileset firstgid="1" source="../tsx/mainlevbuild.tsx"/>
 <tileset firstgid="1703" source="../tsx/Inside_B.tsx"/>
 <tileset firstgid="2727" source="../tsx/Knowledge temple.tsx"/>
 <layer id="6" name="tiles" width="40" height="40">
  <data encoding="csv">
823,824,825,826,823,824,825,826,823,824,825,826,823,824,825,826,823,824,825,826,823,824,825,826,823,824,825,826,823,824,825,826,823,824,825,826,823,824,825,826,
860,861,862,863,860,861,862,863,860,861,862,863,860,861,862,863,860,861,862,863,860,861,862,863,860,861,862,863,860,861,862,863,860,861,862,863,860,861,862,863,
897,898,899,900,897,898,899,900,897,898,899,900,897,898,899,900,897,898,899,900,897,898,899,900,897,898,899,900,897,898,899,900,897,898,899,900,897,898,899,900,
934,935,936,937,934,935,936,937,934,935,936,937,934,935,936,937,934,935,936,937,934,935,936,937,934,935,936,937,934,935,936,937,934,935,936,937,934,935,936,937,
823,824,825,826,823,824,825,826,823,824,825,826,823,824,825,826,823,824,825,826,823,824,825,826,823,824,825,826,823,824,825,826,823,824,825,826,823,824,825,826,
860,861,862,863,860,861,862,863,860,861,862,863,860,861,862,863,860,861,862,863,860,861,862,863,860,861,862,863,860,861,862,863,860,861,862,863,860,861,862,863,
897,898,899,900,897,898,899,900,897,898,899,900,897,898,899,900,897,898,899,900,897,898,899,900,897,898,899,900,897,898,899,900,897,898,899,900,897,898,899,900,
934,935,936,937,934,935,936,937,934,935,936,937,934,935,936,937,934,935,936,937,934,935,936,937,934,935,936,937,934,935,936,937,934,935,936,937,934,935,936,937,
823,824,825,826,823,824,825,826,823,824,825,826,823,824,825,826,823,824,825,826,823,824,825,826,823,824,825,826,823,824,825,826,823,824,825,826,823,824,825,826,
860,861,862,863,860,861,862,863,860,861,862,863,860,861,862,863,860,861,862,863,860,861,862,863,860,861,862,863,860,861,862,863,860,861,862,863,860,861,862,863,
897,898,899,900,897,898,899,900,897,898,899,900,897,898,899,900,897,898,899,900,897,898,899,900,897,898,899,900,897,898,899,900,897,898,899,900,897,898,899,900,
934,935,936,937,934,935,936,937,934,935,936,937,934,935,936,937,934,935,936,937,934,935,936,937,934,935,936,937,934,935,936,937,934,935,936,937,934,935,936,937,
823,824,825,826,823,824,825,826,823,824,825,826,823,824,825,826,823,824,825,826,823,824,825,826,823,824,825,826,823,824,825,826,823,824,825,826,823,824,825,826,
860,861,862,863,860,861,862,863,860,861,862,863,860,861,862,863,860,861,862,863,860,861,862,863,860,861,862,863,860,861,862,863,860,861,862,863,860,861,862,863,
897,898,899,900,897,898,899,900,897,898,899,900,897,898,899,900,897,898,899,900,897,898,899,900,897,898,899,900,897,898,899,900,897,898,899,900,897,898,899,900,
934,935,936,937,934,935,936,937,934,935,936,937,934,935,936,937,934,935,936,937,934,935,936,937,934,935,936,937,934,935,936,937,934,935,936,937,934,935,936,937,
823,824,825,826,823,824,825,826,823,824,825,826,823,824,825,826,823,824,825,826,823,824,825,826,823,824,825,826,823,824,825,826,823,824,825,826,823,824,825,826,
860,861,862,863,860,861,862,863,860,861,862,863,860,861,862,863,860,861,862,863,860,861,862,863,860,861,862,863,860,861,862,863,860,861,862,863,860,861,862,863,
897,898,899,900,897,898,899,900,897,898,899,900,897,898,899,900,897,898,899,900,897,898,899,900,897,898,899,900,897,898,899,900,897,898,899,900,897,898,899,900,
934,935,936,937,934,935,936,937,934,935,936,937,934,935,936,937,934,935,936,937,934,935,936,937,934,935,936,937,934,935,936,937,934,935,936,937,934,935,936,937,
823,824,825,826,823,824,825,826,823,824,825,826,823,824,825,826,823,824,825,826,823,824,825,826,823,824,825,826,823,824,825,826,823,824,825,826,823,824,825,826,
860,861,862,863,860,861,862,863,860,861,862,863,860,861,862,863,860,861,862,863,860,861,862,863,860,861,862,863,860,861,862,863,860,861,862,863,860,861,862,863,
897,898,899,900,897,898,899,900,897,898,899,900,897,898,899,900,897,898,899,900,897,898,899,900,897,898,899,900,897,898,899,900,897,898,899,900,897,898,899,900,
934,935,936,937,934,935,936,937,934,935,936,937,934,935,936,937,934,935,936,937,934,935,936,937,934,935,936,937,934,935,936,937,934,935,936,937,934,935,936,937,
823,824,825,826,823,824,825,826,823,824,825,826,823,824,825,826,823,824,825,826,823,824,825,826,823,824,825,826,823,824,825,826,823,824,825,826,823,824,825,826,
860,861,862,863,860,861,862,863,860,861,862,863,860,861,862,863,860,861,862,863,860,861,862,863,860,861,862,863,860,861,862,863,860,861,862,863,860,861,862,863,
897,898,899,900,897,898,899,900,897,898,899,900,897,898,899,900,897,898,899,900,897,898,899,900,897,898,899,900,897,898,899,900,897,898,899,900,897,898,899,900,
934,935,936,937,934,935,936,937,934,935,936,937,934,935,936,937,934,935,936,937,934,935,936,937,934,935,936,937,934,935,936,937,934,935,936,937,934,935,936,937,
823,824,825,826,823,824,825,826,823,824,825,826,823,824,825,826,823,824,825,826,823,824,825,826,823,824,825,826,823,824,825,826,823,824,825,826,823,824,825,826,
860,861,862,863,860,861,862,863,860,861,862,863,860,861,862,863,860,861,862,863,860,861,862,863,860,861,862,863,860,861,862,863,860,861,862,863,860,861,862,863,
897,898,899,900,897,898,899,900,897,898,899,900,897,898,899,900,897,898,899,900,897,898,899,900,897,898,899,900,897,898,899,900,897,898,899,900,897,898,899,900,
934,935,936,937,934,935,936,937,934,935,936,937,934,935,936,937,934,935,936,937,934,935,936,937,934,935,936,937,934,935,936,937,934,935,936,937,934,935,936,937,
823,824,825,826,823,824,825,826,823,824,825,826,823,824,825,826,823,824,825,826,823,824,825,826,823,824,825,826,823,824,825,826,823,824,825,826,823,824,825,826,
860,861,862,863,860,861,862,863,860,861,862,863,860,861,862,863,860,861,862,863,860,861,862,863,860,861,862,863,860,861,862,863,860,861,862,863,860,861,862,863,
897,898,899,900,897,898,899,900,897,898,899,900,897,898,899,900,897,898,899,900,897,898,899,900,897,898,899,900,897,898,899,900,897,898,899,900,897,898,899,900,
934,935,936,937,934,935,936,937,934,935,936,937,934,935,936,937,934,935,936,937,934,935,936,937,934,935,936,937,934,935,936,937,934,935,936,937,934,935,936,937,
823,824,825,826,823,824,825,826,823,824,825,826,823,824,825,826,823,824,825,826,823,824,825,826,823,824,825,826,823,824,825,826,823,824,825,826,823,824,825,826,
860,861,862,863,860,861,862,863,860,861,862,863,860,861,862,863,860,861,862,863,860,861,862,863,860,861,862,863,860,861,862,863,860,861,862,863,860,861,862,863,
897,898,899,900,897,898,899,900,897,898,899,900,897,898,899,900,897,898,899,900,897,898,899,900,897,898,899,900,897,898,899,900,897,898,899,900,897,898,899,900,
934,935,936,937,934,935,936,937,934,935,936,937,934,935,936,937,934,935,936,937,934,935,936,937,934,935,936,937,934,935,936,937,934,935,936,937,934,935,936,937
</data>
 </layer>
 <layer id="1" name="walls" width="40" height="40">
  <data encoding="csv">
0,0,0,0,0,0,0,0,0,0,0,0,0,0,0,0,0,0,0,0,0,0,0,0,0,0,0,0,0,0,0,0,0,0,0,0,0,0,0,0,
0,0,0,0,0,0,0,0,0,0,0,0,0,0,0,0,0,0,0,0,0,0,0,0,0,0,0,0,0,0,0,0,0,0,0,0,0,0,0,0,
0,7,8,8,8,8,8,8,8,8,8,8,8,8,8,8,8,8,8,8,8,8,16,7,8,8,8,8,8,8,8,8,8,8,8,8,8,8,16,0,
0,118,342,342,342,342,342,342,342,342,342,342,342,342,342,342,342,342,342,342,342,342,53,44,342,342,342,342,342,342,342,342,342,342,342,342,342,342,127,0,
0,118,342,342,342,342,342,342,342,342,342,342,342,342,342,342,342,342,342,342,342,342,90,81,342,342,342,342,342,342,342,342,342,342,342,342,342,342,127,0,
0,118,342,342,342,342,342,342,342,342,342,342,342,342,342,342,342,342,342,342,342,342,127,118,342,342,342,342,342,342,342,342,342,342,342,342,342,342,127,0,
0,118,342,342,342,342,342,342,342,342,342,342,342,342,342,342,342,342,342,342,342,342,164,155,342,342,342,342,342,342,342,342,342,342,342,342,342,342,127,0,
0,118,342,342,342,342,342,342,342,342,342,342,342,342,342,342,342,342,342,342,342,342,201,192,342,342,342,342,342,342,342,342,342,342,342,342,342,342,127,0,
0,118,416,416,416,416,416,416,416,416,416,416,416,416,416,416,416,416,416,416,416,416,127,118,416,416,416,416,416,416,416,416,416,416,416,416,416,416,127,0,
0,118,0,0,0,0,0,0,0,0,0,0,0,0,0,0,0,0,0,0,0,0,127,118,0,0,0,0,0,0,0,0,0,0,0,0,0,0,127,0,
0,118,0,0,0,0,0,0,0,0,0,0,0,0,0,0,0,0,0,0,0,0,90,118,0,0,0,0,0,0,0,0,0,0,0,0,0,0,127,0,
0,81,0,0,0,0,0,0,0,0,0,0,0,0,0,0,0,0,0,0,0,0,127,118,0,0,0,0,0,0,0,0,0,0,0,0,0,0,127,0,
0,118,0,0,0,0,0,0,0,0,0,0,0,0,0,0,0,0,0,0,0,0,164,155,0,0,0,0,0,0,0,0,0,0,0,0,0,0,127,0,
0,155,0,0,0,0,0,0,0,0,0,0,0,0,0,0,0,0,0,0,0,0,201,118,0,0,0,0,0,0,0,0,0,0,0,0,0,0,127,0,
0,118,0,0,0,0,0,0,0,0,0,0,0,0,0,0,0,0,0,0,0,0,127,118,0,0,0,0,0,0,0,0,0,0,0,0,0,0,127,0,
0,118,0,0,0,0,0,0,0,0,0,0,0,0,0,0,0,0,0,0,0,0,127,81,0,0,0,0,0,0,0,0,0,0,0,0,0,0,127,0,
0,81,0,0,0,0,0,0,0,0,0,0,0,0,0,0,0,0,0,0,0,0,127,118,0,0,0,0,0,0,0,0,0,0,0,0,0,0,127,0,
0,118,0,0,0,0,0,0,0,0,0,0,0,0,0,0,0,0,0,0,0,0,164,155,0,0,0,0,0,0,0,0,0,0,0,0,0,0,127,0,
0,155,0,0,0,0,0,0,0,0,0,0,0,0,0,0,0,0,0,0,0,0,201,192,0,0,0,0,0,0,0,0,0,0,0,0,0,0,127,0,
0,192,0,0,0,0,0,0,0,0,0,0,0,0,0,0,0,0,0,0,0,0,238,229,0,0,0,0,0,0,0,0,0,0,0,0,0,0,127,0,
0,118,0,0,0,0,0,0,0,0,0,0,0,0,0,0,0,0,0,0,0,0,127,118,0,0,0,0,0,0,0,0,0,0,0,0,0,0,201,0,
267,266,267,268,267,267,268,0,0,0,0,0,0,267,268,268,268,269,270,267,268,269,275,266,272,273,274,267,268,269,0,0,0,0,0,0,273,274,275,271,
304,305,304,305,304,304,305,0,0,0,0,0,0,304,305,305,305,341,307,304,305,341,307,308,341,310,311,304,305,341,0,0,0,0,0,0,310,311,307,308,
341,342,341,342,341,341,342,0,0,0,0,0,0,341,342,342,342,341,344,341,342,341,344,345,341,347,348,341,341,341,0,0,0,0,0,0,347,348,344,345,
341,341,341,341,341,341,0,0,0,0,0,0,0,0,341,341,342,127,342,378,379,341,381,382,341,384,385,378,341,341,0,0,0,0,0,0,347,347,381,382,
341,341,341,341,341,341,0,0,0,0,0,0,0,0,341,341,342,127,342,341,341,341,341,341,341,341,341,341,341,341,0,0,0,0,0,0,341,341,341,341,
341,341,341,341,341,341,0,0,0,0,0,0,0,0,341,341,342,164,342,341,341,341,341,341,341,341,341,341,341,341,0,0,0,0,0,0,341,341,341,341,
416,416,416,416,416,416,0,0,0,0,0,0,0,0,415,415,416,127,415,415,415,415,415,415,415,415,415,415,415,415,0,0,0,0,0,0,415,415,415,415,
0,0,0,0,0,0,0,0,0,0,0,0,0,0,0,0,0,164,0,0,0,0,0,0,0,0,0,0,0,0,0,0,0,0,0,0,0,0,0,0,
0,0,0,0,0,0,0,0,0,0,0,0,0,0,0,0,0,127,0,0,0,0,0,0,0,0,0,0,0,0,0,0,0,0,0,0,0,0,0,0,
0,0,0,0,0,0,0,0,0,0,0,0,0,0,0,0,0,164,0,0,0,0,0,0,0,0,0,0,0,0,0,0,0,0,0,0,0,0,0,0,
0,0,0,0,0,0,0,0,0,0,0,0,0,0,0,0,0,127,0,0,0,0,0,0,0,0,0,0,0,0,0,0,0,0,0,0,0,0,0,0,
0,0,0,0,0,0,0,0,0,0,0,0,0,0,0,0,0,164,0,0,0,0,0,0,0,0,0,0,0,0,0,0,0,0,0,0,0,0,0,0,
15,15,15,15,15,15,16,0,0,0,0,0,0,7,8,8,8,8,15,15,8,16,0,0,0,0,0,0,7,8,8,8,8,8,8,8,8,8,8,8,
0,0,0,0,0,0,90,0,0,0,0,0,0,81,0,0,0,0,0,0,0,90,0,0,0,0,0,0,81,0,0,0,0,0,0,0,0,0,0,0,
0,0,0,0,0,0,127,0,0,0,0,0,0,118,0,0,0,0,0,0,0,127,0,0,0,0,0,0,118,0,0,0,0,0,0,0,0,0,0,0,
0,0,0,0,0,0,164,0,0,0,0,0,0,155,0,0,0,0,0,0,0,164,0,0,0,0,0,0,155,0,0,0,0,0,0,0,0,0,0,0,
0,0,0,0,0,0,201,0,0,0,0,0,0,81,0,0,0,0,0,0,0,90,0,0,0,0,0,0,81,0,0,0,0,0,0,0,0,0,0,0,
0,0,0,0,0,0,164,0,0,0,0,0,0,118,0,0,0,0,0,0,0,127,0,0,0,0,0,0,118,0,0,0,0,0,0,0,0,0,0,0,
0,0,0,0,0,0,201,0,0,0,0,0,0,155,0,0,0,0,0,0,0,164,0,0,0,0,0,0,155,0,0,0,0,0,0,0,0,0,0,0
</data>
 </layer>
 <layer id="2" name="stairs" width="40" height="40">
  <data encoding="csv">
0,0,0,0,0,0,0,0,0,0,0,0,0,0,0,0,0,0,0,0,0,0,0,0,0,0,0,0,0,0,0,0,0,0,0,0,0,0,0,0,
0,0,0,0,0,0,0,0,0,0,0,0,0,0,0,0,0,0,0,0,0,0,0,0,0,0,0,0,0,0,0,0,0,0,0,0,0,0,0,0,
0,0,0,0,0,0,0,0,0,0,0,0,0,0,0,0,0,0,0,0,0,0,0,0,0,0,0,0,0,0,0,0,0,0,0,0,0,0,0,0,
0,0,0,0,0,0,0,0,0,0,0,0,0,0,0,0,0,0,0,0,0,0,0,0,0,0,0,0,0,0,0,0,0,0,0,0,0,0,0,0,
0,0,0,0,0,0,0,0,0,0,0,0,0,0,0,0,0,0,0,0,0,0,0,0,0,0,0,0,0,0,0,0,0,0,0,0,0,0,0,0,
0,0,0,0,0,0,0,0,0,0,0,0,0,0,0,0,0,0,0,0,0,0,0,0,0,0,0,0,0,0,0,0,0,0,0,0,0,0,0,0,
0,0,0,0,0,0,0,0,0,0,0,0,0,0,0,0,0,0,0,0,0,0,0,0,0,0,0,0,0,0,0,0,0,0,0,0,0,0,0,0,
0,0,0,0,0,0,0,0,0,0,0,0,0,0,0,0,0,0,0,0,0,0,0,0,0,0,0,0,0,0,0,0,0,0,0,0,0,0,0,0,
0,0,0,0,0,0,0,0,0,0,0,0,0,0,0,0,0,0,0,0,0,0,0,0,0,0,0,0,0,0,0,0,0,0,0,0,0,0,0,0,
0,0,0,0,0,0,0,0,0,0,0,0,0,0,0,0,0,0,0,0,0,0,0,0,0,0,0,0,0,0,0,0,0,0,0,0,0,0,0,0,
0,0,0,0,0,0,0,0,0,0,0,0,0,0,0,0,0,0,0,0,0,0,0,0,0,0,0,0,0,0,0,0,0,0,0,0,0,0,0,0,
0,0,0,0,0,0,0,0,0,0,0,0,0,0,0,0,0,0,0,0,0,0,0,0,0,0,0,0,0,0,0,0,0,0,0,0,0,0,0,0,
0,0,0,0,0,0,0,0,0,0,0,0,0,0,0,0,0,0,0,0,0,0,0,0,0,0,0,0,0,0,0,0,0,0,0,0,0,0,0,0,
0,0,0,0,0,0,0,0,0,0,0,0,0,0,0,0,0,0,0,0,0,0,0,0,0,0,0,0,0,0,0,0,0,0,0,0,0,0,0,0,
0,0,0,0,0,0,0,0,0,0,0,0,0,0,0,0,0,0,0,0,0,0,0,0,0,0,0,0,0,0,0,0,0,0,0,0,0,0,0,0,
0,0,0,0,0,0,0,0,0,0,0,0,0,0,0,0,0,0,0,0,0,0,0,0,0,0,0,0,0,0,0,0,0,0,0,0,0,0,0,0,
0,0,0,0,0,0,0,0,0,0,0,0,0,0,0,0,0,0,0,0,0,0,0,0,0,0,0,0,0,0,0,0,0,0,0,0,0,0,0,0,
0,0,0,0,0,0,0,0,0,0,0,0,0,0,0,0,0,0,0,0,0,0,0,0,0,0,0,0,0,0,0,0,0,0,0,0,0,0,0,0,
0,0,0,0,0,0,0,0,0,0,0,0,0,0,0,0,0,0,0,0,0,0,0,0,0,0,0,0,0,0,0,0,0,0,0,0,0,0,0,0,
0,0,0,0,0,0,0,0,0,0,0,0,0,0,0,0,0,0,0,0,0,0,0,0,0,0,0,0,0,0,0,0,0,0,0,0,0,0,0,0,
0,0,0,0,0,0,0,0,0,0,0,0,0,0,0,0,0,0,0,0,0,0,0,0,0,0,0,0,0,0,0,0,0,0,0,0,0,0,0,0,
0,0,0,0,0,0,0,0,0,0,0,0,0,0,0,0,0,0,0,0,0,0,0,0,0,0,0,0,0,0,0,0,0,0,0,0,0,0,0,0,
0,0,0,0,0,0,0,0,0,0,0,0,0,0,0,0,0,0,0,0,0,0,0,0,0,0,0,0,0,0,0,0,0,0,0,0,0,0,0,0,
0,0,0,0,0,0,0,1248,1249,1248,1249,1250,1251,0,0,0,0,0,0,0,0,0,0,0,0,0,0,0,0,0,0,0,0,0,0,0,0,0,0,0,
0,0,0,0,0,0,0,1285,1286,1285,1286,1287,1288,0,0,0,0,0,0,0,0,0,0,0,0,0,0,0,0,0,0,0,0,0,0,0,0,0,0,0,
0,0,0,0,0,0,1248,1249,1250,1251,1248,1249,1250,1251,0,0,0,0,0,0,0,0,0,0,0,0,0,0,0,0,0,0,0,0,0,0,0,0,0,0,
0,0,0,0,0,0,1285,1286,1287,1288,1285,1286,1287,1288,0,0,0,0,0,0,0,0,0,0,0,0,0,0,0,0,0,0,0,0,0,0,0,0,0,0,
0,0,0,0,0,0,0,0,0,0,0,0,0,0,0,0,0,0,0,0,0,0,0,0,0,0,0,0,0,0,0,0,0,0,0,0,0,0,0,0,
0,0,0,0,0,0,0,0,0,0,0,0,0,0,0,0,0,0,0,0,0,0,0,0,0,0,0,0,0,0,0,0,0,0,0,0,0,0,0,0,
0,0,0,0,0,0,0,0,0,0,0,0,0,0,0,0,0,0,0,0,0,0,0,0,0,0,0,0,0,0,0,0,0,0,0,0,0,0,0,0,
0,0,0,0,0,0,0,0,0,0,0,0,0,0,0,0,0,0,0,0,0,0,0,0,0,0,0,0,0,0,0,0,0,0,0,0,0,0,0,0,
0,0,0,0,0,0,0,0,0,0,0,0,0,0,0,0,0,0,0,0,0,0,0,0,0,0,0,0,0,0,0,0,0,0,0,0,0,0,0,0,
0,0,0,0,0,0,0,0,0,0,0,0,0,0,0,0,0,0,0,0,0,0,0,0,0,0,0,0,0,0,0,0,0,0,0,0,0,0,0,0,
0,0,0,0,0,0,0,0,0,0,0,0,0,0,0,0,0,0,0,0,0,0,0,0,0,0,0,0,0,0,0,0,0,0,0,0,0,0,0,0,
0,0,0,0,0,0,0,0,0,0,0,0,0,0,0,0,0,0,0,0,0,0,0,0,0,0,0,0,0,0,0,0,0,0,0,0,0,0,0,0,
0,0,0,0,0,0,0,0,0,0,0,0,0,0,0,0,0,0,0,0,0,0,0,0,0,0,0,0,0,0,0,0,0,0,0,0,0,0,0,0,
0,0,0,0,0,0,0,0,0,0,0,0,0,0,0,0,0,0,0,0,0,0,0,0,0,0,0,0,0,0,0,0,0,0,0,0,0,0,0,0,
0,0,0,0,0,0,0,0,0,0,0,0,0,0,0,0,0,0,0,0,0,0,0,0,0,0,0,0,0,0,0,0,0,0,0,0,0,0,0,0,
0,0,0,0,0,0,0,0,0,0,0,0,0,0,0,0,0,0,0,0,0,0,0,0,0,0,0,0,0,0,0,0,0,0,0,0,0,0,0,0,
0,0,0,0,0,0,0,0,0,0,0,0,0,0,0,0,0,0,0,0,0,0,0,0,0,0,0,0,0,0,0,0,0,0,0,0,0,0,0,0
</data>
 </layer>
 <layer id="3" name="pillars" width="40" height="40">
  <data encoding="csv">
0,0,0,0,0,0,0,0,0,0,0,0,0,0,0,0,0,0,0,0,0,0,0,0,0,0,0,0,0,0,0,0,0,0,0,0,0,0,0,0,
0,0,0,0,0,0,0,0,0,0,0,0,0,0,0,0,0,0,0,0,0,0,0,0,0,0,0,0,0,0,0,0,0,0,0,0,0,0,0,0,
0,0,0,0,0,0,0,0,0,0,0,0,0,0,0,0,0,0,0,0,0,0,0,0,0,0,0,0,0,0,0,0,0,0,0,0,0,0,0,0,
0,0,0,0,0,0,0,0,0,0,0,0,0,0,0,0,0,0,0,0,0,0,0,0,0,0,0,0,0,0,0,0,0,0,0,0,0,0,0,0,
0,0,0,0,0,0,0,0,0,0,0,0,0,0,0,0,0,0,0,0,0,0,0,0,0,0,0,0,0,0,0,0,0,0,0,0,0,0,0,0,
0,0,0,0,0,0,0,0,0,0,0,0,0,0,0,0,0,0,0,0,0,0,0,0,0,0,0,0,0,0,0,0,0,0,0,0,0,0,0,0,
0,0,0,0,0,0,0,0,0,0,0,0,0,0,0,0,0,0,0,0,0,0,0,0,0,0,0,0,0,0,0,0,0,0,0,0,0,0,0,0,
0,0,0,0,0,0,0,0,0,0,0,0,0,0,0,0,0,0,0,0,0,0,0,0,0,0,0,0,0,0,0,0,0,0,0,0,0,0,0,0,
0,0,0,0,0,0,0,0,0,0,0,0,0,0,0,0,0,0,0,0,0,0,0,0,0,0,0,0,0,0,0,0,0,0,0,0,0,0,0,0,
0,0,0,0,0,0,0,0,0,0,0,0,0,0,0,0,0,0,0,0,0,0,0,0,0,0,0,0,0,0,0,0,0,0,0,0,0,0,0,0,
0,0,0,0,0,0,0,0,0,0,0,0,0,0,0,0,0,0,0,0,0,0,0,0,0,0,0,0,0,0,0,0,0,0,0,0,0,0,0,0,
0,0,0,0,0,0,0,0,0,0,0,0,0,0,0,0,0,0,0,0,0,0,0,0,0,0,0,0,0,0,0,0,0,0,0,0,0,0,0,0,
0,0,0,0,0,0,0,0,0,0,0,0,0,0,0,0,0,0,0,0,0,0,0,0,0,0,0,0,0,0,0,0,0,0,0,0,0,0,0,0,
0,0,0,0,0,0,0,0,0,0,0,0,0,0,0,0,0,0,0,0,0,0,0,0,0,0,0,0,0,0,0,0,0,0,0,0,0,0,0,0,
0,0,0,0,0,0,0,0,0,0,0,0,0,0,0,0,0,0,0,0,0,0,0,0,0,0,0,0,0,0,0,0,0,0,0,0,0,0,0,0,
0,0,0,0,0,0,0,0,0,0,0,0,0,0,0,0,0,0,0,0,0,0,0,0,0,0,0,0,0,0,0,0,0,0,0,0,0,0,0,0,
0,0,0,0,0,0,0,0,0,0,0,0,0,0,0,0,0,0,0,0,0,0,0,0,0,0,0,0,0,0,0,0,0,0,0,0,0,0,0,0,
0,0,0,0,0,0,0,0,0,0,0,0,0,0,0,0,0,0,0,0,0,0,0,0,0,0,0,0,0,0,0,0,0,0,0,0,0,0,0,0,
0,0,0,0,0,0,0,0,0,0,0,0,0,0,0,0,0,0,0,0,0,0,0,0,0,0,0,0,0,0,0,0,0,0,0,0,0,0,0,0,
0,0,0,0,0,0,0,0,0,0,0,0,0,0,0,0,0,0,0,0,0,0,0,0,0,0,0,0,0,0,0,0,0,0,0,0,0,0,0,0,
0,0,0,0,0,0,0,0,0,0,0,0,0,0,0,0,0,0,0,0,0,0,0,0,0,0,0,0,0,0,0,0,0,0,0,0,0,0,0,0,
0,0,0,0,0,0,1026,0,0,0,0,0,0,1026,0,0,0,0,0,0,0,0,0,0,0,0,0,0,0,503,0,0,0,0,0,0,503,0,0,0,
0,0,0,0,0,0,1063,1248,1249,1248,1249,1250,1251,1063,0,0,0,90,81,0,0,0,0,0,0,0,0,0,0,540,1248,1249,1248,1249,1250,1251,540,0,0,0,
0,0,0,0,0,0,1433,1285,1286,1285,1286,1287,1288,1433,0,0,0,90,81,0,0,0,0,0,0,0,0,0,0,577,1285,1286,1285,1286,1287,1288,577,0,0,0,
0,0,0,0,0,0,1470,0,0,0,0,0,0,1470,0,0,0,0,81,0,0,0,0,0,0,0,0,0,0,614,1285,1286,1285,1286,1287,1288,614,0,0,0,
0,0,0,0,0,0,1507,0,0,0,0,0,0,1507,0,0,0,0,81,0,0,0,0,0,0,0,0,0,0,577,1248,1249,1248,1249,1250,1251,577,0,0,0,
0,0,0,0,0,1506,1507,1508,0,0,0,0,1506,1507,1508,0,0,0,118,0,0,0,0,0,0,0,0,0,0,614,1285,1286,1285,1286,1287,1288,614,0,0,0,
0,0,0,0,0,1543,1544,1545,0,0,0,0,1543,1544,1545,0,0,0,155,0,0,0,0,0,0,0,0,0,0,651,0,0,0,0,0,0,651,0,0,0,
0,0,0,0,0,0,0,0,0,0,0,0,0,0,0,0,0,0,192,0,0,0,0,0,0,0,0,0,0,0,0,0,0,0,0,0,0,0,0,0,
0,0,0,0,0,0,0,0,0,0,0,0,0,0,0,0,0,0,229,0,0,0,0,0,0,0,0,0,0,0,0,0,0,0,0,0,0,0,0,0,
0,0,0,0,0,0,0,0,0,0,0,0,0,0,0,0,0,0,155,0,0,0,0,0,0,0,0,0,0,0,0,0,0,0,0,0,0,0,0,0,
0,0,0,0,0,0,0,0,0,0,0,0,0,0,0,0,0,0,192,0,0,0,0,0,0,0,0,0,0,0,0,0,0,0,0,0,0,0,0,0,
0,0,0,0,0,0,0,0,0,0,0,0,0,0,0,0,0,0,229,0,0,0,0,0,0,0,0,0,0,0,0,0,0,0,0,0,0,0,0,0,
0,0,0,0,0,0,0,0,0,0,0,0,0,0,0,0,0,0,0,0,0,0,0,0,0,0,0,0,0,0,0,0,0,0,0,0,0,0,0,0,
0,0,0,0,0,0,0,0,0,0,0,0,0,0,0,0,0,0,0,0,0,0,0,0,0,0,0,0,0,0,0,0,0,0,0,0,0,0,0,0,
0,0,0,0,0,0,0,0,0,0,0,0,0,0,0,0,0,0,0,0,0,0,0,0,0,0,0,0,0,0,0,0,0,0,0,0,0,0,0,0,
0,0,0,0,0,0,0,0,0,0,0,0,0,0,0,0,0,0,0,0,0,0,0,0,0,0,0,0,0,0,0,0,0,0,0,0,0,0,0,0,
0,0,0,0,0,0,0,0,0,0,0,0,0,0,0,0,0,0,0,0,0,0,0,0,0,0,0,0,0,0,0,0,0,0,0,0,0,0,0,0,
0,0,0,0,0,0,0,0,0,0,0,0,0,0,0,0,0,0,0,0,0,0,0,0,0,0,0,0,0,0,0,0,0,0,0,0,0,0,0,0,
0,0,0,0,0,0,0,0,0,0,0,0,0,0,0,0,0,0,0,0,0,0,0,0,0,0,0,0,0,0,0,0,0,0,0,0,0,0,0,0
</data>
 </layer>
 <layer id="5" name="dakrness" width="40" height="40">
  <data encoding="csv">
156,157,158,159,156,157,158,159,156,157,158,159,156,157,158,159,156,157,158,159,156,157,158,159,156,157,158,159,157,158,159,156,157,158,159,156,157,158,159,193,
85,194,195,196,193,194,195,196,193,194,195,196,193,194,195,196,193,194,195,196,193,194,195,196,193,194,195,196,194,195,196,193,194,195,196,193,194,195,196,193,
122,0,0,0,0,0,0,0,0,0,0,0,0,0,0,0,0,0,0,0,0,0,0,0,0,0,0,0,0,0,0,0,0,0,0,0,0,0,0,193,
159,0,0,0,0,0,0,0,0,0,0,0,0,0,0,0,0,0,0,0,0,0,127,118,0,0,0,0,0,0,0,0,0,0,0,0,0,0,0,193,
196,0,0,83,83,83,83,83,83,0,83,83,83,83,0,83,83,83,83,83,83,0,0,0,0,83,83,83,83,83,83,0,83,83,83,83,83,0,0,193,
85,0,0,120,120,120,120,120,120,0,120,120,120,120,0,120,120,120,120,120,120,0,0,0,0,120,120,120,120,120,120,0,120,120,120,120,120,0,0,193,
122,0,0,157,157,157,157,157,157,0,157,157,157,157,0,157,157,157,157,157,157,0,0,0,0,157,157,157,157,157,157,0,157,157,157,157,157,0,0,193,
159,0,0,194,194,194,194,194,194,0,194,194,194,194,0,194,194,194,194,194,194,0,0,0,0,194,194,194,194,194,194,0,194,194,194,194,194,0,0,193,
196,0,0,0,0,0,0,0,0,0,0,0,0,0,0,0,0,0,0,0,0,0,0,0,0,0,0,0,0,0,0,0,0,0,0,0,0,0,0,193,
85,0,0,0,0,0,0,0,0,0,0,0,0,0,0,0,0,0,0,0,0,0,0,0,0,0,0,0,0,0,0,0,0,0,0,0,0,0,0,193,
122,0,0,0,0,0,0,0,0,0,0,0,0,0,0,0,0,0,0,0,0,0,0,0,0,0,0,0,0,0,0,0,0,0,0,0,0,0,0,193,
159,0,0,0,0,0,0,0,0,0,0,0,0,0,0,0,0,0,0,0,0,0,0,0,0,0,0,0,0,0,0,0,0,0,0,0,0,0,0,193,
196,0,0,0,0,0,0,0,0,0,0,0,0,0,0,0,0,0,0,0,0,0,0,0,0,0,0,0,0,0,0,0,0,0,0,0,0,0,0,193,
85,0,0,0,0,0,0,0,0,0,0,0,0,0,0,0,0,0,0,0,0,0,0,0,0,0,0,0,0,0,0,0,0,0,0,0,0,0,0,193,
122,0,0,0,0,0,0,0,0,0,0,0,0,0,0,0,0,0,0,0,0,0,0,0,0,0,0,0,0,0,0,0,0,0,0,0,0,0,0,193,
159,0,0,0,0,0,0,0,0,0,0,0,0,0,0,0,0,0,0,0,0,0,0,0,0,0,0,0,0,0,0,0,0,0,0,0,0,0,0,193,
85,0,0,0,0,0,0,0,0,0,0,0,0,0,0,0,0,0,0,0,0,0,0,0,0,0,0,0,0,0,0,0,0,0,0,0,0,0,0,193,
122,0,0,0,0,0,0,0,0,0,0,0,0,0,0,0,0,0,0,0,0,0,0,0,0,0,0,0,0,0,0,0,0,0,0,0,0,0,0,193,
159,0,0,0,0,0,0,0,0,0,0,0,0,0,0,0,0,0,0,0,0,0,0,0,0,0,0,0,0,0,0,0,0,0,0,0,0,0,0,193,
196,0,0,0,0,0,0,0,0,0,0,0,0,0,0,0,0,0,0,0,0,0,0,0,0,0,0,0,0,0,0,0,0,0,0,0,0,0,0,193,
196,0,0,0,0,0,0,0,0,0,0,0,0,0,0,0,0,0,0,0,0,0,0,0,0,0,0,0,0,0,0,0,0,0,0,0,0,0,0,193,
0,0,0,0,0,0,0,0,0,0,0,0,0,0,0,0,0,0,0,0,0,0,0,0,0,0,0,0,0,0,0,0,0,0,0,0,0,0,0,0,
0,0,0,0,0,0,0,0,0,0,0,0,0,0,0,0,0,0,0,0,0,0,0,0,0,0,0,0,0,0,0,0,0,0,0,0,0,0,0,0,
0,0,0,0,0,0,0,0,0,0,0,0,0,0,0,0,0,0,0,0,83,84,85,83,84,85,86,87,0,0,0,0,0,0,0,0,0,0,0,0,
0,0,0,0,0,0,0,0,0,0,0,0,0,0,0,0,0,0,0,0,83,84,85,86,87,85,86,87,0,0,0,0,0,0,0,0,0,0,0,0,
0,0,0,0,0,0,0,0,0,0,0,0,0,0,0,0,0,0,0,0,120,121,122,123,124,122,123,124,0,0,0,0,0,0,0,0,0,0,0,0,
0,0,0,0,0,0,0,0,0,0,0,0,0,0,0,0,0,0,0,0,157,158,159,160,161,159,160,161,0,0,0,0,0,0,0,0,0,0,0,0,
0,0,0,0,0,0,0,0,0,0,0,0,0,0,0,0,0,0,0,0,0,0,0,0,0,0,0,0,0,0,0,0,0,0,0,0,0,0,0,0,
0,0,0,0,0,0,0,0,0,0,0,0,0,0,0,0,0,0,0,0,0,0,0,0,0,0,0,0,0,0,0,0,0,0,0,0,0,0,0,0,
0,0,0,0,0,0,0,0,0,0,0,0,0,0,0,0,0,0,0,0,0,0,0,0,0,0,0,0,0,0,0,0,0,0,0,0,0,0,0,0,
0,0,0,0,0,0,0,0,0,0,0,0,0,0,0,0,0,0,0,0,0,0,0,0,0,0,0,0,0,0,0,0,0,0,0,0,0,0,0,0,
0,0,0,0,0,0,0,0,0,0,0,0,0,0,0,0,0,0,0,0,0,0,0,0,0,0,0,0,0,0,0,0,0,0,0,0,0,0,0,0,
0,0,0,0,0,0,0,0,0,0,0,0,0,0,0,0,0,0,0,0,0,0,0,0,0,0,0,0,0,0,0,0,0,0,0,0,0,0,0,0,
0,0,0,0,0,0,0,0,0,0,0,0,0,0,0,0,0,0,0,0,0,0,0,0,0,0,0,0,0,0,0,0,0,0,0,0,0,0,0,0,
83,84,85,85,85,85,0,0,0,0,0,0,0,0,82,82,82,82,83,84,85,0,0,0,0,0,0,0,0,82,82,83,82,82,82,82,82,83,84,85,
83,84,85,122,122,122,0,0,0,0,0,0,0,0,119,119,119,82,83,84,85,0,0,0,0,0,0,0,0,119,119,82,119,119,119,119,82,83,84,85,
82,82,83,84,85,159,0,0,0,0,0,0,0,0,156,156,156,82,83,84,85,0,0,0,0,0,0,0,0,156,156,119,82,83,84,85,85,85,85,85,
119,82,82,83,84,85,0,0,0,0,0,0,0,0,82,83,84,85,85,85,85,0,0,0,0,0,0,0,0,82,83,84,85,85,85,85,122,122,122,122,
156,119,119,120,121,122,0,0,0,0,0,0,0,0,119,120,121,122,122,122,122,0,0,0,0,0,0,0,0,119,120,121,122,122,122,122,159,159,159,159,
193,156,156,157,158,159,0,0,0,0,0,0,0,0,156,157,158,159,159,159,159,0,0,0,0,0,0,0,0,156,157,158,159,159,159,159,196,196,196,196
</data>
 </layer>
 <layer id="7" name="statue" width="40" height="40">
  <data encoding="csv">
0,0,0,0,0,0,0,0,0,0,0,0,0,0,0,0,0,0,0,0,0,0,0,0,0,0,0,0,0,0,0,0,0,0,0,0,0,0,0,0,
0,0,0,0,0,0,0,0,0,0,0,0,0,0,0,0,0,0,0,0,0,0,0,0,0,0,0,0,0,0,0,0,0,0,0,0,0,0,0,0,
0,0,0,0,0,0,0,0,0,0,0,0,0,0,0,0,0,0,0,0,0,0,0,0,0,0,0,0,0,0,0,0,0,0,0,0,0,0,0,0,
0,0,0,0,0,0,0,0,0,0,0,0,0,0,0,0,0,0,0,0,0,0,0,0,0,0,0,0,0,0,0,0,0,0,0,0,0,0,0,0,
0,0,0,0,0,0,0,0,0,0,0,0,0,0,0,0,0,0,0,0,0,0,0,0,0,0,0,0,0,0,0,0,0,0,0,0,0,0,0,0,
0,0,0,0,0,0,0,0,0,0,0,0,0,0,0,0,0,0,0,0,0,0,0,0,0,0,0,0,0,0,0,0,0,0,0,0,0,0,0,0,
0,0,0,0,0,0,0,0,0,0,0,0,0,0,0,0,0,0,0,0,0,0,0,0,0,0,0,0,0,0,0,0,0,0,0,0,0,0,0,0,
0,0,0,0,0,0,0,0,0,0,0,0,0,0,0,0,0,0,0,0,0,0,0,0,0,0,0,0,0,0,0,0,0,0,0,0,0,0,0,0,
0,0,0,0,0,0,0,0,0,0,0,0,0,0,0,0,0,0,0,0,0,0,0,0,0,0,0,0,0,0,0,0,0,0,0,0,0,0,0,0,
0,0,0,0,0,0,0,0,0,0,0,0,0,0,0,0,0,0,0,0,0,0,0,0,0,0,0,0,0,0,0,0,0,0,0,0,0,0,0,0,
0,0,0,0,0,0,0,0,0,0,0,0,0,0,0,0,0,0,0,0,0,0,0,0,0,0,0,0,0,0,0,0,0,0,0,0,0,0,0,0,
0,0,0,0,0,0,0,0,0,0,0,0,0,0,0,0,0,0,0,0,0,0,0,0,0,0,0,0,0,0,0,0,0,0,0,0,0,0,0,0,
0,0,0,0,0,0,0,0,0,0,0,0,0,0,0,0,0,0,0,0,0,0,0,0,0,0,0,0,0,0,0,0,0,0,0,0,0,0,0,0,
0,0,0,0,0,0,0,0,0,0,0,0,0,0,0,0,0,0,0,0,0,0,0,0,0,0,0,0,0,0,0,0,0,0,0,0,0,0,0,0,
0,0,0,0,0,0,0,0,0,0,0,0,0,0,0,0,0,0,0,0,0,0,0,0,0,0,0,0,0,0,0,0,0,0,0,0,0,0,0,0,
0,0,0,0,0,0,0,0,0,0,0,0,0,0,0,0,0,0,0,0,0,0,0,0,0,0,0,0,0,0,0,0,0,0,0,0,0,0,0,0,
0,0,0,0,0,0,0,0,0,0,0,0,0,0,0,0,0,0,0,0,0,0,0,0,0,0,0,0,0,0,0,0,0,0,0,0,0,0,0,0,
0,0,0,0,0,0,0,0,0,0,0,0,0,0,0,0,0,0,0,0,0,0,0,0,0,0,0,0,0,0,0,0,0,0,0,0,0,0,0,0,
0,0,0,0,0,0,0,0,0,0,0,0,0,0,0,0,0,0,0,0,0,0,0,0,0,0,0,0,0,0,0,0,0,0,0,0,0,0,0,0,
0,0,0,0,0,0,0,0,0,0,0,0,0,0,0,0,0,0,0,0,0,0,0,0,0,0,0,0,0,0,0,0,0,0,0,0,0,0,0,0,
0,0,0,0,0,0,0,0,0,0,0,0,0,0,0,0,0,0,0,0,0,0,0,0,0,0,0,0,0,0,0,0,0,0,0,0,0,0,0,0,
0,0,0,0,0,0,0,0,0,0,0,0,0,0,0,0,0,0,0,0,0,0,0,0,0,0,0,0,0,0,0,0,0,0,0,0,0,0,0,0,
0,0,0,0,0,0,0,0,0,0,0,0,0,0,0,0,0,0,0,0,0,0,0,0,0,0,0,0,0,0,0,0,0,0,0,0,0,0,0,0,
0,3415,3416,3417,3418,0,0,0,0,0,0,0,0,0,0,0,0,0,0,0,0,0,0,0,0,0,0,0,0,0,0,0,0,0,0,0,0,0,0,0,
0,3423,3424,3425,3426,0,0,0,0,0,0,0,0,0,0,0,0,0,0,0,0,0,0,0,0,0,0,0,0,0,0,0,0,0,0,0,0,0,0,0,
0,3431,3432,3433,3434,0,0,0,0,0,0,0,0,0,0,0,0,0,0,0,0,0,0,0,0,0,0,0,0,0,0,0,0,0,0,0,0,0,0,0,
0,3439,3440,3441,3442,0,0,0,0,0,0,0,0,0,0,0,0,0,0,0,0,0,0,0,0,0,0,0,0,0,0,0,0,0,0,0,0,0,0,0,
0,0,0,0,0,0,0,0,0,0,0,0,0,0,0,0,0,0,0,0,0,0,0,0,0,0,0,0,0,0,0,0,0,0,0,0,0,0,0,0,
0,0,0,0,0,0,0,0,0,0,0,0,0,0,0,0,0,0,0,0,0,0,0,0,0,0,0,0,0,0,0,0,0,0,0,0,0,0,0,0,
0,0,0,0,0,0,0,0,0,0,0,0,0,0,0,0,0,0,0,0,0,0,0,0,0,0,0,0,0,0,0,0,0,0,0,0,0,0,0,0,
0,0,0,0,0,0,0,0,0,0,0,0,0,0,0,0,0,0,0,0,0,0,0,0,0,0,0,0,0,0,0,0,0,0,0,0,0,0,0,0,
0,0,0,0,0,0,0,0,0,0,0,0,0,0,0,0,0,0,0,0,0,0,0,0,0,0,0,0,0,0,0,0,0,0,0,0,0,0,0,0,
0,0,0,0,0,0,0,0,0,0,0,0,0,0,0,0,0,0,0,0,0,0,0,0,0,0,0,0,0,0,0,0,0,0,0,0,0,0,0,0,
0,0,0,0,0,0,0,0,0,0,0,0,0,0,0,0,0,0,0,0,0,0,0,0,0,0,0,0,0,0,0,0,0,0,0,0,0,0,0,0,
0,0,0,0,0,0,0,0,0,0,0,0,0,0,0,0,0,0,0,0,0,0,0,0,0,0,0,0,0,0,0,0,0,0,0,0,0,0,0,0,
0,0,0,0,0,0,0,0,0,0,0,0,0,0,0,0,0,0,0,0,0,0,0,0,0,0,0,0,0,0,0,0,0,0,0,0,0,0,0,0,
0,0,0,0,0,0,0,0,0,0,0,0,0,0,0,0,0,0,0,0,0,0,0,0,0,0,0,0,0,0,0,0,0,0,0,0,0,0,0,0,
0,0,0,0,0,0,0,0,0,0,0,0,0,0,0,0,0,0,0,0,0,0,0,0,0,0,0,0,0,0,0,0,0,0,0,0,0,0,0,0,
0,0,0,0,0,0,0,0,0,0,0,0,0,0,0,0,0,0,0,0,0,0,0,0,0,0,0,0,0,0,0,0,0,0,0,0,0,0,0,0,
0,0,0,0,0,0,0,0,0,0,0,0,0,0,0,0,0,0,0,0,0,0,0,0,0,0,0,0,0,0,0,0,0,0,0,0,0,0,0,0
</data>
 </layer>
 <layer id="4" name="rehas" width="40" height="40">
  <data encoding="csv">
0,0,0,0,0,0,0,0,0,0,0,0,0,0,0,0,0,0,0,0,0,0,0,0,0,0,0,0,0,0,0,0,0,0,0,0,0,0,0,0,
0,0,0,0,0,0,0,0,0,0,0,0,0,0,0,0,0,0,0,0,0,0,0,0,0,0,0,0,0,0,0,0,0,0,0,0,0,0,0,0,
0,0,0,0,0,0,0,0,0,0,0,0,0,0,0,0,0,0,0,0,0,0,0,0,0,0,0,0,0,0,0,0,0,0,0,0,0,0,0,0,
0,0,0,0,0,0,0,0,0,0,0,0,0,0,0,0,0,0,0,0,0,0,0,0,0,0,0,0,0,0,0,0,0,0,0,0,0,0,0,0,
0,0,0,2625,2626,2627,2628,2629,2630,0,2625,2627,2628,2630,0,2625,2626,2627,2628,2629,2630,0,0,0,0,2625,2626,2627,2628,2629,2630,0,2147486278,2627,2628,2629,2630,0,0,0,
0,0,0,2657,2658,2659,2660,2661,2662,0,2657,2659,2660,2662,0,2657,2658,2659,2660,2661,2662,0,0,0,0,2657,2658,2659,2660,2661,2662,0,2147486310,2659,2660,2661,2662,0,0,0,
0,0,0,2689,2690,2691,2692,2693,2694,0,2689,2691,2692,2694,0,2689,2690,2691,2692,2693,2694,0,0,0,0,2689,2690,2691,2692,2693,2694,0,2147486342,2691,2692,2693,2694,0,0,0,
0,0,0,2721,2722,2723,2724,2725,2726,0,2721,2723,2724,2726,0,2721,2722,2723,2724,2725,2726,0,0,0,0,2721,2722,2723,2724,2725,2726,0,2147486374,2723,2724,2725,2726,0,0,0,
0,0,0,0,0,0,0,0,0,0,0,0,0,0,0,0,0,0,0,0,0,0,0,0,0,0,0,0,0,0,0,0,0,0,0,0,0,0,0,0,
0,0,0,0,0,0,0,0,0,0,0,0,0,0,0,0,0,0,0,0,0,0,0,0,0,0,0,0,0,0,0,0,0,0,0,0,0,0,0,0,
0,0,0,0,0,0,0,0,0,0,0,0,0,0,0,0,0,0,0,0,0,0,0,0,0,0,0,0,0,0,0,0,0,0,0,0,0,0,0,0,
0,0,0,0,0,0,0,0,0,0,0,0,0,0,0,0,0,0,0,0,0,0,0,0,0,0,0,0,0,0,0,0,0,0,0,0,0,0,0,0,
0,0,0,0,0,0,0,0,0,0,0,0,0,0,0,0,0,0,0,0,0,0,0,0,0,0,0,0,0,0,0,0,0,0,0,0,0,0,0,0,
0,0,0,0,0,0,0,0,0,0,0,0,0,0,0,0,0,0,0,0,0,0,0,0,0,0,0,0,0,0,0,0,0,0,0,0,0,0,0,0,
0,0,0,0,0,0,0,0,0,0,0,0,0,0,0,0,0,0,0,0,0,0,0,0,0,0,0,0,0,0,0,0,0,0,0,0,0,0,0,0,
0,0,0,0,0,0,0,0,0,0,0,0,0,0,0,0,0,0,0,0,0,0,0,0,0,0,0,0,0,0,0,0,0,0,0,0,0,0,0,0,
0,0,0,0,0,0,0,0,0,0,0,0,0,0,0,0,0,0,0,0,0,0,0,0,0,0,0,0,0,0,0,0,0,0,0,0,0,0,0,0,
0,0,0,0,0,0,0,0,0,0,0,0,0,0,0,0,0,0,0,0,0,0,0,0,0,0,0,0,0,0,0,0,0,0,0,0,0,0,0,0,
0,0,0,0,0,0,0,0,0,0,0,0,0,0,0,0,0,0,0,0,0,0,0,0,0,0,0,0,0,0,0,0,0,0,0,0,0,0,0,0,
0,0,0,0,0,0,0,0,0,0,0,0,0,0,0,0,0,0,0,0,0,0,0,0,0,0,0,0,0,0,0,0,0,0,0,0,0,0,0,0,
0,0,0,0,0,0,0,0,0,0,0,0,0,0,0,0,0,0,0,0,0,0,0,0,0,0,0,0,0,0,0,0,0,0,0,0,0,0,0,0,
0,0,0,0,0,0,0,0,0,0,0,0,0,0,0,0,0,0,0,0,0,0,0,0,0,0,0,0,0,0,0,0,0,0,0,0,0,0,0,0,
0,0,0,0,0,0,0,0,0,0,0,0,0,0,0,0,0,0,0,0,0,0,0,0,0,0,0,0,0,0,0,0,0,0,0,0,0,0,0,0,
0,0,0,0,0,0,0,0,0,0,0,0,0,0,0,0,0,0,0,0,2625,2626,2626,2626,2627,2628,2629,2630,0,0,0,0,0,0,0,0,0,0,0,0,
0,0,0,0,0,0,0,0,0,0,0,0,0,0,0,0,0,0,0,0,2657,2658,2658,2658,2659,2660,2661,2662,0,0,0,0,0,0,0,0,0,0,0,0,
0,0,0,0,0,0,0,0,0,0,0,0,0,0,0,0,0,0,0,0,2689,2690,2690,2690,2691,2692,2693,2694,0,0,0,0,0,0,0,0,0,0,0,0,
0,0,0,0,0,0,0,0,0,0,0,0,0,0,0,0,0,0,0,0,2721,2722,2722,2722,2723,2724,2725,2726,0,0,0,0,0,0,0,0,0,0,0,0,
0,0,0,0,0,0,0,0,0,0,0,0,0,0,0,0,0,0,0,0,0,0,0,0,0,0,0,0,0,0,0,0,0,0,0,0,0,0,0,0,
0,0,0,0,0,0,0,0,0,0,0,0,0,0,0,0,0,0,0,0,0,0,0,0,0,0,0,0,0,0,0,0,0,0,0,0,0,0,0,0,
0,0,0,0,0,0,0,0,0,0,0,0,0,0,0,0,0,0,0,0,0,0,0,0,0,0,0,0,0,0,0,0,0,0,0,0,0,0,0,0,
0,0,0,0,0,0,0,0,0,0,0,0,0,0,0,0,0,0,0,0,0,0,0,0,0,0,0,0,0,0,0,0,0,0,0,0,0,0,0,0,
0,0,0,0,0,0,0,0,0,0,0,0,0,0,0,0,0,0,0,0,0,0,0,0,0,0,0,0,0,0,0,0,0,0,0,0,0,0,0,0,
0,0,0,0,0,0,0,0,0,0,0,0,0,0,0,0,0,0,0,0,0,0,0,0,0,0,0,0,0,0,0,0,0,0,0,0,0,0,0,0,
0,0,0,0,0,0,0,0,0,0,0,0,0,0,0,0,0,0,0,0,0,0,0,0,0,0,0,0,0,0,0,0,0,0,0,0,0,0,0,0,
0,0,0,0,0,0,0,0,0,0,0,0,0,0,0,0,0,0,0,0,0,0,0,0,0,0,0,0,0,0,0,0,0,0,0,0,0,0,0,0,
0,0,0,0,0,0,0,0,0,0,0,0,0,0,0,0,0,0,0,0,0,0,0,0,0,0,0,0,0,0,0,0,0,0,0,0,0,0,0,0,
0,0,0,0,0,0,0,0,0,0,0,0,0,0,0,0,0,0,0,0,0,0,0,0,0,0,0,0,0,0,0,0,0,0,0,0,0,0,0,0,
0,0,0,0,0,0,0,0,0,0,0,0,0,0,0,0,0,0,0,0,0,0,0,0,0,0,0,0,0,0,0,0,0,0,0,0,0,0,0,0,
0,0,0,0,0,0,0,0,0,0,0,0,0,0,0,0,0,0,0,0,0,0,0,0,0,0,0,0,0,0,0,0,0,0,0,0,0,0,0,0,
0,0,0,0,0,0,0,0,0,0,0,0,0,0,0,0,0,0,0,0,0,0,0,0,0,0,0,0,0,0,0,0,0,0,0,0,0,0,0,0
</data>
 </layer>
</map>
